;FLAVOR:Marlin
;TIME:3357
;Filament used: 0.963369m
;Layer height: 0.12
;MINX:78.175
;MINY:86.501
;MINZ:0.2
;MAXX:141.824
;MAXY:133.499
;MAXZ:16.4
;Generated with Cura_SteamEngine 4.9.1
M140 S70
M105
M190 S70
M104 S200
M105
M109 S200
M82 ;absolute extrusion mode
; Ender 3 Custom Start G-code
G92 E0 ; Reset Extruder
G28 ; Home all axes
G1 Z2.0 F3000 ; Move Z Axis up little to prevent scratching of Heat Bed
G1 X0.1 Y20 Z0.3 F5000.0 ; Move to start position
G1 X0.1 Y200.0 Z0.3 F1500.0 E15 ; Draw the first line
G1 X0.4 Y200.0 Z0.3 F5000.0 ; Move to side a little
G1 X0.4 Y20 Z0.3 F1500.0 E30 ; Draw the second line
G92 E0 ; Reset Extruder
G1 Z2.0 F3000 ; Move Z Axis up little to prevent scratching of Heat Bed
G1 X5 Y20 Z0.3 F5000.0 ; Move over to prevent blob squish
G92 E0
G92 E0
G1 F1500 E-8
;LAYER_COUNT:136
;LAYER:0
M107
G0 F6000 X83.886 Y90.385 Z0.2
;TYPE:SKIRT
G1 F1500 E0
G1 F900 X84.74 Y89.7 E0.04369
G1 X85.926 Y88.903 E0.10073
G1 X86.088 Y88.805 E0.10828
G1 X87.045 Y88.272 E0.152
G1 X88.141 Y87.769 E0.20013
G1 X88.328 Y87.692 E0.20821
G1 X89.355 Y87.312 E0.25191
G1 X90.407 Y87.008 E0.29562
G1 X91.618 Y86.759 E0.34496
G1 X91.991 Y86.698 E0.36005
G1 X93.078 Y86.56 E0.40378
G1 X94.441 Y86.501 E0.45823
G1 X94.963 Y86.502 E0.47906
G1 X96.057 Y86.544 E0.52276
G1 X97.31 Y86.691 E0.57311
G1 X97.684 Y86.751 E0.58823
G1 X98.758 Y86.964 E0.63193
G1 X99.814 Y87.255 E0.67565
G1 X99.921 Y87.293 E0.68018
G1 X100.907 Y87.008 E0.72115
G1 X102.118 Y86.759 E0.77049
G1 X102.491 Y86.698 E0.78558
G1 X103.578 Y86.56 E0.82931
G1 X104.941 Y86.501 E0.88376
G1 X105.463 Y86.502 E0.90459
G1 X106.557 Y86.544 E0.94829
G1 X107.81 Y86.691 E0.99864
G1 X108.184 Y86.751 E1.01376
G1 X109.258 Y86.964 E1.05746
G1 X110.314 Y87.255 E1.10118
G1 X111.346 Y87.622 E1.1449
G1 X112.593 Y88.184 E1.19949
G1 X112.942 Y88.361 E1.21511
G1 X113.9 Y88.892 E1.25882
G1 X114.817 Y89.491 E1.30254
G1 X115.299 Y89.866 E1.32691
G1 X126.351 Y89.866 E1.76802
G1 X127.446 Y89.906 E1.81176
G1 X128.534 Y90.026 E1.85544
G1 X130.078 Y90.336 E1.9183
G1 X130.308 Y90.395 E1.92777
G1 X131.358 Y90.706 E1.97148
G1 X132.383 Y91.093 E2.01521
G1 X133.377 Y91.553 E2.05893
G1 X134.335 Y92.084 E2.10264
G1 X135.251 Y92.684 E2.14635
G1 X136.121 Y93.35 E2.19008
G1 X136.94 Y94.077 E2.23379
G1 X137.401 Y94.536 E2.25975
G1 X137.57 Y94.712 E2.26949
G1 X138.299 Y95.529 E2.31319
G1 X138.967 Y96.397 E2.35691
G1 X139.569 Y97.312 E2.40062
G1 X140.103 Y98.268 E2.44433
G1 X140.566 Y99.261 E2.48805
G1 X141.109 Y100.764 E2.55184
G1 X141.183 Y101.009 E2.56205
G1 X141.461 Y102.068 E2.60575
G1 X141.662 Y103.145 E2.64948
G1 X141.783 Y104.234 E2.69321
G1 X141.824 Y105.346 E2.73762
G1 X141.824 Y114.883 E3.11827
G1 X141.784 Y115.978 E3.162
G1 X141.664 Y117.066 E3.20569
G1 X141.465 Y118.143 E3.2494
G1 X141.188 Y119.203 E3.29313
G1 X140.942 Y119.952 E3.32459
G1 X140.835 Y120.25 E3.33723
G1 X140.427 Y121.267 E3.38096
G1 X139.946 Y122.251 E3.42468
G1 X139.395 Y123.197 E3.46837
G1 X138.777 Y124.101 E3.51208
G1 X138.093 Y124.957 E3.55581
G1 X137.35 Y125.761 E3.59951
G1 X136.562 Y126.498 E3.64257
G1 X136.416 Y126.625 E3.65029
G1 X135.564 Y127.314 E3.69402
G1 X134.664 Y127.938 E3.73774
G1 X133.72 Y128.495 E3.78148
G1 X132.739 Y128.981 E3.82518
G1 X131.725 Y129.395 E3.86889
G1 X130.792 Y129.702 E3.90809
G1 X130.584 Y129.763 E3.91674
G1 X129.523 Y130.032 E3.96043
G1 X128.444 Y130.224 E4.00417
G1 X127.355 Y130.336 E4.04787
G1 X126.26 Y130.369 E4.09159
G1 X126.078 Y130.361 E4.09886
G1 X115.483 Y130.361 E4.52173
G1 X115.21 Y130.567 E4.53538
G1 X114.957 Y130.745 E4.54773
G1 X114.039 Y131.342 E4.59143
G1 X113.08 Y131.871 E4.63515
G1 X112.084 Y132.328 E4.67888
G1 X111.058 Y132.711 E4.72259
G1 X110.007 Y133.018 E4.76629
G1 X108.848 Y133.264 E4.81358
G1 X108.719 Y133.286 E4.81881
G1 X107.633 Y133.43 E4.86253
G1 X106.196 Y133.499 E4.91995
G1 X93.653 Y133.498 E5.42057
G1 X92.558 Y133.458 E5.4643
G1 X91.47 Y133.338 E5.50799
G1 X90.393 Y133.139 E5.5517
G1 X89.333 Y132.862 E5.59543
G1 X88.517 Y132.591 E5.62975
G1 X88.218 Y132.482 E5.64245
G1 X87.203 Y132.069 E5.68618
G1 X86.221 Y131.584 E5.7299
G1 X85.277 Y131.028 E5.77362
G1 X84.376 Y130.405 E5.81734
G1 X83.524 Y129.718 E5.86103
G1 X82.723 Y128.97 E5.90477
G1 X81.993 Y128.182 E5.94764
G1 X81.862 Y128.03 E5.95565
G1 X81.177 Y127.174 E5.99941
G1 X80.557 Y126.272 E6.04309
G1 X80.005 Y125.326 E6.08681
G1 X79.523 Y124.342 E6.13054
G1 X79.114 Y123.326 E6.17425
G1 X78.655 Y121.806 E6.23763
G1 X78.606 Y121.606 E6.24584
G1 X78.384 Y120.534 E6.28954
G1 X78.242 Y119.448 E6.33325
G1 X78.175 Y118.036 E6.38967
G1 X78.176 Y102.738 E7.00025
G1 X78.216 Y101.643 E7.04398
G1 X78.366 Y100.357 E7.09565
G1 X78.426 Y99.984 E7.11073
G1 X78.64 Y98.909 E7.15448
G1 X78.931 Y97.854 E7.19816
G1 X79.298 Y96.822 E7.24188
G1 X79.827 Y95.643 E7.29345
G1 X80.003 Y95.292 E7.30912
G1 X80.53 Y94.331 E7.35287
G1 X81.125 Y93.411 E7.3966
G1 X81.785 Y92.538 E7.44028
G1 X82.805 Y91.408 E7.50104
G1 X83.083 Y91.13 E7.51673
G1 X83.886 Y90.385 E7.56045
G0 F6000 X84.158 Y90.678
G1 F900 X85.002 Y90.003 E7.60358
G1 X86.133 Y89.245 E7.65792
G1 X86.295 Y89.147 E7.66548
G1 X87.24 Y88.622 E7.70862
G1 X88.293 Y88.139 E7.75486
G1 X88.48 Y88.062 E7.76293
G1 X89.494 Y87.688 E7.80607
G1 X90.532 Y87.389 E7.84918
G1 X91.683 Y87.153 E7.89608
G1 X92.056 Y87.092 E7.91116
G1 X93.128 Y86.958 E7.95428
G1 X94.44 Y86.901 E8.0067
G1 X94.962 Y86.902 E8.02753
G1 X96.042 Y86.944 E8.07067
G1 X97.247 Y87.086 E8.11909
G1 X97.621 Y87.146 E8.13421
G1 X98.681 Y87.357 E8.17735
G1 X99.722 Y87.645 E8.22046
G1 X99.919 Y87.716 E8.22882
G1 X99.994 Y87.688 E8.23201
G1 X101.032 Y87.389 E8.27512
G1 X102.183 Y87.153 E8.32202
G1 X102.556 Y87.092 E8.3371
G1 X103.628 Y86.958 E8.38022
G1 X104.94 Y86.901 E8.43264
G1 X105.462 Y86.902 E8.45347
G1 X106.542 Y86.944 E8.49661
G1 X107.747 Y87.086 E8.54504
G1 X108.121 Y87.146 E8.56015
G1 X109.181 Y87.357 E8.60329
G1 X110.222 Y87.645 E8.6464
G1 X111.239 Y88.01 E8.68953
G1 X112.412 Y88.541 E8.74092
G1 X112.761 Y88.718 E8.75653
G1 X113.706 Y89.242 E8.79966
G1 X114.609 Y89.835 E8.84278
G1 X115.163 Y90.266 E8.87079
G1 X126.351 Y90.266 E9.31733
G1 X127.431 Y90.306 E9.36047
G1 X128.505 Y90.426 E9.4036
G1 X129.979 Y90.724 E9.46362
G1 X130.209 Y90.783 E9.4731
G1 X131.245 Y91.09 E9.51622
G1 X132.255 Y91.473 E9.55934
G1 X133.235 Y91.929 E9.60248
G1 X134.178 Y92.457 E9.64561
G1 X135.079 Y93.053 E9.68873
G1 X135.934 Y93.714 E9.73186
G1 X137.112 Y94.813 E9.79616
G1 X137.281 Y94.989 E9.8059
G1 X138 Y95.795 E9.84901
G1 X138.658 Y96.653 E9.89216
G1 X139.25 Y97.557 E9.93529
G1 X139.773 Y98.502 E9.9784
G1 X140.226 Y99.483 E10.02153
G1 X140.726 Y100.88 E10.08075
G1 X140.8 Y101.125 E10.09096
G1 X141.074 Y102.17 E10.13408
G1 X141.27 Y103.232 E10.17718
G1 X141.387 Y104.307 E10.22034
G1 X141.424 Y105.346 E10.26184
G1 X141.424 Y114.883 E10.64248
G1 X141.384 Y115.963 E10.68562
G1 X141.264 Y117.037 E10.72875
G1 X141.065 Y118.099 E10.77187
G1 X140.789 Y119.143 E10.81497
G1 X140.565 Y119.817 E10.84332
G1 X140.458 Y120.115 E10.85596
G1 X140.056 Y121.118 E10.89908
G1 X139.58 Y122.088 E10.94221
G1 X139.034 Y123.02 E10.98532
G1 X138.42 Y123.91 E11.02848
G1 X137.743 Y124.751 E11.07157
G1 X137.005 Y125.541 E11.11472
G1 X136.299 Y126.197 E11.15318
G1 X136.153 Y126.324 E11.1609
G1 X135.312 Y127.002 E11.20402
G1 X134.423 Y127.617 E11.24716
G1 X133.491 Y128.164 E11.29029
G1 X132.522 Y128.64 E11.33338
G1 X131.519 Y129.044 E11.37654
G1 X130.68 Y129.318 E11.41177
G1 X130.472 Y129.379 E11.42042
G1 X129.424 Y129.644 E11.46356
G1 X128.36 Y129.832 E11.50669
G1 X127.285 Y129.94 E11.54981
G1 X126.205 Y129.968 E11.59293
G1 X126.06 Y129.961 E11.59872
G1 X115.353 Y129.961 E12.02606
G1 X114.98 Y130.24 E12.04465
G1 X114.727 Y130.418 E12.057
G1 X113.821 Y131.006 E12.10011
G1 X112.874 Y131.526 E12.14323
G1 X111.891 Y131.975 E12.18636
G1 X110.877 Y132.35 E12.22951
G1 X109.839 Y132.648 E12.27261
G1 X108.78 Y132.869 E12.31579
G1 X108.651 Y132.891 E12.32101
G1 X107.58 Y133.033 E12.36413
G1 X106.196 Y133.099 E12.41944
G1 X93.653 Y133.098 E12.92005
G1 X92.573 Y133.058 E12.96319
G1 X91.499 Y132.938 E13.00632
G1 X90.437 Y132.739 E13.04945
G1 X89.393 Y132.462 E13.09256
G1 X88.654 Y132.215 E13.12365
G1 X88.355 Y132.106 E13.13636
G1 X87.354 Y131.699 E13.17948
G1 X86.386 Y131.218 E13.22263
G1 X85.456 Y130.668 E13.26575
G1 X84.569 Y130.05 E13.3089
G1 X83.731 Y129.368 E13.35202
G1 X82.945 Y128.626 E13.39516
G1 X82.296 Y127.92 E13.43344
G1 X82.165 Y127.768 E13.44145
G1 X81.49 Y126.924 E13.48458
G1 X80.88 Y126.033 E13.52768
G1 X80.337 Y125.098 E13.57083
G1 X79.865 Y124.126 E13.61396
G1 X79.466 Y123.122 E13.65708
G1 X79.043 Y121.711 E13.71587
G1 X78.994 Y121.511 E13.72409
G1 X78.776 Y120.453 E13.7672
G1 X78.637 Y119.381 E13.81035
G1 X78.575 Y118.036 E13.86409
G1 X78.576 Y102.738 E14.47466
G1 X78.616 Y101.658 E14.5178
G1 X78.761 Y100.42 E14.56755
G1 X78.821 Y100.047 E14.58262
G1 X79.032 Y98.988 E14.62572
G1 X79.321 Y97.946 E14.66888
G1 X79.686 Y96.929 E14.71201
G1 X80.185 Y95.822 E14.76047
G1 X80.361 Y95.471 E14.77614
G1 X80.881 Y94.523 E14.8193
G1 X81.469 Y93.617 E14.86241
G1 X82.123 Y92.757 E14.90553
G1 X83.088 Y91.691 E14.96292
G1 X83.366 Y91.413 E14.97861
G1 X84.158 Y90.678 E15.02173
G0 F6000 X84.43 Y90.971
G1 F900 X85.264 Y90.307 E15.06428
G1 X86.34 Y89.587 E15.11596
G1 X86.502 Y89.489 E15.12351
G1 X87.434 Y88.972 E15.16605
G1 X88.445 Y88.509 E15.21043
G1 X88.632 Y88.432 E15.2185
G1 X89.632 Y88.063 E15.26105
G1 X90.657 Y87.771 E15.30358
G1 X91.747 Y87.548 E15.34799
G1 X92.12 Y87.487 E15.36307
G1 X93.178 Y87.355 E15.40563
G1 X94.439 Y87.301 E15.456
G1 X94.961 Y87.302 E15.47684
G1 X96.026 Y87.344 E15.51938
G1 X97.183 Y87.481 E15.56588
G1 X97.557 Y87.541 E15.581
G1 X98.602 Y87.749 E15.62352
G1 X99.629 Y88.035 E15.66607
G1 X99.921 Y88.141 E15.67847
G1 X100.132 Y88.063 E15.68745
G1 X101.157 Y87.771 E15.72999
G1 X102.247 Y87.548 E15.77439
G1 X102.62 Y87.487 E15.78948
G1 X103.678 Y87.355 E15.83203
G1 X104.939 Y87.301 E15.88241
G1 X105.461 Y87.302 E15.90324
G1 X106.526 Y87.344 E15.94578
G1 X107.683 Y87.481 E15.99228
G1 X108.057 Y87.541 E16.0074
G1 X109.102 Y87.749 E16.04993
G1 X110.129 Y88.035 E16.09248
G1 X111.131 Y88.398 E16.13501
G1 X112.231 Y88.898 E16.18324
G1 X112.58 Y89.075 E16.19886
G1 X113.512 Y89.592 E16.24139
G1 X114.402 Y90.178 E16.28392
G1 X115.027 Y90.666 E16.31557
G1 X126.351 Y90.666 E16.76754
G1 X127.416 Y90.706 E16.81007
G1 X128.475 Y90.826 E16.85261
G1 X129.879 Y91.111 E16.90979
G1 X130.109 Y91.17 E16.91927
G1 X131.131 Y91.474 E16.96183
G1 X132.127 Y91.853 E17.00436
G1 X133.092 Y92.305 E17.04689
G1 X134.02 Y92.829 E17.08942
G1 X134.906 Y93.421 E17.13195
G1 X135.745 Y94.078 E17.17449
G1 X136.824 Y95.09 E17.23353
G1 X136.993 Y95.266 E17.24327
G1 X137.701 Y96.062 E17.28579
G1 X138.348 Y96.908 E17.32829
G1 X138.93 Y97.801 E17.37084
G1 X139.443 Y98.735 E17.41337
G1 X139.885 Y99.705 E17.45591
G1 X140.343 Y100.995 E17.51055
G1 X140.417 Y101.24 E17.52076
G1 X140.687 Y102.271 E17.5633
G1 X140.879 Y103.319 E17.60582
G1 X140.991 Y104.379 E17.64837
G1 X141.024 Y105.346 E17.68698
G1 X141.024 Y114.883 E18.06763
G1 X140.984 Y115.948 E18.11016
G1 X140.864 Y117.007 E18.1527
G1 X140.665 Y118.054 E18.19524
G1 X140.389 Y119.083 E18.23776
G1 X140.189 Y119.682 E18.26296
G1 X140.082 Y119.98 E18.2756
G1 X139.684 Y120.968 E18.31811
G1 X139.214 Y121.925 E18.36067
G1 X138.673 Y122.843 E18.40319
G1 X138.064 Y123.718 E18.44574
G1 X137.392 Y124.545 E18.48827
G1 X136.66 Y125.319 E18.53079
G1 X136.037 Y125.895 E18.56466
G1 X135.891 Y126.022 E18.57238
G1 X135.061 Y126.691 E18.61493
G1 X134.183 Y127.295 E18.65746
G1 X133.263 Y127.832 E18.69998
G1 X132.305 Y128.299 E18.74252
G1 X131.315 Y128.692 E18.78503
G1 X130.567 Y128.934 E18.81641
G1 X130.359 Y128.995 E18.82506
G1 X129.326 Y129.256 E18.86758
G1 X128.276 Y129.44 E18.91013
G1 X127.216 Y129.543 E18.95264
G1 X126.15 Y129.567 E18.99519
G1 X126.036 Y129.561 E18.99975
G1 X115.225 Y129.561 E19.43124
G1 X114.75 Y129.913 E19.45484
G1 X114.497 Y130.091 E19.46718
G1 X113.603 Y130.671 E19.50972
G1 X112.668 Y131.182 E19.55224
G1 X111.697 Y131.622 E19.59479
G1 X110.696 Y131.988 E19.63733
G1 X109.671 Y132.277 E19.67984
G1 X108.713 Y132.475 E19.71888
G1 X108.584 Y132.497 E19.7241
G1 X107.528 Y132.637 E19.76662
G1 X106.196 Y132.699 E19.81984
G1 X93.653 Y132.698 E20.32046
G1 X92.588 Y132.658 E20.36299
G1 X91.529 Y132.538 E20.40553
G1 X90.482 Y132.339 E20.44807
G1 X89.453 Y132.062 E20.4906
G1 X88.791 Y131.839 E20.51848
G1 X88.492 Y131.73 E20.53118
G1 X87.505 Y131.328 E20.57372
G1 X86.551 Y130.853 E20.61625
G1 X85.635 Y130.307 E20.65881
G1 X84.763 Y129.695 E20.70133
G1 X83.94 Y129.019 E20.74384
G1 X83.169 Y128.283 E20.78638
G1 X82.599 Y127.659 E20.82011
G1 X82.468 Y127.507 E20.82812
G1 X81.803 Y126.675 E20.87063
G1 X81.202 Y125.794 E20.9132
G1 X80.669 Y124.871 E20.95574
G1 X80.207 Y123.911 E20.99826
G1 X79.818 Y122.919 E21.04079
G1 X79.432 Y121.616 E21.09503
G1 X79.383 Y121.416 E21.10325
G1 X79.168 Y120.372 E21.14579
G1 X79.033 Y119.315 E21.18832
G1 X78.975 Y118.036 E21.23942
G1 X78.976 Y102.738 E21.85
G1 X79.016 Y101.673 E21.89253
G1 X79.156 Y100.484 E21.94032
G1 X79.216 Y100.111 E21.9554
G1 X79.425 Y99.066 E21.99793
G1 X79.711 Y98.039 E22.04048
G1 X80.074 Y97.037 E22.08301
G1 X80.542 Y96.001 E22.12839
G1 X80.718 Y95.65 E22.14406
G1 X81.231 Y94.716 E22.18659
G1 X81.813 Y93.823 E22.22913
G1 X82.46 Y92.976 E22.27167
G1 X83.371 Y91.974 E22.32572
G1 X83.649 Y91.696 E22.34141
G1 X84.43 Y90.971 E22.38395
G0 F6000 X84.702 Y91.265
G1 F900 X85.525 Y90.612 E22.42588
G1 X86.547 Y89.929 E22.47494
G1 X86.709 Y89.831 E22.48249
G1 X87.628 Y89.322 E22.52442
G1 X88.598 Y88.878 E22.567
G1 X88.785 Y88.801 E22.57507
G1 X89.771 Y88.439 E22.61699
G1 X90.781 Y88.152 E22.6589
G1 X91.812 Y87.943 E22.70089
G1 X92.185 Y87.882 E22.71597
G1 X93.227 Y87.752 E22.75788
G1 X94.438 Y87.701 E22.80626
G1 X94.96 Y87.702 E22.8271
G1 X96.01 Y87.744 E22.86904
G1 X97.12 Y87.876 E22.91365
G1 X97.494 Y87.936 E22.92877
G1 X98.524 Y88.142 E22.97069
G1 X99.536 Y88.426 E23.01264
G1 X99.923 Y88.567 E23.02908
G1 X100.271 Y88.439 E23.04388
G1 X101.281 Y88.152 E23.08579
G1 X102.312 Y87.943 E23.12778
G1 X102.685 Y87.882 E23.14286
G1 X103.727 Y87.752 E23.18477
G1 X104.938 Y87.701 E23.23315
G1 X105.46 Y87.702 E23.25398
G1 X106.51 Y87.744 E23.29592
G1 X107.62 Y87.876 E23.34054
G1 X107.994 Y87.936 E23.35566
G1 X109.024 Y88.142 E23.39758
G1 X110.036 Y88.426 E23.43953
G1 X111.023 Y88.785 E23.48145
G1 X112.05 Y89.254 E23.52651
G1 X112.399 Y89.431 E23.54213
G1 X113.317 Y89.942 E23.58406
G1 X114.194 Y90.521 E23.62601
G1 X114.891 Y91.066 E23.66132
G1 X126.351 Y91.066 E24.11871
G1 X127.401 Y91.106 E24.16065
G1 X128.444 Y91.226 E24.20255
G1 X129.78 Y91.499 E24.25698
G1 X130.01 Y91.558 E24.26646
G1 X131.017 Y91.857 E24.30838
G1 X131.998 Y92.233 E24.35031
G1 X132.948 Y92.682 E24.39225
G1 X133.861 Y93.201 E24.43417
G1 X134.732 Y93.789 E24.47611
G1 X135.555 Y94.441 E24.51802
G1 X136.535 Y95.367 E24.57183
G1 X136.704 Y95.543 E24.58157
G1 X137.402 Y96.328 E24.62349
G1 X138.039 Y97.164 E24.66544
G1 X138.61 Y98.045 E24.70735
G1 X139.112 Y98.968 E24.74928
G1 X139.543 Y99.926 E24.79121
G1 X139.961 Y101.111 E24.84136
G1 X140.035 Y101.356 E24.85157
G1 X140.3 Y102.372 E24.89348
G1 X140.487 Y103.406 E24.93542
G1 X140.595 Y104.451 E24.97735
G1 X140.624 Y105.346 E25.01309
G1 X140.624 Y114.883 E25.39373
G1 X140.584 Y115.933 E25.43567
G1 X140.464 Y116.976 E25.47757
G1 X140.266 Y118.008 E25.51952
G1 X139.989 Y119.021 E25.56143
G1 X139.812 Y119.547 E25.58358
G1 X139.705 Y119.845 E25.59622
G1 X139.313 Y120.819 E25.63812
G1 X138.847 Y121.761 E25.68007
G1 X138.312 Y122.665 E25.722
G1 X137.709 Y123.525 E25.76392
