;FLAVOR:Marlin
;TIME:2351
;Filament used: 0.714817m
;Layer height: 0.12
;MINX:87.482
;MINY:89.981
;MINZ:0.2
;MAXX:132.519
;MAXY:130.019
;MAXZ:17.36
;Generated with Cura_SteamEngine 4.9.1
M140 S70
M105
M190 S70
M104 S200
M105
M109 S200
M82 ;absolute extrusion mode
; Ender 3 Custom Start G-code
G92 E0 ; Reset Extruder
G28 ; Home all axes
G1 Z2.0 F3000 ; Move Z Axis up little to prevent scratching of Heat Bed
G1 X0.1 Y20 Z0.3 F5000.0 ; Move to start position
G1 X0.1 Y200.0 Z0.3 F1500.0 E15 ; Draw the first line
G1 X0.4 Y200.0 Z0.3 F5000.0 ; Move to side a little
G1 X0.4 Y20 Z0.3 F1500.0 E30 ; Draw the second line
G92 E0 ; Reset Extruder
G1 Z2.0 F3000 ; Move Z Axis up little to prevent scratching of Heat Bed
G1 X5 Y20 Z0.3 F5000.0 ; Move over to prevent blob squish
G92 E0
G92 E0
G1 F1500 E-8
;LAYER_COUNT:144
;LAYER:0
M107
G0 F6000 X92.051 Y94.644 Z0.2
;TYPE:SKIRT
G1 F1500 E0
G1 F900 X92.85 Y93.894 E0.04374
G1 X93.7 Y93.204 E0.08743
G1 X94.382 Y92.721 E0.12079
G1 X94.614 Y92.566 E0.13193
G1 X95.546 Y91.991 E0.17563
G1 X96.518 Y91.485 E0.21937
G1 X97.524 Y91.053 E0.26307
G1 X98.559 Y90.694 E0.30679
G1 X100.005 Y90.329 E0.36631
G1 X100.285 Y90.273 E0.37771
G1 X101.366 Y90.098 E0.42142
G1 X102.457 Y90.002 E0.46513
G1 X103.226 Y89.982 E0.49583
G1 X116.814 Y89.981 E1.03816
G1 X117.908 Y90.021 E1.08185
G1 X118.997 Y90.141 E1.12558
G1 X119.854 Y90.292 E1.16031
G1 X119.999 Y90.322 E1.16622
G1 X121.063 Y90.583 E1.20995
G1 X122.105 Y90.921 E1.25367
G1 X122.934 Y91.252 E1.28929
G1 X123.162 Y91.351 E1.29922
G1 X124.15 Y91.824 E1.34294
G1 X125.101 Y92.367 E1.38664
G1 X126.01 Y92.979 E1.43038
G1 X126.872 Y93.655 E1.4741
G1 X127.768 Y94.477 E1.52263
G1 X127.969 Y94.677 E1.53395
G1 X128.717 Y95.477 E1.57766
G1 X129.404 Y96.33 E1.62138
G1 X130.027 Y97.231 E1.6651
G1 X130.583 Y98.175 E1.70882
G1 X131.077 Y99.174 E1.7533
G1 X131.181 Y99.406 E1.76345
G1 X131.592 Y100.421 E1.80716
G1 X131.928 Y101.464 E1.85089
G1 X132.281 Y103.027 E1.91485
G1 X132.306 Y103.174 E1.9208
G1 X132.45 Y104.26 E1.96452
G1 X132.518 Y105.687 E2.02154
G1 X132.519 Y114.313 E2.36582
G1 X132.479 Y115.408 E2.40956
G1 X132.36 Y116.497 E2.45328
G1 X132.208 Y117.354 E2.48802
G1 X132.178 Y117.499 E2.49393
G1 X131.917 Y118.563 E2.53765
G1 X131.579 Y119.605 E2.58137
G1 X131.248 Y120.434 E2.617
G1 X131.149 Y120.662 E2.62692
G1 X130.676 Y121.65 E2.67064
G1 X130.133 Y122.601 E2.71435
G1 X129.521 Y123.51 E2.75809
G1 X128.845 Y124.372 E2.80181
G1 X128.023 Y125.268 E2.85034
G1 X127.823 Y125.469 E2.86166
G1 X127.023 Y126.217 E2.90537
G1 X126.17 Y126.904 E2.94908
G1 X125.269 Y127.527 E2.9928
G1 X124.325 Y128.083 E3.03653
G1 X123.304 Y128.586 E3.08196
G1 X123.071 Y128.69 E3.09214
G1 X122.055 Y129.1 E3.13587
G1 X121.012 Y129.434 E3.17958
G1 X119.489 Y129.778 E3.2419
G1 X119.343 Y129.803 E3.24781
G1 X118.257 Y129.948 E3.29154
G1 X116.812 Y130.018 E3.34928
G1 X103.186 Y130.019 E3.89312
G1 X102.092 Y129.979 E3.93681
G1 X101.003 Y129.859 E3.98054
G1 X100.146 Y129.708 E4.01527
G1 X100.001 Y129.678 E4.02118
G1 X98.937 Y129.417 E4.06491
G1 X97.895 Y129.079 E4.10863
G1 X97.066 Y128.748 E4.14426
G1 X96.838 Y128.649 E4.15418
G1 X95.85 Y128.176 E4.1979
G1 X94.899 Y127.633 E4.24161
G1 X93.99 Y127.021 E4.28534
G1 X93.128 Y126.345 E4.32906
G1 X92.232 Y125.523 E4.3776
G1 X92.031 Y125.323 E4.38891
G1 X91.283 Y124.523 E4.43262
G1 X90.596 Y123.67 E4.47634
G1 X89.973 Y122.769 E4.52006
G1 X89.417 Y121.825 E4.56379
G1 X88.914 Y120.804 E4.60921
G1 X88.81 Y120.571 E4.6194
G1 X88.4 Y119.555 E4.66312
G1 X88.066 Y118.512 E4.70684
G1 X87.722 Y116.989 E4.76915
G1 X87.697 Y116.843 E4.77506
G1 X87.552 Y115.757 E4.81879
G1 X87.482 Y114.311 E4.87657
G1 X87.482 Y105.723 E5.21934
G1 X87.522 Y104.628 E5.26307
G1 X87.642 Y103.54 E5.30676
G1 X87.869 Y102.34 E5.3555
G1 X87.941 Y102.029 E5.36825
G1 X88.226 Y100.972 E5.41194
G1 X88.589 Y99.938 E5.45568
G1 X89.025 Y98.933 E5.4994
G1 X89.534 Y97.964 E5.54309
G1 X90.112 Y97.033 E5.58682
G1 X90.468 Y96.527 E5.61152
G1 X90.629 Y96.308 E5.62237
G1 X91.31 Y95.45 E5.66609
G1 X92.051 Y94.644 E5.70978
G0 F6000 X92.356 Y94.904
G1 F900 X93.145 Y94.167 E5.75288
G1 X93.987 Y93.489 E5.79602
G1 X94.604 Y93.053 E5.82618
G1 X94.836 Y92.898 E5.83731
G1 X95.756 Y92.332 E5.88043
G1 X96.716 Y91.834 E5.92359
G1 X97.709 Y91.41 E5.96668
G1 X98.732 Y91.06 E6.00984
G1 X100.084 Y90.722 E6.06546
G1 X100.364 Y90.666 E6.07686
G1 X101.43 Y90.493 E6.11996
G1 X102.507 Y90.4 E6.1631
G1 X103.226 Y90.382 E6.19181
G1 X116.814 Y90.381 E6.73414
G1 X117.894 Y90.421 E6.77727
G1 X118.968 Y90.541 E6.8204
G1 X119.773 Y90.684 E6.85304
G1 X119.918 Y90.714 E6.85895
G1 X120.967 Y90.972 E6.90206
G1 X121.995 Y91.307 E6.94522
G1 X122.775 Y91.619 E6.97874
G1 X123.003 Y91.718 E6.98867
G1 X123.978 Y92.185 E7.03181
G1 X124.915 Y92.722 E7.07492
G1 X125.81 Y93.328 E7.11806
G1 X126.658 Y93.998 E7.16119
G1 X127.486 Y94.761 E7.20613
G1 X127.687 Y94.961 E7.21745
G1 X128.424 Y95.751 E7.26057
G1 X129.101 Y96.593 E7.30369
G1 X129.714 Y97.483 E7.34682
G1 X130.259 Y98.416 E7.38995
G1 X130.712 Y99.338 E7.43095
G1 X130.816 Y99.57 E7.4411
G1 X131.221 Y100.571 E7.48419
G1 X131.551 Y101.6 E7.52732
G1 X131.886 Y103.094 E7.58843
G1 X131.911 Y103.241 E7.59439
G1 X132.053 Y104.312 E7.63751
G1 X132.118 Y105.687 E7.69245
G1 X132.119 Y114.313 E8.03673
G1 X132.079 Y115.393 E8.07986
G1 X131.96 Y116.467 E8.12299
G1 X131.816 Y117.273 E8.15567
G1 X131.786 Y117.418 E8.16158
G1 X131.528 Y118.467 E8.2047
G1 X131.193 Y119.495 E8.24785
G1 X130.881 Y120.275 E8.28138
G1 X130.782 Y120.503 E8.2913
G1 X130.315 Y121.478 E8.33445
G1 X129.778 Y122.415 E8.37755
G1 X129.172 Y123.31 E8.42069
G1 X128.502 Y124.158 E8.46382
G1 X127.739 Y124.986 E8.50876
G1 X127.539 Y125.187 E8.52008
G1 X126.749 Y125.924 E8.5632
G1 X125.907 Y126.601 E8.60632
G1 X125.017 Y127.214 E8.64946
G1 X124.084 Y127.759 E8.69258
G1 X123.141 Y128.221 E8.73449
G1 X122.908 Y128.325 E8.74468
G1 X121.906 Y128.729 E8.7878
G1 X120.876 Y129.057 E8.83094
G1 X119.421 Y129.384 E8.89046
G1 X119.275 Y129.409 E8.89637
G1 X118.204 Y129.551 E8.93949
G1 X116.812 Y129.618 E8.99512
G1 X103.186 Y129.619 E9.53896
G1 X102.106 Y129.579 E9.58209
G1 X101.032 Y129.459 E9.62523
G1 X100.227 Y129.316 E9.65786
G1 X100.082 Y129.286 E9.66377
G1 X99.033 Y129.028 E9.70688
G1 X98.005 Y128.693 E9.75004
G1 X97.225 Y128.381 E9.78357
G1 X96.997 Y128.282 E9.79349
G1 X96.022 Y127.815 E9.83664
G1 X95.085 Y127.278 E9.87974
G1 X94.19 Y126.672 E9.92288
G1 X93.342 Y126.002 E9.96601
G1 X92.514 Y125.239 E10.01095
G1 X92.313 Y125.039 E10.02227
G1 X91.576 Y124.249 E10.06539
G1 X90.899 Y123.407 E10.10851
G1 X90.286 Y122.517 E10.15164
G1 X89.741 Y121.584 E10.19477
G1 X89.279 Y120.641 E10.23668
G1 X89.175 Y120.408 E10.24687
G1 X88.771 Y119.406 E10.28999
G1 X88.443 Y118.376 E10.33313
G1 X88.116 Y116.921 E10.39265
G1 X88.091 Y116.775 E10.39856
G1 X87.949 Y115.704 E10.44168
G1 X87.882 Y114.311 E10.49734
G1 X87.882 Y105.723 E10.84011
G1 X87.922 Y104.643 E10.88324
G1 X88.042 Y103.569 E10.92638
G1 X88.258 Y102.43 E10.97265
G1 X88.33 Y102.119 E10.98539
G1 X88.613 Y101.076 E11.02852
G1 X88.972 Y100.057 E11.07164
G1 X89.405 Y99.067 E11.11477
G1 X89.91 Y98.112 E11.15789
G1 X90.791 Y96.764 E11.22216
G1 X90.952 Y96.545 E11.23301
G1 X91.624 Y95.699 E11.27613
G1 X92.356 Y94.904 E11.31926
G0 F6000 X92.661 Y95.166
G1 F900 X93.441 Y94.44 E11.36179
G1 X94.274 Y93.775 E11.40433
G1 X94.827 Y93.386 E11.43132
G1 X95.059 Y93.231 E11.44245
G1 X95.966 Y92.672 E11.48498
G1 X96.913 Y92.184 E11.5275
G1 X97.894 Y91.767 E11.57004
G1 X98.904 Y91.426 E11.61259
G1 X100.162 Y91.114 E11.66432
G1 X100.442 Y91.058 E11.67572
G1 X101.494 Y90.888 E11.71825
G1 X102.556 Y90.798 E11.76079
G1 X103.226 Y90.782 E11.78754
G1 X116.814 Y90.781 E12.32986
G1 X117.879 Y90.821 E12.3724
G1 X118.938 Y90.941 E12.41494
G1 X119.692 Y91.076 E12.44551
G1 X119.837 Y91.106 E12.45142
G1 X120.872 Y91.36 E12.49395
G1 X121.884 Y91.692 E12.53646
G1 X122.616 Y91.986 E12.56795
G1 X122.844 Y92.085 E12.57787
G1 X123.805 Y92.546 E12.62041
G1 X124.728 Y93.077 E12.66291
G1 X125.609 Y93.677 E12.70545
G1 X126.443 Y94.34 E12.74797
G1 X127.204 Y95.044 E12.78935
G1 X127.405 Y95.244 E12.80067
G1 X128.132 Y96.024 E12.84323
G1 X128.798 Y96.855 E12.88573
G1 X129.4 Y97.735 E12.92828
G1 X129.934 Y98.657 E12.97081
G1 X130.347 Y99.501 E13.00831
G1 X130.451 Y99.733 E13.01846
G1 X130.85 Y100.721 E13.06099
G1 X131.174 Y101.737 E13.10355
G1 X131.492 Y103.161 E13.16179
G1 X131.517 Y103.308 E13.16774
G1 X131.656 Y104.365 E13.21029
G1 X131.718 Y105.687 E13.26311
G1 X131.719 Y114.313 E13.60739
G1 X131.679 Y115.378 E13.64993
G1 X131.56 Y116.437 E13.69246
G1 X131.424 Y117.192 E13.72308
G1 X131.394 Y117.337 E13.72899
G1 X131.14 Y118.372 E13.77152
G1 X130.808 Y119.384 E13.81403
G1 X130.514 Y120.116 E13.84552
G1 X130.415 Y120.344 E13.85544
G1 X129.954 Y121.305 E13.89798
G1 X129.423 Y122.228 E13.94048
G1 X128.823 Y123.109 E13.98302
G1 X128.16 Y123.943 E14.02554
G1 X127.456 Y124.704 E14.06692
G1 X127.256 Y124.905 E14.07824
G1 X126.476 Y125.632 E14.1208
G1 X125.645 Y126.298 E14.1633
G1 X124.765 Y126.9 E14.20586
G1 X123.843 Y127.434 E14.24838
G1 X122.978 Y127.856 E14.28679
G1 X122.745 Y127.96 E14.29698
G1 X121.756 Y128.357 E14.33951
G1 X120.74 Y128.68 E14.38206
G1 X119.354 Y128.989 E14.43874
G1 X119.208 Y129.014 E14.44465
G1 X118.151 Y129.155 E14.48721
G1 X116.812 Y129.218 E14.54071
G1 X103.186 Y129.219 E15.08456
G1 X102.121 Y129.179 E15.12709
G1 X101.062 Y129.059 E15.16963
G1 X100.308 Y128.924 E15.2002
G1 X100.163 Y128.894 E15.20611
G1 X99.128 Y128.64 E15.24865
G1 X98.116 Y128.308 E15.29116
G1 X97.384 Y128.014 E15.32264
G1 X97.156 Y127.915 E15.33256
G1 X96.195 Y127.454 E15.3751
G1 X95.272 Y126.923 E15.4176
G1 X94.391 Y126.323 E15.46015
G1 X93.557 Y125.66 E15.50267
G1 X92.796 Y124.956 E15.54405
G1 X92.595 Y124.756 E15.55536
G1 X91.868 Y123.976 E15.59792
G1 X91.202 Y123.145 E15.64042
G1 X90.6 Y122.265 E15.68298
G1 X90.066 Y121.343 E15.7255
G1 X89.644 Y120.478 E15.76392
G1 X89.54 Y120.245 E15.7741
G1 X89.143 Y119.256 E15.81664
G1 X88.82 Y118.24 E15.85919
G1 X88.511 Y116.854 E15.91586
G1 X88.486 Y116.708 E15.92178
G1 X88.345 Y115.651 E15.96434
G1 X88.282 Y114.311 E16.01788
G1 X88.282 Y105.723 E16.36064
G1 X88.322 Y104.658 E16.40318
G1 X88.442 Y103.599 E16.44572
G1 X88.648 Y102.52 E16.48956
G1 X88.72 Y102.209 E16.5023
G1 X88.999 Y101.181 E16.54481
G1 X89.355 Y100.176 E16.58737
G1 X89.784 Y99.201 E16.62988
G1 X90.286 Y98.261 E16.67242
G1 X91.113 Y97.001 E16.73257
G1 X91.274 Y96.782 E16.74342
G1 X91.937 Y95.948 E16.78594
G1 X92.661 Y95.166 E16.82848
G0 F6000 X92.965 Y95.427
G1 F900 X93.736 Y94.714 E16.87039
G1 X94.559 Y94.061 E16.91232
G1 X95.049 Y93.718 E16.93619
G1 X95.281 Y93.563 E16.94733
G1 X96.176 Y93.013 E16.98926
G1 X97.11 Y92.533 E17.03117
G1 X98.078 Y92.125 E17.0731
G1 X99.075 Y91.792 E17.11505
G1 X100.241 Y91.506 E17.16297
G1 X100.521 Y91.45 E17.17436
G1 X101.558 Y91.283 E17.21628
G1 X102.605 Y91.196 E17.25822
G1 X103.226 Y91.182 E17.28301
G1 X116.814 Y91.181 E17.82534
G1 X117.864 Y91.221 E17.86727
G1 X118.907 Y91.341 E17.90918
G1 X119.611 Y91.467 E17.93772
G1 X119.756 Y91.497 E17.94363
G1 X120.776 Y91.749 E17.98557
G1 X121.774 Y92.078 E18.02751
G1 X122.456 Y92.353 E18.05686
G1 X122.684 Y92.452 E18.06678
G1 X123.631 Y92.907 E18.10871
G1 X124.541 Y93.432 E18.15064
G1 X125.408 Y94.025 E18.19256
G1 X126.227 Y94.683 E18.2345
G1 X126.922 Y95.328 E18.27234
G1 X127.123 Y95.528 E18.28366
G1 X127.839 Y96.296 E18.32556
G1 X128.494 Y97.117 E18.36748
G1 X129.085 Y97.986 E18.40943
G1 X129.608 Y98.897 E18.45135
G1 X129.982 Y99.665 E18.48545
G1 X130.086 Y99.897 E18.49559
G1 X130.479 Y100.871 E18.53751
G1 X130.796 Y101.873 E18.57946
G1 X131.098 Y103.228 E18.63487
G1 X131.123 Y103.375 E18.64082
G1 X131.259 Y104.417 E18.68276
G1 X131.318 Y105.687 E18.7335
G1 X131.319 Y114.313 E19.07779
G1 X131.279 Y115.363 E19.11972
G1 X131.16 Y116.407 E19.16166
G1 X131.033 Y117.111 E19.19021
G1 X131.003 Y117.256 E19.19612
G1 X130.751 Y118.276 E19.23806
G1 X130.422 Y119.274 E19.28
G1 X130.147 Y119.956 E19.30935
G1 X130.048 Y120.184 E19.31927
G1 X129.593 Y121.131 E19.3612
G1 X129.068 Y122.041 E19.40313
G1 X128.475 Y122.908 E19.44506
G1 X127.817 Y123.727 E19.48699
G1 X127.172 Y124.422 E19.52483
G1 X126.972 Y124.623 E19.53615
G1 X126.204 Y125.339 E19.57806
G1 X125.383 Y125.994 E19.61998
G1 X124.514 Y126.585 E19.66192
G1 X123.603 Y127.108 E19.70385
G1 X122.815 Y127.491 E19.73881
G1 X122.582 Y127.595 E19.749
G1 X121.607 Y127.986 E19.79093
G1 X120.605 Y128.302 E19.83286
G1 X119.286 Y128.595 E19.88679
G1 X119.14 Y128.62 E19.8927
G1 X118.099 Y128.758 E19.93461
G1 X116.812 Y128.818 E19.98603
G1 X103.186 Y128.819 E20.52988
G1 X102.136 Y128.779 E20.57181
G1 X101.093 Y128.659 E20.61372
G1 X100.389 Y128.533 E20.64226
G1 X100.244 Y128.503 E20.64817
G1 X99.224 Y128.251 E20.69011
G1 X98.226 Y127.922 E20.73205
G1 X97.544 Y127.647 E20.7614
G1 X97.316 Y127.548 E20.77132
G1 X96.369 Y127.093 E20.81325
G1 X95.459 Y126.568 E20.85518
G1 X94.592 Y125.975 E20.89711
G1 X93.773 Y125.317 E20.93904
G1 X93.078 Y124.672 E20.97688
G1 X92.877 Y124.472 E20.9882
G1 X92.161 Y123.704 E21.03011
G1 X91.506 Y122.883 E21.07202
G1 X90.915 Y122.014 E21.11397
G1 X90.392 Y121.103 E21.15589
G1 X90.009 Y120.315 E21.19086
G1 X89.905 Y120.082 E21.20105
G1 X89.514 Y119.107 E21.24297
G1 X89.198 Y118.105 E21.28491
G1 X88.905 Y116.786 E21.33883
G1 X88.88 Y116.64 E21.34475
G1 X88.742 Y115.599 E21.38666
G1 X88.682 Y114.311 E21.43812
G1 X88.682 Y105.723 E21.78089
G1 X88.722 Y104.673 E21.82283
G1 X88.842 Y103.63 E21.86473
G1 X89.038 Y102.61 E21.90618
G1 X89.11 Y102.299 E21.91892
G1 X89.385 Y101.286 E21.96082
G1 X89.737 Y100.296 E22.00276
G1 X90.164 Y99.336 E22.04469
G1 X90.662 Y98.411 E22.08662
G1 X91.435 Y97.238 E22.14269
G1 X91.596 Y97.019 E22.15354
G1 X92.25 Y96.197 E22.19546
G1 X92.965 Y95.427 E22.2374
G0 F6000 X93.269 Y95.689
G1 F900 X94.031 Y94.988 E22.27872
G1 X94.845 Y94.348 E22.32005
G1 X95.271 Y94.051 E22.34078
G1 X95.503 Y93.896 E22.35192
G1 X96.385 Y93.355 E22.39321
G1 X97.307 Y92.883 E22.43455
G1 X98.262 Y92.484 E22.47586
G1 X99.245 Y92.16 E22.51717
G1 X100.319 Y91.898 E22.5613
G1 X100.599 Y91.842 E22.57269
G1 X101.621 Y91.679 E22.614
G1 X102.653 Y91.594 E22.65533
G1 X103.226 Y91.582 E22.6782
G1 X116.814 Y91.581 E23.22053
G1 X117.848 Y91.621 E23.26183
G1 X118.877 Y91.741 E23.30318
G1 X119.53 Y91.859 E23.32966
G1 X119.675 Y91.889 E23.33557
G1 X120.68 Y92.138 E23.37689
G1 X121.662 Y92.463 E23.41818
G1 X122.297 Y92.72 E23.44552
G1 X122.525 Y92.819 E23.45544
G1 X123.458 Y93.267 E23.49675
G1 X124.353 Y93.787 E23.53806
G1 X125.206 Y94.374 E23.57939
G1 X126.011 Y95.025 E23.62071
G1 X126.64 Y95.611 E23.65502
G1 X126.841 Y95.811 E23.66634
G1 X127.546 Y96.569 E23.70766
G1 X128.19 Y97.379 E23.74896
G1 X128.77 Y98.237 E23.79029
G1 X129.282 Y99.136 E23.83158
G1 X129.617 Y99.829 E23.86231
G1 X129.721 Y100.061 E23.87245
G1 X130.107 Y101.021 E23.91375
G1 X130.419 Y102.008 E23.95506
G1 X130.703 Y103.295 E24.00767
G1 X130.728 Y103.442 E24.01362
G1 X130.862 Y104.469 E24.05496
G1 X130.918 Y105.687 E24.10362
G1 X130.919 Y114.313 E24.4479
G1 X130.879 Y115.348 E24.48924
G1 X130.76 Y116.376 E24.53055
G1 X130.641 Y117.03 E24.55708
G1 X130.611 Y117.175 E24.56299
G1 X130.362 Y118.18 E24.60431
G1 X130.037 Y119.162 E24.6456
G1 X129.78 Y119.797 E24.67294
G1 X129.681 Y120.025 E24.68286
G1 X129.233 Y120.958 E24.72417
G1 X128.713 Y121.853 E24.76548
G1 X128.126 Y122.706 E24.80681
G1 X127.475 Y123.511 E24.84813
G1 X126.889 Y124.14 E24.88244
G1 X126.689 Y124.341 E24.89376
G1 X125.931 Y125.046 E24.93507
G1 X125.121 Y125.69 E24.97637
G1 X124.263 Y126.27 E25.01771
G1 X123.364 Y126.782 E25.059
G1 X122.652 Y127.125 E25.09054
