;FLAVOR:Marlin
;TIME:2637
;Filament used: 0.654933m
;Layer height: 0.12
;MINX:87.506
;MINY:90.05
;MINZ:0.2
;MAXX:132.434
;MAXY:129.936
;MAXZ:22.4
;Generated with Cura_SteamEngine 4.9.1
M140 S65
M105
M190 S65
M104 S200
M105
M109 S200
M82 ;absolute extrusion mode
; Ender 3 Custom Start G-code
G92 E0 ; Reset Extruder
G28 ; Home all axes
G1 Z2.0 F3000 ; Move Z Axis up little to prevent scratching of Heat Bed
G1 X0.1 Y20 Z0.3 F5000.0 ; Move to start position
G1 X0.1 Y200.0 Z0.3 F1500.0 E15 ; Draw the first line
G1 X0.4 Y200.0 Z0.3 F5000.0 ; Move to side a little
G1 X0.4 Y20 Z0.3 F1500.0 E30 ; Draw the second line
G92 E0 ; Reset Extruder
G1 Z2.0 F3000 ; Move Z Axis up little to prevent scratching of Heat Bed
G1 X5 Y20 Z0.3 F5000.0 ; Move over to prevent blob squish
G92 E0
G92 E0
G1 F1500 E-10
;LAYER_COUNT:186
;LAYER:0
M107
G0 F6000 X92.656 Y94.308 Z0.2
;TYPE:SKIRT
G1 F1500 E0
G1 F900 X93.488 Y93.595 E0.04373
G1 X94.28 Y93.005 E0.08315
G1 X94.551 Y92.817 E0.09631
G1 X95.473 Y92.226 E0.14002
G1 X96.436 Y91.704 E0.18374
G1 X97.434 Y91.254 E0.22744
G1 X98.463 Y90.877 E0.27118
G1 X99.137 Y90.675 E0.29926
G1 X99.418 Y90.598 E0.31089
G1 X100.484 Y90.348 E0.35459
G1 X101.566 Y90.175 E0.39832
G1 X102.397 Y90.097 E0.43164
G1 X102.625 Y90.082 E0.44075
G1 X103.72 Y90.05 E0.48448
G1 X104.063 Y90.065 E0.49818
G1 X115.702 Y90.066 E0.96272
G1 X115.749 Y90.062 E0.9646
G1 X116.844 Y90.05 E1.00831
G1 X117.937 Y90.118 E1.05202
G1 X119.092 Y90.278 E1.09855
G1 X119.417 Y90.336 E1.11173
G1 X120.488 Y90.568 E1.15547
G1 X121.538 Y90.877 E1.19915
G1 X122.133 Y91.09 E1.22438
G1 X122.298 Y91.153 E1.23143
G1 X123.306 Y91.581 E1.27513
G1 X124.28 Y92.081 E1.31883
G1 X125.215 Y92.651 E1.36254
G1 X126.133 Y93.308 E1.40759
G1 X126.386 Y93.504 E1.42037
G1 X127.227 Y94.206 E1.46409
G1 X128.014 Y94.967 E1.50778
G1 X128.744 Y95.784 E1.55151
G1 X129.412 Y96.652 E1.59523
G1 X130.002 Y97.545 E1.63794
G1 X130.187 Y97.848 E1.65211
G1 X130.724 Y98.803 E1.69584
G1 X131.189 Y99.795 E1.73957
G1 X131.58 Y100.818 E1.78328
G1 X131.896 Y101.867 E1.82701
G1 X132.19 Y103.255 E1.88363
G1 X132.239 Y103.556 E1.89581
G1 X132.376 Y104.643 E1.93953
G1 X132.434 Y105.966 E1.99239
G1 X132.434 Y114.035 E2.31444
G1 X132.394 Y115.13 E2.35817
G1 X132.295 Y116.071 E2.39594
G1 X132.255 Y116.363 E2.4077
G1 X132.067 Y117.442 E2.45141
G1 X131.801 Y118.504 E2.49511
G1 X131.457 Y119.544 E2.53883
G1 X131.039 Y120.557 E2.58257
G1 X130.548 Y121.536 E2.62628
G1 X130.179 Y122.172 E2.65563
G1 X129.99 Y122.48 E2.67005
G1 X129.383 Y123.392 E2.71378
G1 X128.712 Y124.258 E2.7575
G1 X127.979 Y125.072 E2.80122
G1 X127.189 Y125.83 E2.84492
G1 X126.303 Y126.561 E2.89076
G1 X126.05 Y126.754 E2.90346
G1 X125.155 Y127.386 E2.94719
G1 X124.217 Y127.951 E2.9909
G1 X122.902 Y128.598 E3.04939
G1 X122.74 Y128.668 E3.05643
G1 X121.719 Y129.065 E3.10016
G1 X120.672 Y129.387 E3.14388
G1 X119.204 Y129.702 E3.2038
G1 X118.971 Y129.74 E3.21322
G1 X117.885 Y129.877 E3.25691
G1 X116.548 Y129.936 E3.31033
G1 X113.246 Y129.934 E3.44212
G1 X103.465 Y129.934 E3.8325
G1 X102.37 Y129.894 E3.87623
G1 X101.429 Y129.795 E3.91399
G1 X101.137 Y129.755 E3.92576
G1 X100.058 Y129.567 E3.96947
G1 X98.996 Y129.301 E4.01317
G1 X97.956 Y128.957 E4.05689
G1 X96.943 Y128.539 E4.10063
G1 X95.964 Y128.048 E4.14434
G1 X95.328 Y127.679 E4.17369
G1 X95.02 Y127.49 E4.18811
G1 X94.108 Y126.883 E4.23183
G1 X93.242 Y126.212 E4.27556
G1 X92.428 Y125.479 E4.31928
G1 X91.67 Y124.689 E4.36298
G1 X90.944 Y123.81 E4.40848
G1 X90.75 Y123.556 E4.42123
G1 X90.118 Y122.662 E4.46493
G1 X89.552 Y121.724 E4.50866
G1 X88.871 Y120.329 E4.57061
G1 X88.802 Y120.167 E4.57764
G1 X88.41 Y119.144 E4.62137
G1 X88.093 Y118.096 E4.66507
G1 X87.804 Y116.745 E4.72021
G1 X87.766 Y116.516 E4.72947
G1 X87.627 Y115.429 E4.77321
G1 X87.564 Y114.056 E4.82807
G1 X87.566 Y107.382 E5.09444
G1 X87.527 Y106.96 E5.11136
G1 X87.506 Y105.865 E5.15507
G1 X87.566 Y104.772 E5.19876
G1 X87.705 Y103.685 E5.2425
G1 X87.973 Y102.413 E5.29438
G1 X88.109 Y101.882 E5.31626
G1 X88.419 Y100.832 E5.35995
G1 X88.805 Y99.807 E5.40367
G1 X89.265 Y98.813 E5.44738
G1 X89.797 Y97.855 E5.49112
G1 X90.314 Y97.056 E5.5291
G1 X90.504 Y96.782 E5.54241
G1 X91.16 Y95.906 E5.58609
G1 X91.879 Y95.079 E5.62983
G1 X92.656 Y94.308 E5.67352
G0 F6000 X92.959 Y94.572
G1 F900 X93.782 Y93.872 E5.71664
G1 X94.508 Y93.334 E5.7527
G1 X94.779 Y93.146 E5.76587
G1 X95.689 Y92.563 E5.809
G1 X96.64 Y92.05 E5.85213
G1 X97.626 Y91.608 E5.89525
G1 X98.642 Y91.24 E5.93838
G1 X99.243 Y91.061 E5.96341
G1 X99.524 Y90.984 E5.97504
G1 X100.576 Y90.737 E6.01817
G1 X101.643 Y90.569 E6.06128
G1 X102.424 Y90.496 E6.09259
G1 X102.652 Y90.481 E6.10171
G1 X103.732 Y90.451 E6.14483
G1 X104.047 Y90.465 E6.15741
G1 X115.74 Y90.466 E6.62411
G1 X115.84 Y90.458 E6.62811
G1 X116.921 Y90.452 E6.67126
G1 X117.999 Y90.527 E6.71439
G1 X119.022 Y90.672 E6.75562
G1 X119.347 Y90.73 E6.7688
G1 X120.403 Y90.959 E6.81193
G1 X121.439 Y91.266 E6.85505
G1 X121.99 Y91.463 E6.87841
G1 X122.155 Y91.526 E6.88546
G1 X123.149 Y91.949 E6.92857
G1 X124.11 Y92.444 E6.97172
G1 X125.031 Y93.008 E7.01482
G1 X125.888 Y93.624 E7.05695
G1 X126.141 Y93.82 E7.06972
G1 X126.971 Y94.513 E7.11288
G1 X127.746 Y95.266 E7.156
G1 X128.464 Y96.073 E7.19912
G1 X129.12 Y96.932 E7.24225
G1 X129.661 Y97.754 E7.28153
G1 X129.846 Y98.057 E7.2957
G1 X130.375 Y98.999 E7.33882
G1 X130.832 Y99.978 E7.38194
G1 X131.216 Y100.988 E7.42507
G1 X131.524 Y102.024 E7.46821
G1 X131.795 Y103.319 E7.52101
G1 X131.844 Y103.62 E7.53318
G1 X131.978 Y104.692 E7.5763
G1 X132.034 Y105.966 E7.6272
G1 X132.034 Y114.035 E7.94925
G1 X131.994 Y115.115 E7.99238
G1 X131.899 Y116.016 E8.02855
G1 X131.859 Y116.308 E8.04031
G1 X131.673 Y117.373 E8.08346
G1 X131.408 Y118.421 E8.1266
G1 X131.067 Y119.446 E8.16972
G1 X130.651 Y120.443 E8.21283
G1 X130.163 Y121.407 E8.25596
G1 X129.838 Y121.963 E8.28166
G1 X129.649 Y122.271 E8.29609
G1 X129.05 Y123.17 E8.3392
G1 X128.386 Y124.023 E8.38235
G1 X127.661 Y124.824 E8.42547
G1 X126.879 Y125.57 E8.4686
G1 X126.06 Y126.243 E8.51091
G1 X125.807 Y126.436 E8.52361
G1 X124.924 Y127.059 E8.56674
G1 X123.998 Y127.615 E8.60985
G1 X122.743 Y128.23 E8.66563
G1 X122.581 Y128.3 E8.67268
G1 X121.574 Y128.692 E8.71581
G1 X120.541 Y129.008 E8.75892
G1 X119.14 Y129.308 E8.8161
G1 X118.907 Y129.346 E8.82553
G1 X117.835 Y129.48 E8.86865
G1 X116.548 Y129.536 E8.92006
G1 X113.246 Y129.534 E9.05185
G1 X103.465 Y129.534 E9.44223
G1 X102.385 Y129.494 E9.48537
G1 X101.484 Y129.399 E9.52153
G1 X101.192 Y129.359 E9.53329
G1 X100.127 Y129.173 E9.57644
G1 X99.079 Y128.908 E9.61958
G1 X98.054 Y128.567 E9.6627
G1 X97.057 Y128.151 E9.70582
G1 X96.093 Y127.663 E9.74894
G1 X95.537 Y127.338 E9.77465
G1 X95.229 Y127.149 E9.78907
G1 X94.33 Y126.55 E9.83218
G1 X93.477 Y125.886 E9.87533
G1 X92.676 Y125.161 E9.91845
G1 X91.93 Y124.379 E9.96158
G1 X91.262 Y123.567 E10.00355
G1 X91.068 Y123.313 E10.01631
G1 X90.445 Y122.431 E10.05941
G1 X89.888 Y121.504 E10.10257
G1 X89.239 Y120.172 E10.16171
G1 X89.17 Y120.01 E10.16873
G1 X88.783 Y119.001 E10.21187
G1 X88.473 Y117.966 E10.25499
G1 X88.199 Y116.679 E10.30751
G1 X88.161 Y116.45 E10.31677
G1 X88.024 Y115.378 E10.35991
G1 X87.964 Y114.056 E10.41272
G1 X87.966 Y107.359 E10.68002
G1 X87.919 Y106.794 E10.70264
G1 X87.91 Y105.713 E10.74579
G1 X87.981 Y104.635 E10.78891
G1 X88.132 Y103.565 E10.83204
G1 X88.361 Y102.513 E10.87501
G1 X88.497 Y101.982 E10.89689
G1 X88.803 Y100.945 E10.94004
G1 X89.186 Y99.935 E10.98315
G1 X89.642 Y98.955 E11.02629
G1 X90.169 Y98.012 E11.06941
G1 X90.642 Y97.284 E11.10406
G1 X90.832 Y97.01 E11.11737
G1 X91.48 Y96.146 E11.16047
G1 X92.191 Y95.332 E11.20361
G1 X92.959 Y94.572 E11.24673
G0 F6000 X93.262 Y94.837
G1 F900 X94.076 Y94.149 E11.28927
G1 X94.736 Y93.663 E11.32199
G1 X95.007 Y93.475 E11.33515
G1 X95.905 Y92.9 E11.37771
G1 X96.843 Y92.395 E11.42023
G1 X97.817 Y91.962 E11.46277
G1 X98.82 Y91.603 E11.50529
G1 X99.348 Y91.447 E11.52726
G1 X99.629 Y91.37 E11.53889
G1 X100.667 Y91.127 E11.58144
G1 X101.72 Y90.963 E11.62397
G1 X102.45 Y90.896 E11.65323
G1 X102.678 Y90.881 E11.66235
G1 X103.743 Y90.851 E11.70488
G1 X104.042 Y90.865 E11.71682
G1 X115.783 Y90.866 E12.18543
G1 X115.93 Y90.855 E12.19131
G1 X116.996 Y90.855 E12.23386
G1 X118.059 Y90.936 E12.27641
G1 X118.952 Y91.066 E12.31243
G1 X119.277 Y91.124 E12.3256
G1 X120.318 Y91.35 E12.36812
G1 X121.339 Y91.654 E12.41064
G1 X121.847 Y91.837 E12.43219
G1 X122.012 Y91.9 E12.43924
G1 X122.993 Y92.317 E12.48178
G1 X123.939 Y92.807 E12.5243
G1 X124.846 Y93.366 E12.56683
G1 X125.643 Y93.94 E12.60603
G1 X125.896 Y94.136 E12.6188
G1 X126.714 Y94.82 E12.66136
G1 X127.478 Y95.563 E12.7039
G1 X128.183 Y96.362 E12.74642
G1 X128.827 Y97.211 E12.78896
G1 X129.32 Y97.962 E12.82481
G1 X129.505 Y98.265 E12.83898
G1 X130.025 Y99.195 E12.88151
G1 X130.475 Y100.161 E12.92404
G1 X130.851 Y101.158 E12.96657
G1 X131.151 Y102.181 E13.00912
G1 X131.401 Y103.383 E13.05812
G1 X131.45 Y103.684 E13.07029
G1 X131.581 Y104.742 E13.11284
G1 X131.634 Y105.966 E13.16174
G1 X131.634 Y114.035 E13.48379
G1 X131.594 Y115.1 E13.52633
G1 X131.503 Y115.962 E13.56092
G1 X131.463 Y116.254 E13.57268
G1 X131.278 Y117.304 E13.61524
G1 X131.016 Y118.337 E13.65777
G1 X130.677 Y119.347 E13.70029
G1 X130.263 Y120.329 E13.74283
G1 X129.777 Y121.277 E13.78535
G1 X129.497 Y121.754 E13.80742
G1 X129.308 Y122.062 E13.82185
G1 X128.717 Y122.949 E13.86439
G1 X128.061 Y123.788 E13.90689
G1 X127.344 Y124.577 E13.94945
G1 X126.57 Y125.309 E13.99196
G1 X125.818 Y125.925 E14.03076
G1 X125.565 Y126.118 E14.04346
G1 X124.694 Y126.732 E14.086
G1 X123.779 Y127.279 E14.12854
G1 X122.584 Y127.863 E14.18163
G1 X122.422 Y127.933 E14.18867
G1 X121.429 Y128.319 E14.2312
G1 X120.41 Y128.629 E14.27371
G1 X119.076 Y128.913 E14.32814
G1 X118.843 Y128.951 E14.33756
G1 X117.785 Y129.083 E14.38012
G1 X116.548 Y129.136 E14.42954
G1 X113.246 Y129.134 E14.56133
G1 X103.465 Y129.134 E14.95171
G1 X102.4 Y129.094 E14.99424
G1 X101.538 Y129.003 E15.02884
G1 X101.246 Y128.963 E15.0406
G1 X100.196 Y128.778 E15.08315
G1 X99.163 Y128.516 E15.12569
G1 X98.153 Y128.177 E15.16821
G1 X97.171 Y127.763 E15.21075
G1 X96.223 Y127.277 E15.25326
G1 X95.746 Y126.997 E15.27534
G1 X95.438 Y126.808 E15.28976
G1 X94.551 Y126.217 E15.3323
G1 X93.712 Y125.561 E15.37481
G1 X92.923 Y124.844 E15.41736
G1 X92.191 Y124.07 E15.45988
G1 X91.58 Y123.324 E15.49837
G1 X91.386 Y123.07 E15.51112
G1 X90.771 Y122.2 E15.55365
G1 X90.224 Y121.285 E15.59619
G1 X89.607 Y120.015 E15.65255
G1 X89.538 Y119.853 E15.65958
G1 X89.157 Y118.858 E15.7021
G1 X88.852 Y117.837 E15.74463
G1 X88.594 Y116.614 E15.79452
G1 X88.556 Y116.385 E15.80378
G1 X88.421 Y115.327 E15.84635
G1 X88.364 Y114.056 E15.89713
G1 X88.366 Y107.356 E16.16454
G1 X88.313 Y106.629 E16.19364
G1 X88.316 Y105.563 E16.23618
G1 X88.398 Y104.501 E16.2787
G1 X88.561 Y103.447 E16.32126
G1 X88.748 Y102.612 E16.35541
G1 X88.884 Y102.081 E16.37729
G1 X89.187 Y101.059 E16.41984
G1 X89.566 Y100.063 E16.46237
G1 X90.018 Y99.098 E16.5049
G1 X90.541 Y98.17 E16.54742
G1 X90.971 Y97.512 E16.57879
G1 X91.161 Y97.238 E16.5921
G1 X91.801 Y96.386 E16.63463
G1 X92.502 Y95.584 E16.67714
G1 X93.262 Y94.837 E16.71967
G0 F6000 X93.565 Y95.103
G1 F900 X94.37 Y94.427 E16.76163
G1 X94.964 Y93.991 E16.79104
G1 X95.235 Y93.803 E16.8042
G1 X96.12 Y93.238 E16.84611
G1 X97.046 Y92.741 E16.88805
G1 X98.007 Y92.317 E16.92998
G1 X99.454 Y91.833 E16.99088
G1 X99.735 Y91.756 E17.0025
G1 X100.758 Y91.517 E17.04443
G1 X101.796 Y91.356 E17.08636
G1 X102.476 Y91.295 E17.11361
G1 X102.704 Y91.28 E17.12273
G1 X103.754 Y91.251 E17.16465
G1 X104.043 Y91.265 E17.1762
G1 X115.82 Y91.266 E17.64624
G1 X116.02 Y91.252 E17.65425
G1 X117.07 Y91.259 E17.69616
G1 X118.117 Y91.345 E17.73808
G1 X118.881 Y91.46 E17.76892
G1 X119.206 Y91.518 E17.7821
G1 X120.233 Y91.741 E17.82404
G1 X121.704 Y92.211 E17.88568
G1 X121.869 Y92.274 E17.89273
G1 X122.836 Y92.686 E17.93468
G1 X123.768 Y93.17 E17.97659
G1 X124.661 Y93.723 E18.01851
G1 X125.398 Y94.257 E18.05484
G1 X125.651 Y94.453 E18.06761
G1 X126.457 Y95.127 E18.10955
G1 X127.209 Y95.861 E18.15149
G1 X127.902 Y96.65 E18.1934
G1 X128.534 Y97.489 E18.23533
G1 X128.978 Y98.171 E18.26781
G1 X129.163 Y98.474 E18.28198
G1 X129.676 Y99.391 E18.32391
G1 X130.118 Y100.344 E18.36584
G1 X130.486 Y101.328 E18.40777
G1 X130.778 Y102.337 E18.4497
G1 X131.006 Y103.448 E18.49496
G1 X131.055 Y103.749 E18.50713
G1 X131.184 Y104.791 E18.54904
G1 X131.234 Y105.966 E18.59598
G1 X131.234 Y114.035 E18.91803
G1 X131.194 Y115.085 E18.95997
G1 X131.106 Y115.908 E18.993
G1 X131.066 Y116.2 E19.00477
G1 X130.884 Y117.235 E19.04671
G1 X130.624 Y118.252 E19.08861
G1 X130.287 Y119.247 E19.13053
G1 X129.875 Y120.214 E19.17249
G1 X129.156 Y121.545 E19.23286
G1 X128.967 Y121.853 E19.24729
G1 X128.384 Y122.726 E19.28919
G1 X127.736 Y123.553 E19.33112
G1 X127.027 Y124.329 E19.37307
G1 X126.261 Y125.048 E19.415
G1 X125.575 Y125.607 E19.45032
G1 X125.322 Y125.8 E19.46302
G1 X124.463 Y126.405 E19.50496
G1 X123.561 Y126.943 E19.54687
G1 X122.426 Y127.496 E19.59727
G1 X122.264 Y127.566 E19.60431
G1 X121.284 Y127.946 E19.64626
G1 X120.279 Y128.25 E19.68817
G1 X119.011 Y128.518 E19.73989
G1 X118.778 Y128.556 E19.74932
G1 X117.736 Y128.686 E19.79123
G1 X116.549 Y128.736 E19.83864
G1 X113.247 Y128.734 E19.97043
G1 X103.465 Y128.734 E20.36086
G1 X102.415 Y128.694 E20.40279
G1 X101.592 Y128.606 E20.43583
G1 X101.3 Y128.566 E20.44759
G1 X100.265 Y128.384 E20.48953
G1 X99.248 Y128.124 E20.53143
G1 X98.253 Y127.787 E20.57336
G1 X97.286 Y127.375 E20.61531
G1 X95.955 Y126.656 E20.67569
G1 X95.647 Y126.467 E20.69011
G1 X94.774 Y125.884 E20.73201
G1 X93.947 Y125.236 E20.77394
G1 X93.171 Y124.527 E20.8159
G1 X92.452 Y123.761 E20.85783
G1 X91.898 Y123.081 E20.89284
G1 X91.704 Y122.827 E20.90559
G1 X91.099 Y121.969 E20.94749
G1 X90.56 Y121.067 E20.98943
G1 X89.975 Y119.859 E21.043
G1 X89.906 Y119.697 E21.05003
G1 X89.531 Y118.715 E21.09198
G1 X89.232 Y117.708 E21.13391
G1 X88.988 Y116.548 E21.18122
G1 X88.95 Y116.319 E21.19049
G1 X88.818 Y115.277 E21.23241
G1 X88.764 Y114.056 E21.28119
G1 X88.766 Y107.396 E21.547
G1 X88.708 Y106.466 E21.58419
G1 X88.723 Y105.415 E21.62614
G1 X88.817 Y104.369 E21.66806
G1 X88.991 Y103.333 E21.70999
G1 X89.136 Y102.711 E21.73548
G1 X89.272 Y102.18 E21.75736
G1 X89.571 Y101.173 E21.79928
G1 X89.946 Y100.192 E21.8412
G1 X90.394 Y99.242 E21.88312
G1 X90.914 Y98.329 E21.92506
G1 X91.3 Y97.74 E21.95316
G1 X91.49 Y97.466 E21.96647
G1 X92.121 Y96.626 E22.0084
G1 X92.814 Y95.837 E22.05032
G1 X93.565 Y95.103 E22.09223
G0 F6000 X93.867 Y95.369
G1 F900 X94.663 Y94.706 E22.13358
G1 X95.192 Y94.32 E22.15971
G1 X95.463 Y94.132 E22.17288
G1 X96.336 Y93.575 E22.21421
G1 X97.249 Y93.087 E22.25553
G1 X98.197 Y92.672 E22.29683
G1 X99.56 Y92.218 E22.35417
G1 X99.841 Y92.141 E22.3658
G1 X100.849 Y91.907 E22.4071
G1 X101.872 Y91.75 E22.44841
G1 X102.502 Y91.694 E22.47365
G1 X102.73 Y91.679 E22.48277
G1 X103.765 Y91.651 E22.52409
G1 X104.044 Y91.665 E22.53524
G1 X115.858 Y91.666 E23.00677
G1 X116.108 Y91.65 E23.01677
G1 X117.143 Y91.663 E23.05808
G1 X118.174 Y91.755 E23.09939
G1 X118.811 Y91.853 E23.12511
G1 X119.136 Y91.911 E23.13829
G1 X120.147 Y92.133 E23.1796
G1 X121.562 Y92.584 E23.23888
G1 X121.727 Y92.647 E23.24593
G1 X122.679 Y93.054 E23.28725
G1 X123.597 Y93.532 E23.32856
G1 X124.475 Y94.08 E23.36987
G1 X125.153 Y94.573 E23.40333
G1 X125.406 Y94.769 E23.4161
G1 X126.2 Y95.434 E23.45744
G1 X126.939 Y96.158 E23.49873
G1 X127.621 Y96.938 E23.54008
G1 X128.24 Y97.767 E23.58137
G1 X128.637 Y98.379 E23.61049
G1 X128.822 Y98.682 E23.62466
G1 X129.327 Y99.586 E23.66599
