;FLAVOR:Marlin
;TIME:2580
;Filament used: 0.676693m
;Layer height: 0.12
;MINX:87.006
;MINY:90.006
;MINZ:0.2
;MAXX:132.994
;MAXY:129.95
;MAXZ:21.8
;Generated with Cura_SteamEngine 4.9.1
M140 S65
M105
M190 S65
M104 S200
M105
M109 S200
M82 ;absolute extrusion mode
; Ender 3 Custom Start G-code
G92 E0 ; Reset Extruder
G28 ; Home all axes
G1 Z2.0 F3000 ; Move Z Axis up little to prevent scratching of Heat Bed
G1 X0.1 Y20 Z0.3 F5000.0 ; Move to start position
G1 X0.1 Y200.0 Z0.3 F1500.0 E15 ; Draw the first line
G1 X0.4 Y200.0 Z0.3 F5000.0 ; Move to side a little
G1 X0.4 Y20 Z0.3 F1500.0 E30 ; Draw the second line
G92 E0 ; Reset Extruder
G1 Z2.0 F3000 ; Move Z Axis up little to prevent scratching of Heat Bed
G1 X5 Y20 Z0.3 F5000.0 ; Move over to prevent blob squish
G92 E0
G92 E0
G1 F1500 E-10
;LAYER_COUNT:181
;LAYER:0
M107
G0 F6000 X92.156 Y94.308 Z0.2
;TYPE:SKIRT
G1 F1500 E0
G1 F900 X92.988 Y93.595 E0.04373
G1 X93.78 Y93.005 E0.08315
G1 X94.051 Y92.817 E0.09631
G1 X94.973 Y92.226 E0.14002
G1 X95.936 Y91.704 E0.18374
G1 X96.934 Y91.254 E0.22744
G1 X97.963 Y90.877 E0.27118
G1 X98.637 Y90.675 E0.29926
G1 X98.918 Y90.598 E0.31089
G1 X99.984 Y90.348 E0.35459
G1 X101.066 Y90.175 E0.39832
G1 X101.897 Y90.097 E0.43164
G1 X102.125 Y90.082 E0.44075
G1 X103.22 Y90.05 E0.48448
G1 X103.563 Y90.065 E0.49818
G1 X115.615 Y90.066 E0.9792
G1 X116.04 Y90.027 E0.99624
G1 X117.135 Y90.006 E1.03995
G1 X118.228 Y90.066 E1.08364
G1 X119.315 Y90.205 E1.12737
G1 X120.587 Y90.473 E1.17926
G1 X121.118 Y90.609 E1.20114
G1 X122.168 Y90.919 E1.24483
G1 X123.193 Y91.305 E1.28855
G1 X124.187 Y91.765 E1.33226
G1 X125.145 Y92.297 E1.376
G1 X125.944 Y92.814 E1.41398
G1 X126.218 Y93.004 E1.42729
G1 X127.094 Y93.66 E1.47097
G1 X127.921 Y94.379 E1.51471
G1 X128.692 Y95.156 E1.55839
G1 X129.405 Y95.988 E1.60213
G1 X129.984 Y96.764 E1.64077
G1 X130.176 Y97.04 E1.65419
G1 X130.768 Y97.961 E1.69789
G1 X131.291 Y98.923 E1.74159
G1 X131.743 Y99.921 E1.78532
G1 X132.121 Y100.949 E1.82903
G1 X132.369 Y101.794 E1.86418
G1 X132.441 Y102.068 E1.87549
G1 X132.681 Y103.137 E1.91922
G1 X132.842 Y104.22 E1.96292
G1 X132.898 Y104.839 E1.98772
G1 X132.914 Y105.069 E1.99692
G1 X132.95 Y106.164 E2.04065
G1 X132.935 Y106.538 E2.05559
G1 X132.934 Y112.616 E2.29818
G1 X132.973 Y113.04 E2.31517
G1 X132.994 Y114.135 E2.35888
G1 X132.934 Y115.228 E2.40257
G1 X132.795 Y116.315 E2.44631
G1 X132.527 Y117.587 E2.49819
G1 X132.391 Y118.118 E2.52007
G1 X132.081 Y119.168 E2.56377
G1 X131.695 Y120.193 E2.60748
G1 X131.235 Y121.187 E2.6512
G1 X130.703 Y122.145 E2.69493
G1 X130.186 Y122.944 E2.73292
G1 X129.996 Y123.218 E2.74622
G1 X129.34 Y124.094 E2.7899
G1 X128.621 Y124.921 E2.83364
G1 X127.844 Y125.692 E2.87733
G1 X127.012 Y126.405 E2.92106
G1 X126.22 Y126.995 E2.96048
G1 X125.949 Y127.183 E2.97364
G1 X125.027 Y127.774 E3.01735
G1 X124.064 Y128.296 E3.06107
G1 X123.066 Y128.746 E3.10477
G1 X122.037 Y129.123 E3.14851
G1 X121.363 Y129.325 E3.17659
G1 X121.082 Y129.402 E3.18822
G1 X120.016 Y129.652 E3.23192
G1 X118.934 Y129.825 E3.27565
G1 X118.103 Y129.903 E3.30896
G1 X117.875 Y129.918 E3.31808
G1 X116.78 Y129.95 E3.36181
G1 X116.437 Y129.935 E3.37551
G1 X103.798 Y129.934 E3.87996
G1 X103.751 Y129.938 E3.88184
G1 X102.656 Y129.95 E3.92555
G1 X101.563 Y129.882 E3.96926
G1 X100.408 Y129.722 E4.0158
G1 X100.083 Y129.664 E4.02897
G1 X99.012 Y129.432 E4.07271
G1 X97.962 Y129.123 E4.11639
G1 X97.367 Y128.91 E4.14162
G1 X97.202 Y128.847 E4.14867
G1 X96.194 Y128.419 E4.19238
G1 X95.22 Y127.919 E4.23607
G1 X94.285 Y127.349 E4.27978
G1 X93.367 Y126.692 E4.32483
G1 X93.114 Y126.496 E4.33761
G1 X92.273 Y125.794 E4.38133
G1 X91.486 Y125.033 E4.42502
G1 X90.756 Y124.216 E4.46875
G1 X90.088 Y123.348 E4.51247
G1 X89.498 Y122.455 E4.55519
G1 X89.313 Y122.152 E4.56936
G1 X88.776 Y121.197 E4.61309
G1 X88.311 Y120.205 E4.65681
G1 X87.92 Y119.182 E4.70052
G1 X87.604 Y118.133 E4.74425
G1 X87.31 Y116.745 E4.80088
G1 X87.261 Y116.444 E4.81305
G1 X87.124 Y115.357 E4.85678
G1 X87.066 Y114.034 E4.90963
G1 X87.066 Y107.385 E5.17501
G1 X87.027 Y106.96 E5.19204
G1 X87.006 Y105.865 E5.23575
G1 X87.066 Y104.772 E5.27944
G1 X87.205 Y103.685 E5.32318
G1 X87.473 Y102.413 E5.37506
G1 X87.609 Y101.882 E5.39694
G1 X87.919 Y100.832 E5.44064
G1 X88.305 Y99.807 E5.48435
G1 X88.765 Y98.813 E5.52807
G1 X89.297 Y97.855 E5.5718
G1 X89.814 Y97.056 E5.60978
G1 X90.004 Y96.782 E5.62309
G1 X90.66 Y95.906 E5.66677
G1 X91.379 Y95.079 E5.71051
G1 X92.156 Y94.308 E5.7542
G0 F6000 X92.459 Y94.572
G1 F900 X93.282 Y93.872 E5.79732
G1 X94.008 Y93.334 E5.83339
G1 X94.279 Y93.146 E5.84655
G1 X95.189 Y92.563 E5.88968
G1 X96.14 Y92.05 E5.93281
G1 X97.126 Y91.608 E5.97594
G1 X98.142 Y91.24 E6.01907
G1 X98.743 Y91.061 E6.0441
G1 X99.024 Y90.984 E6.05572
G1 X100.076 Y90.737 E6.09885
G1 X101.143 Y90.569 E6.14196
G1 X101.924 Y90.496 E6.17327
G1 X102.152 Y90.481 E6.18239
G1 X103.232 Y90.451 E6.22551
G1 X103.547 Y90.465 E6.2381
G1 X115.639 Y90.466 E6.72072
G1 X116.206 Y90.419 E6.74342
G1 X117.287 Y90.41 E6.78657
G1 X118.365 Y90.481 E6.82969
G1 X119.435 Y90.632 E6.87282
G1 X120.487 Y90.861 E6.91579
G1 X121.018 Y90.997 E6.93767
G1 X122.055 Y91.303 E6.98082
G1 X123.065 Y91.686 E7.02393
G1 X124.045 Y92.142 E7.06707
G1 X124.988 Y92.669 E7.11019
G1 X125.716 Y93.142 E7.14484
G1 X125.99 Y93.332 E7.15815
G1 X126.854 Y93.98 E7.20125
G1 X127.668 Y94.691 E7.24439
G1 X128.428 Y95.459 E7.28751
G1 X129.128 Y96.282 E7.33063
G1 X129.655 Y96.992 E7.36593
G1 X129.847 Y97.268 E7.37934
G1 X130.431 Y98.178 E7.4225
G1 X130.946 Y99.128 E7.46563
G1 X131.389 Y100.113 E7.50874
G1 X131.759 Y101.129 E7.55189
G1 X131.983 Y101.895 E7.58375
G1 X132.055 Y102.169 E7.59505
G1 X132.29 Y103.224 E7.63819
G1 X132.447 Y104.293 E7.68132
G1 X132.499 Y104.867 E7.70432
G1 X132.515 Y105.097 E7.71352
G1 X132.55 Y106.177 E7.75665
G1 X132.535 Y106.538 E7.77107
G1 X132.534 Y112.64 E8.01461
G1 X132.581 Y113.206 E8.03728
G1 X132.59 Y114.287 E8.08043
G1 X132.519 Y115.365 E8.12355
G1 X132.368 Y116.435 E8.16668
G1 X132.139 Y117.487 E8.20965
G1 X132.003 Y118.018 E8.23152
G1 X131.697 Y119.055 E8.27468
G1 X131.314 Y120.065 E8.31779
G1 X130.858 Y121.045 E8.36093
G1 X130.331 Y121.988 E8.40405
G1 X129.858 Y122.716 E8.4387
G1 X129.668 Y122.99 E8.45201
G1 X129.02 Y123.854 E8.49511
G1 X128.309 Y124.668 E8.53825
G1 X127.541 Y125.428 E8.58137
G1 X126.718 Y126.128 E8.62449
G1 X125.992 Y126.666 E8.66056
G1 X125.721 Y126.854 E8.67372
G1 X124.811 Y127.437 E8.71686
G1 X123.86 Y127.95 E8.75998
G1 X122.874 Y128.392 E8.80311
G1 X121.858 Y128.76 E8.84624
G1 X121.257 Y128.939 E8.87127
G1 X120.976 Y129.016 E8.8829
G1 X119.924 Y129.263 E8.92603
G1 X118.857 Y129.431 E8.96914
G1 X118.076 Y129.504 E9.00044
G1 X117.848 Y129.519 E9.00956
G1 X116.768 Y129.549 E9.05269
G1 X116.453 Y129.535 E9.06527
G1 X103.76 Y129.534 E9.57188
G1 X103.66 Y129.542 E9.57588
G1 X102.579 Y129.548 E9.61903
G1 X101.501 Y129.473 E9.66215
G1 X100.478 Y129.328 E9.70339
G1 X100.153 Y129.27 E9.71657
G1 X99.097 Y129.041 E9.7597
G1 X98.061 Y128.734 E9.80282
G1 X97.51 Y128.537 E9.82618
G1 X97.345 Y128.474 E9.83323
G1 X96.351 Y128.051 E9.87634
G1 X95.39 Y127.556 E9.91949
G1 X94.469 Y126.992 E9.96259
G1 X93.612 Y126.376 E10.00471
G1 X93.359 Y126.18 E10.01749
G1 X92.529 Y125.487 E10.06064
G1 X91.754 Y124.734 E10.10377
G1 X91.036 Y123.927 E10.14688
G1 X90.38 Y123.068 E10.19002
G1 X89.839 Y122.246 E10.2293
G1 X89.654 Y121.943 E10.24347
G1 X89.125 Y121.001 E10.28659
G1 X88.668 Y120.022 E10.32971
G1 X88.284 Y119.012 E10.37284
G1 X87.976 Y117.976 E10.41597
G1 X87.705 Y116.681 E10.46878
G1 X87.656 Y116.38 E10.48095
G1 X87.522 Y115.308 E10.52407
G1 X87.466 Y114.034 E10.57497
G1 X87.466 Y107.362 E10.84126
G1 X87.419 Y106.794 E10.86401
G1 X87.41 Y105.713 E10.90716
G1 X87.481 Y104.635 E10.95027
G1 X87.632 Y103.565 E10.9934
G1 X87.861 Y102.513 E11.03637
G1 X87.997 Y101.982 E11.05825
G1 X88.303 Y100.945 E11.1014
G1 X88.686 Y99.935 E11.14452
G1 X89.142 Y98.955 E11.18766
G1 X89.669 Y98.012 E11.23077
G1 X90.142 Y97.284 E11.26542
G1 X90.332 Y97.01 E11.27873
G1 X90.98 Y96.146 E11.32184
G1 X91.691 Y95.332 E11.36497
G1 X92.459 Y94.572 E11.4081
G0 F6000 X92.762 Y94.837
G1 F900 X93.576 Y94.149 E11.45064
G1 X94.236 Y93.663 E11.48335
G1 X94.507 Y93.475 E11.49651
G1 X95.405 Y92.9 E11.53907
G1 X96.343 Y92.395 E11.58159
G1 X97.317 Y91.962 E11.62413
G1 X98.32 Y91.603 E11.66665
G1 X98.848 Y91.447 E11.68863
G1 X99.129 Y91.37 E11.70026
G1 X100.167 Y91.127 E11.7428
G1 X101.22 Y90.963 E11.78534
G1 X101.95 Y90.896 E11.8146
G1 X102.178 Y90.881 E11.82372
G1 X103.243 Y90.851 E11.86624
G1 X103.542 Y90.865 E11.87819
G1 X115.641 Y90.866 E12.36108
G1 X116.371 Y90.813 E12.3903
G1 X117.437 Y90.816 E12.43284
G1 X118.499 Y90.898 E12.47536
G1 X119.553 Y91.061 E12.51792
G1 X120.388 Y91.248 E12.55208
G1 X120.919 Y91.384 E12.57395
G1 X121.941 Y91.687 E12.6165
G1 X122.937 Y92.066 E12.65903
G1 X123.902 Y92.518 E12.70156
G1 X124.83 Y93.041 E12.74408
G1 X125.488 Y93.471 E12.77545
G1 X125.762 Y93.661 E12.78876
G1 X126.614 Y94.301 E12.83129
G1 X127.416 Y95.002 E12.8738
G1 X128.163 Y95.762 E12.91634
G1 X128.851 Y96.576 E12.95887
G1 X129.327 Y97.221 E12.99087
G1 X129.519 Y97.497 E13.00429
G1 X130.094 Y98.394 E13.04681
G1 X130.601 Y99.332 E13.08937
G1 X131.035 Y100.304 E13.13186
G1 X131.396 Y101.307 E13.1744
G1 X131.596 Y101.997 E13.20307
G1 X131.668 Y102.271 E13.21438
G1 X131.9 Y103.311 E13.25691
G1 X132.1 Y104.895 E13.32063
G1 X132.116 Y105.125 E13.32984
G1 X132.15 Y106.19 E13.37236
G1 X132.135 Y106.538 E13.38627
G1 X132.134 Y112.642 E13.62989
G1 X132.187 Y113.371 E13.65906
G1 X132.184 Y114.437 E13.70161
G1 X132.102 Y115.499 E13.74412
G1 X131.939 Y116.553 E13.78669
G1 X131.752 Y117.388 E13.82084
G1 X131.616 Y117.919 E13.84272
G1 X131.313 Y118.941 E13.88526
G1 X130.934 Y119.937 E13.9278
G1 X130.482 Y120.902 E13.97033
G1 X129.959 Y121.83 E14.01284
G1 X129.529 Y122.488 E14.04422
G1 X129.339 Y122.762 E14.05752
G1 X128.699 Y123.614 E14.10005
G1 X127.998 Y124.416 E14.14257
G1 X127.238 Y125.163 E14.1851
G1 X126.424 Y125.851 E14.22764
G1 X125.764 Y126.337 E14.26035
G1 X125.493 Y126.525 E14.27352
G1 X124.595 Y127.1 E14.31608
G1 X123.657 Y127.605 E14.35859
G1 X122.683 Y128.038 E14.40114
G1 X121.68 Y128.397 E14.44366
G1 X121.152 Y128.553 E14.46563
G1 X120.871 Y128.63 E14.47726
G1 X119.833 Y128.873 E14.51981
G1 X118.78 Y129.037 E14.56234
G1 X118.05 Y129.104 E14.5916
G1 X117.822 Y129.119 E14.60072
G1 X116.757 Y129.149 E14.64324
G1 X116.458 Y129.135 E14.65519
G1 X103.717 Y129.134 E15.16371
G1 X103.57 Y129.145 E15.16959
G1 X102.504 Y129.145 E15.21214
G1 X101.441 Y129.064 E15.25469
G1 X100.548 Y128.934 E15.29071
G1 X100.223 Y128.876 E15.30388
G1 X99.182 Y128.65 E15.3464
G1 X98.161 Y128.346 E15.38892
G1 X97.653 Y128.163 E15.41047
G1 X97.488 Y128.1 E15.41752
G1 X96.507 Y127.683 E15.46006
G1 X95.561 Y127.193 E15.50258
G1 X94.654 Y126.634 E15.54511
G1 X93.857 Y126.06 E15.58431
G1 X93.604 Y125.864 E15.59708
G1 X92.786 Y125.18 E15.63964
G1 X92.022 Y124.437 E15.68218
G1 X91.317 Y123.638 E15.7247
G1 X90.673 Y122.789 E15.76724
G1 X90.18 Y122.038 E15.80309
G1 X89.995 Y121.735 E15.81726
G1 X89.475 Y120.805 E15.85979
G1 X89.025 Y119.839 E15.90232
G1 X88.649 Y118.842 E15.94485
G1 X88.349 Y117.819 E15.9874
G1 X88.099 Y116.617 E16.0364
G1 X88.05 Y116.316 E16.04857
G1 X87.919 Y115.258 E16.09112
G1 X87.866 Y114.034 E16.14002
G1 X87.866 Y107.36 E16.40639
G1 X87.813 Y106.629 E16.43564
G1 X87.816 Y105.563 E16.47819
G1 X87.898 Y104.501 E16.5207
G1 X88.061 Y103.447 E16.56327
G1 X88.248 Y102.612 E16.59742
G1 X88.384 Y102.081 E16.6193
G1 X88.687 Y101.059 E16.66185
G1 X89.066 Y100.063 E16.70438
G1 X89.518 Y99.098 E16.74691
G1 X90.041 Y98.17 E16.78943
G1 X90.471 Y97.512 E16.8208
G1 X90.661 Y97.238 E16.83411
G1 X91.301 Y96.386 E16.87664
G1 X92.002 Y95.584 E16.91915
G1 X92.762 Y94.837 E16.96168
G0 F6000 X93.065 Y95.103
G1 F900 X93.87 Y94.427 E17.00364
G1 X94.464 Y93.991 E17.03305
G1 X94.735 Y93.803 E17.04621
G1 X95.62 Y93.238 E17.08812
G1 X96.546 Y92.741 E17.13006
G1 X97.507 Y92.317 E17.17199
G1 X98.954 Y91.833 E17.23288
G1 X99.235 Y91.756 E17.24451
G1 X100.258 Y91.517 E17.28644
G1 X101.296 Y91.356 E17.32837
G1 X101.976 Y91.295 E17.35562
G1 X102.204 Y91.28 E17.36474
G1 X103.254 Y91.251 E17.40666
G1 X103.543 Y91.265 E17.41821
G1 X115.6 Y91.266 E17.89943
G1 X116.534 Y91.208 E17.93678
G1 X117.585 Y91.223 E17.97873
G1 X118.631 Y91.317 E18.02065
G1 X119.667 Y91.491 E18.06257
G1 X120.289 Y91.636 E18.08807
G1 X120.82 Y91.772 E18.10994
G1 X121.827 Y92.071 E18.15187
G1 X122.808 Y92.446 E18.19379
G1 X123.758 Y92.894 E18.23571
G1 X124.671 Y93.414 E18.27764
G1 X125.26 Y93.8 E18.30575
G1 X125.534 Y93.99 E18.31906
G1 X126.374 Y94.621 E18.36099
G1 X127.163 Y95.314 E18.4029
G1 X127.897 Y96.065 E18.44481
G1 X128.573 Y96.87 E18.48677
G1 X128.998 Y97.449 E18.51544
G1 X129.19 Y97.725 E18.52886
G1 X129.757 Y98.61 E18.57081
G1 X130.255 Y99.535 E18.61273
G1 X130.681 Y100.495 E18.65465
G1 X131.032 Y101.485 E18.69658
G1 X131.209 Y102.099 E18.72208
G1 X131.281 Y102.373 E18.73339
G1 X131.509 Y103.398 E18.7753
G1 X131.701 Y104.922 E18.8366
G1 X131.717 Y105.152 E18.84581
G1 X131.75 Y106.202 E18.88773
G1 X131.735 Y106.538 E18.90116
G1 X131.734 Y112.601 E19.14315
G1 X131.792 Y113.534 E19.18046
G1 X131.777 Y114.585 E19.22241
G1 X131.683 Y115.631 E19.26432
G1 X131.509 Y116.667 E19.30625
G1 X131.364 Y117.289 E19.33174
G1 X131.228 Y117.82 E19.35362
G1 X130.929 Y118.827 E19.39555
G1 X130.554 Y119.808 E19.43746
G1 X130.106 Y120.758 E19.47938
G1 X129.586 Y121.671 E19.52132
G1 X129.2 Y122.26 E19.54943
G1 X129.01 Y122.534 E19.56274
G1 X128.379 Y123.374 E19.60467
G1 X127.686 Y124.163 E19.64658
G1 X126.935 Y124.897 E19.68849
G1 X126.13 Y125.573 E19.73045
G1 X125.536 Y126.009 E19.75986
G1 X125.265 Y126.197 E19.77302
G1 X124.38 Y126.762 E19.81493
G1 X123.454 Y127.259 E19.85687
G1 X122.493 Y127.683 E19.8988
G1 X121.046 Y128.167 E19.95969
G1 X120.765 Y128.244 E19.97132
G1 X119.742 Y128.483 E20.01325
G1 X118.704 Y128.644 E20.05518
G1 X118.024 Y128.705 E20.08243
G1 X117.796 Y128.72 E20.09155
G1 X116.746 Y128.749 E20.13347
G1 X116.457 Y128.735 E20.14502
G1 X103.68 Y128.734 E20.65497
G1 X103.48 Y128.748 E20.66298
G1 X102.43 Y128.741 E20.70489
G1 X101.383 Y128.655 E20.74681
G1 X100.619 Y128.54 E20.77765
G1 X100.294 Y128.482 E20.79083
G1 X99.267 Y128.259 E20.83277
G1 X97.796 Y127.789 E20.89441
G1 X97.631 Y127.726 E20.90146
G1 X96.664 Y127.314 E20.94341
G1 X95.732 Y126.83 E20.98532
G1 X94.839 Y126.277 E21.02725
G1 X94.102 Y125.743 E21.06357
G1 X93.849 Y125.547 E21.07634
G1 X93.043 Y124.873 E21.11828
G1 X92.291 Y124.139 E21.16022
G1 X91.598 Y123.35 E21.20213
G1 X90.966 Y122.511 E21.24406
G1 X90.522 Y121.829 E21.27654
G1 X90.337 Y121.526 E21.29071
G1 X89.824 Y120.609 E21.33264
G1 X89.382 Y119.656 E21.37457
G1 X89.014 Y118.672 E21.4165
G1 X88.722 Y117.663 E21.45843
G1 X88.494 Y116.552 E21.50369
G1 X88.445 Y116.251 E21.51586
G1 X88.316 Y115.209 E21.55777
G1 X88.266 Y114.034 E21.60471
G1 X88.266 Y107.401 E21.86945
G1 X88.208 Y106.466 E21.90684
G1 X88.223 Y105.415 E21.94879
G1 X88.317 Y104.369 E21.9907
G1 X88.491 Y103.333 E22.03263
G1 X88.636 Y102.711 E22.05812
G1 X88.772 Y102.18 E22.08
G1 X89.071 Y101.173 E22.12193
G1 X89.446 Y100.192 E22.16384
G1 X89.894 Y99.242 E22.20576
G1 X90.414 Y98.329 E22.2477
G1 X90.8 Y97.74 E22.27581
G1 X90.99 Y97.466 E22.28911
G1 X91.621 Y96.626 E22.33105
G1 X92.314 Y95.837 E22.37296
G1 X93.065 Y95.103 E22.41487
G0 F6000 X93.367 Y95.369
G1 F900 X94.163 Y94.706 E22.45622
G1 X94.692 Y94.32 E22.48236
G1 X94.963 Y94.132 E22.49552
G1 X95.836 Y93.575 E22.53685
G1 X96.749 Y93.087 E22.57817
G1 X97.697 Y92.672 E22.61947
G1 X99.06 Y92.218 E22.67681
