;FLAVOR:Marlin
;TIME:5036
;Filament used: 1.99561m
;Layer height: 0.1
;MINX:10.2
;MINY:10.2
;MINZ:0.1
;MAXX:209.8
;MAXY:209.8
;MAXZ:0.1
;TARGET_MACHINE.NAME:Creality Ender-3 Pro
;Generated with Cura_SteamEngine 5.7.0
M82 ;absolute extrusion mode
; Ender 3 Custom Start G-code
G92 E0 ; Reset Extruder
G28 ; Home all axes
G1 Z5.0 F3000 ; Move Z Axis up a bit during heating to not damage bed
M104 S175.0 ; Start heating up the nozzle most of the way
M190 S80.0 ; Start heating the bed, wait until target temperature reached
M109 S210.0 ; Finish heating the nozzle
G1 Z2.0 F3000 ; Move Z Axis up little to prevent scratching of Heat Bed
G1 X0.1 Y20 Z0.3 F5000.0 ; Move to start position
G1 X0.1 Y200.0 Z0.3 F1500.0 E15 ; Draw the first line
G1 X0.4 Y200.0 Z0.3 F5000.0 ; Move to side a little
G1 X0.4 Y20 Z0.3 F1500.0 E30 ; Draw the second line
G92 E0 ; Reset Extruder
G1 Z2.0 F3000 ; Move Z Axis up little to prevent scratching of Heat Bed
G1 X5 Y20 Z0.3 F5000.0 ; Move over to prevent blob squish
G92 E0
G92 E0
G1 F1500 E-6.5
;LAYER_COUNT:1
;LAYER:0
M107
;MESH:Simple Cube 1x1x1.stl
G0 F6000 X209.8 Y209.8 Z0.1
;TYPE:WALL-OUTER
G1 F1500 E0
G1 F1200 X209.8 Y10.2 E3.98323
G1 X10.2 Y10.2 E7.96647
G1 X10.2 Y209.8 E11.9497
G1 X209.8 Y209.8 E15.93294
G0 F6000 X209.4 Y209.4
;TYPE:WALL-INNER
G1 F1200 X209.4 Y10.6 E19.9002
G1 X10.6 Y10.6 E23.86747
G1 X10.6 Y209.4 E27.83474
G1 X209.4 Y209.4 E31.80201
G0 F6000 X209 Y209
;TYPE:SKIN
G1 F1200 X209 Y11 E35.75331
G1 X11 Y11 E39.70462
G1 X11 Y209 E43.65592
G1 X209 Y209 E47.60723
G0 F6000 X208.6 Y208.6
G1 F1200 X208.6 Y11.4 E51.54257
G1 X11.4 Y11.4 E55.47791
G1 X11.4 Y208.6 E59.41324
G1 X208.6 Y208.6 E63.34858
G0 F6000 X208.2 Y208.2
G1 F1200 X208.2 Y11.8 E67.26796
G1 X11.8 Y11.8 E71.18733
G1 X11.8 Y208.2 E75.10671
G1 X208.2 Y208.2 E79.02608
G0 F6000 X207.8 Y207.8
G1 F1200 X207.8 Y12.2 E82.92949
G1 X12.2 Y12.2 E86.8329
G1 X12.2 Y207.8 E90.73631
G1 X207.8 Y207.8 E94.63972
G0 F6000 X207.4 Y207.4
G1 F1200 X207.4 Y12.6 E98.52716
G1 X12.6 Y12.6 E102.41461
G1 X12.6 Y207.4 E106.30205
G1 X207.4 Y207.4 E110.1895
G0 F6000 X207 Y207
G1 F1200 X207 Y13 E114.06098
G1 X13 Y13 E117.93246
G1 X13 Y207 E121.80394
G1 X207 Y207 E125.67542
G0 F6000 X206.6 Y206.6
G1 F1200 X206.6 Y13.4 E129.53093
G1 X13.4 Y13.4 E133.38645
G1 X13.4 Y206.6 E137.24196
G1 X206.6 Y206.6 E141.09748
G0 F6000 X206.2 Y206.2
G1 F1200 X206.2 Y13.8 E144.93703
G1 X13.8 Y13.8 E148.77658
G1 X13.8 Y206.2 E152.61613
G1 X206.2 Y206.2 E156.45568
G0 F6000 X205.8 Y205.8
G1 F1200 X205.8 Y14.2 E160.27926
G1 X14.2 Y14.2 E164.10285
G1 X14.2 Y205.8 E167.92643
G1 X205.8 Y205.8 E171.75002
G0 F6000 X205.4 Y205.4
G1 F1200 X205.4 Y14.6 E175.55764
G1 X14.6 Y14.6 E179.36526
G1 X14.6 Y205.4 E183.17288
G1 X205.4 Y205.4 E186.9805
G0 F6000 X205 Y205
G1 F1200 X205 Y15 E190.77215
G1 X15 Y15 E194.56381
G1 X15 Y205 E198.35546
G1 X205 Y205 E202.14712
G0 F6000 X204.6 Y204.6
G1 F1200 X204.6 Y15.4 E205.92281
G1 X15.4 Y15.4 E209.6985
G1 X15.4 Y204.6 E213.47419
G1 X204.6 Y204.6 E217.24988
G0 F6000 X204.2 Y204.2
G1 F1200 X204.2 Y15.8 E221.00961
G1 X15.8 Y15.8 E224.76933
G1 X15.8 Y204.2 E228.52906
G1 X204.2 Y204.2 E232.28878
G0 F6000 X203.8 Y203.8
G1 F1200 X203.8 Y16.2 E236.03254
G1 X16.2 Y16.2 E239.7763
G1 X16.2 Y203.8 E243.52007
G1 X203.8 Y203.8 E247.26383
G0 F6000 X203.4 Y203.4
G1 F1200 X203.4 Y16.6 E250.99162
G1 X16.6 Y16.6 E254.71942
G1 X16.6 Y203.4 E258.44721
G1 X203.4 Y203.4 E262.17501
G0 F6000 X203 Y203
G1 F1200 X203 Y17 E265.88684
G1 X17 Y17 E269.59867
G1 X17 Y203 E273.3105
G1 X203 Y203 E277.02233
G0 F6000 X202.6 Y202.6
G1 F1200 X202.6 Y17.4 E280.7182
G1 X17.4 Y17.4 E284.41407
G1 X17.4 Y202.6 E288.10993
G1 X202.6 Y202.6 E291.8058
G0 F6000 X202.2 Y202.2
G1 F1200 X202.2 Y17.8 E295.4857
G1 X17.8 Y17.8 E299.1656
G1 X17.8 Y202.2 E302.8455
G1 X202.2 Y202.2 E306.5254
G0 F6000 X201.8 Y201.8
G1 F1200 X201.8 Y18.2 E310.18934
G1 X18.2 Y18.2 E313.85328
G1 X18.2 Y201.8 E317.51721
G1 X201.8 Y201.8 E321.18115
G0 F6000 X201.4 Y201.4
G1 F1200 X201.4 Y18.6 E324.82912
G1 X18.6 Y18.6 E328.47709
G1 X18.6 Y201.4 E332.12507
G1 X201.4 Y201.4 E335.77304
G0 F6000 X201 Y201
G1 F1200 X201 Y19 E339.40504
G1 X19 Y19 E343.03705
G1 X19 Y201 E346.66906
G1 X201 Y201 E350.30106
G0 F6000 X200.6 Y200.6
G1 F1200 X200.6 Y19.4 E353.91711
G1 X19.4 Y19.4 E357.53315
G1 X19.4 Y200.6 E361.14919
G1 X200.6 Y200.6 E364.76523
G0 F6000 X200.2 Y200.2
G1 F1200 X200.2 Y19.8 E368.36531
G1 X19.8 Y19.8 E371.96539
G1 X19.8 Y200.2 E375.56546
G1 X200.2 Y200.2 E379.16554
G0 F6000 X199.8 Y199.8
G1 F1200 X199.8 Y20.2 E382.74965
G1 X20.2 Y20.2 E386.33376
G1 X20.2 Y199.8 E389.91788
G1 X199.8 Y199.8 E393.50199
G0 F6000 X199.4 Y199.4
G1 F1200 X199.4 Y20.6 E397.07014
G1 X20.6 Y20.6 E400.63828
G1 X20.6 Y199.4 E404.20643
G1 X199.4 Y199.4 E407.77458
G0 F6000 X199 Y199
G1 F1200 X199 Y21 E411.32676
G1 X21 Y21 E414.87894
G1 X21 Y199 E418.43112
G1 X199 Y199 E421.98331
G0 F6000 X198.6 Y198.6
G1 F1200 X198.6 Y21.4 E425.51952
G1 X21.4 Y21.4 E429.05574
G1 X21.4 Y198.6 E432.59196
G1 X198.6 Y198.6 E436.12818
G0 F6000 X198.2 Y198.2
G1 F1200 X198.2 Y21.8 E439.64843
G1 X21.8 Y21.8 E443.16868
G1 X21.8 Y198.2 E446.68894
G1 X198.2 Y198.2 E450.20919
G0 F6000 X197.8 Y197.8
G1 F1200 X197.8 Y22.2 E453.71348
G1 X22.2 Y22.2 E457.21776
G1 X22.2 Y197.8 E460.72205
G1 X197.8 Y197.8 E464.22634
G0 F6000 X197.4 Y197.4
G1 F1200 X197.4 Y22.6 E467.71466
G1 X22.6 Y22.6 E471.20299
G1 X22.6 Y197.4 E474.69131
G1 X197.4 Y197.4 E478.17963
G0 F6000 X197 Y197
G1 F1200 X197 Y23 E481.65199
G1 X23 Y23 E485.12435
G1 X23 Y197 E488.59671
G1 X197 Y197 E492.06906
G0 F6000 X196.6 Y196.6
G1 F1200 X196.6 Y23.4 E495.52546
G1 X23.4 Y23.4 E498.98185
G1 X23.4 Y196.6 E502.43824
G1 X196.6 Y196.6 E505.89464
G0 F6000 X196.2 Y196.2
G1 F1200 X196.2 Y23.8 E509.33506
G1 X23.8 Y23.8 E512.77549
G1 X23.8 Y196.2 E516.21592
G1 X196.2 Y196.2 E519.65635
G0 F6000 X195.8 Y195.8
G1 F1200 X195.8 Y24.2 E523.08081
G1 X24.2 Y24.2 E526.50528
G1 X24.2 Y195.8 E529.92974
G1 X195.8 Y195.8 E533.3542
G0 F6000 X195.4 Y195.4
G1 F1200 X195.4 Y24.6 E536.7627
G1 X24.6 Y24.6 E540.1712
G1 X24.6 Y195.4 E543.5797
G1 X195.4 Y195.4 E546.9882
G0 F6000 X195 Y195
G1 F1200 X195 Y25 E550.38073
G1 X25 Y25 E553.77327
G1 X25 Y195 E557.1658
G1 X195 Y195 E560.55833
G0 F6000 X194.6 Y194.6
G1 F1200 X194.6 Y25.4 E563.9349
G1 X25.4 Y25.4 E567.31147
G1 X25.4 Y194.6 E570.68804
G1 X194.6 Y194.6 E574.06461
G0 F6000 X194.2 Y194.2
G1 F1200 X194.2 Y25.8 E577.42521
G1 X25.8 Y25.8 E580.78582
G1 X25.8 Y194.2 E584.14642
G1 X194.2 Y194.2 E587.50703
G0 F6000 X193.8 Y193.8
G1 F1200 X193.8 Y26.2 E590.85166
G1 X26.2 Y26.2 E594.1963
G1 X26.2 Y193.8 E597.54094
G1 X193.8 Y193.8 E600.88558
G0 F6000 X193.4 Y193.4
G1 F1200 X193.4 Y26.6 E604.21426
G1 X26.6 Y26.6 E607.54293
G1 X26.6 Y193.4 E610.87161
G1 X193.4 Y193.4 E614.20028
G0 F6000 X193 Y193
G1 F1200 X193 Y27 E617.51299
G1 X27 Y27 E620.8257
G1 X27 Y193 E624.13841
G1 X193 Y193 E627.45112
G0 F6000 X192.6 Y192.6
G1 F1200 X192.6 Y27.4 E630.74786
G1 X27.4 Y27.4 E634.04461
G1 X27.4 Y192.6 E637.34135
G1 X192.6 Y192.6 E640.6381
G0 F6000 X192.2 Y192.2
G1 F1200 X192.2 Y27.8 E643.91888
G1 X27.8 Y27.8 E647.19966
G1 X27.8 Y192.2 E650.48043
G1 X192.2 Y192.2 E653.76121
G0 F6000 X191.8 Y191.8
G1 F1200 X191.8 Y28.2 E657.02603
G1 X28.2 Y28.2 E660.29084
G1 X28.2 Y191.8 E663.55566
G1 X191.8 Y191.8 E666.82047
G0 F6000 X191.4 Y191.4
G1 F1200 X191.4 Y28.6 E670.06932
G1 X28.6 Y28.6 E673.31817
G1 X28.6 Y191.4 E676.56702
G1 X191.4 Y191.4 E679.81587
G0 F6000 X191 Y191
G1 F1200 X191 Y29 E683.04876
G1 X29 Y29 E686.28164
G1 X29 Y191 E689.51453
G1 X191 Y191 E692.74741
G0 F6000 X190.6 Y190.6
G1 F1200 X190.6 Y29.4 E695.96433
G1 X29.4 Y29.4 E699.18125
G1 X29.4 Y190.6 E702.39818
G1 X190.6 Y190.6 E705.6151
G0 F6000 X190.2 Y190.2
G1 F1200 X190.2 Y29.8 E708.81605
G1 X29.8 Y29.8 E712.01701
G1 X29.8 Y190.2 E715.21796
G1 X190.2 Y190.2 E718.41892
G0 F6000 X189.8 Y189.8
G1 F1200 X189.8 Y30.2 E721.60391
G1 X30.2 Y30.2 E724.7889
G1 X30.2 Y189.8 E727.97389
G1 X189.8 Y189.8 E731.15888
G0 F6000 X189.4 Y189.4
G1 F1200 X189.4 Y30.6 E734.3279
G1 X30.6 Y30.6 E737.49693
G1 X30.6 Y189.4 E740.66596
G1 X189.4 Y189.4 E743.83498
G0 F6000 X189 Y189
G1 F1200 X189 Y31 E746.98804
G1 X31 Y31 E750.1411
G1 X31 Y189 E753.29416
G1 X189 Y189 E756.44723
G0 F6000 X188.6 Y188.6
G1 F1200 X188.6 Y31.4 E759.58432
G1 X31.4 Y31.4 E762.72142
G1 X31.4 Y188.6 E765.85851
G1 X188.6 Y188.6 E768.99561
G0 F6000 X188.2 Y188.2
G1 F1200 X188.2 Y31.8 E772.11674
G1 X31.8 Y31.8 E775.23787
G1 X31.8 Y188.2 E778.359
G1 X188.2 Y188.2 E781.48013
G0 F6000 X187.8 Y187.8
G1 F1200 X187.8 Y32.2 E784.5853
G1 X32.2 Y32.2 E787.69047
G1 X32.2 Y187.8 E790.79563
G1 X187.8 Y187.8 E793.9008
G0 F6000 X187.4 Y187.4
G1 F1200 X187.4 Y32.6 E796.99
G1 X32.6 Y32.6 E800.0792
G1 X32.6 Y187.4 E803.1684
G1 X187.4 Y187.4 E806.2576
G0 F6000 X187 Y187
G1 F1200 X187 Y33 E809.33084
G1 X33 Y33 E812.40408
G1 X33 Y187 E815.47731
G1 X187 Y187 E818.55055
G0 F6000 X186.6 Y186.6
G1 F1200 X186.6 Y33.4 E821.60782
G1 X33.4 Y33.4 E824.66509
G1 X33.4 Y186.6 E827.72236
G1 X186.6 Y186.6 E830.77964
G0 F6000 X186.2 Y186.2
G1 F1200 X186.2 Y33.8 E833.82094
G1 X33.8 Y33.8 E836.86225
G1 X33.8 Y186.2 E839.90356
G1 X186.2 Y186.2 E842.94486
G0 F6000 X185.8 Y185.8
G1 F1200 X185.8 Y34.2 E845.9702
G1 X34.2 Y34.2 E848.99555
G1 X34.2 Y185.8 E852.02089
G1 X185.8 Y185.8 E855.04623
G0 F6000 X185.4 Y185.4
G1 F1200 X185.4 Y34.6 E858.05561
G1 X34.6 Y34.6 E861.06498
G1 X34.6 Y185.4 E864.07436
G1 X185.4 Y185.4 E867.08374
G0 F6000 X185 Y185
G1 F1200 X185 Y35 E870.07715
G1 X35 Y35 E873.07056
G1 X35 Y185 E876.06397
G1 X185 Y185 E879.05739
G0 F6000 X184.6 Y184.6
G1 F1200 X184.6 Y35.4 E882.03483
G1 X35.4 Y35.4 E885.01228
G1 X35.4 Y184.6 E887.98973
G1 X184.6 Y184.6 E890.96718
G0 F6000 X184.2 Y184.2
G1 F1200 X184.2 Y35.8 E893.92866
G1 X35.8 Y35.8 E896.89014
G1 X35.8 Y184.2 E899.85162
G1 X184.2 Y184.2 E902.81311
G0 F6000 X183.8 Y183.8
G1 F1200 X183.8 Y36.2 E905.75862
G1 X36.2 Y36.2 E908.70414
G1 X36.2 Y183.8 E911.64966
G1 X183.8 Y183.8 E914.59518
G0 F6000 X183.4 Y183.4
G1 F1200 X183.4 Y36.6 E917.52473
G1 X36.6 Y36.6 E920.45428
G1 X36.6 Y183.4 E923.38383
G1 X183.4 Y183.4 E926.31339
G0 F6000 X183 Y183
G1 F1200 X183 Y37 E929.22697
G1 X37 Y37 E932.14056
G1 X37 Y183 E935.05415
G1 X183 Y183 E937.96774
G0 F6000 X182.6 Y182.6
G1 F1200 X182.6 Y37.4 E940.86536
G1 X37.4 Y37.4 E943.76298
G1 X37.4 Y182.6 E946.66061
G1 X182.6 Y182.6 E949.55823
G0 F6000 X182.2 Y182.2
G1 F1200 X182.2 Y37.8 E952.43989
G1 X37.8 Y37.8 E955.32155
G1 X37.8 Y182.2 E958.2032
G1 X182.2 Y182.2 E961.08486
G0 F6000 X181.8 Y181.8
G1 F1200 X181.8 Y38.2 E963.95056
G1 X38.2 Y38.2 E966.81625
G1 X38.2 Y181.8 E969.68194
G1 X181.8 Y181.8 E972.54764
G0 F6000 X181.4 Y181.4
G1 F1200 X181.4 Y38.6 E975.39736
G1 X38.6 Y38.6 E978.24709
G1 X38.6 Y181.4 E981.09682
G1 X181.4 Y181.4 E983.94655
G0 F6000 X181 Y181
G1 F1200 X181 Y39 E986.78031
G1 X39 Y39 E989.61408
G1 X39 Y181 E992.44784
G1 X181 Y181 E995.2816
G0 F6000 X180.6 Y180.6
G1 F1200 X180.6 Y39.4 E998.0994
G1 X39.4 Y39.4 E1000.9172
G1 X39.4 Y180.6 E1003.735
G1 X180.6 Y180.6 E1006.5528
G0 F6000 X180.2 Y180.2
G1 F1200 X180.2 Y39.8 E1009.35463
G1 X39.8 Y39.8 E1012.15646
G1 X39.8 Y180.2 E1014.9583
G1 X180.2 Y180.2 E1017.76013
G0 F6000 X179.8 Y179.8
G1 F1200 X179.8 Y40.2 E1020.546
G1 X40.2 Y40.2 E1023.33187
G1 X40.2 Y179.8 E1026.11774
G1 X179.8 Y179.8 E1028.90361
G0 F6000 X179.4 Y179.4
G1 F1200 X179.4 Y40.6 E1031.67351
G1 X40.6 Y40.6 E1034.44342
G1 X40.6 Y179.4 E1037.21332
G1 X179.4 Y179.4 E1039.98322
G0 F6000 X179 Y179
G1 F1200 X179 Y41 E1042.73716
G1 X41 Y41 E1045.4911
G1 X41 Y179 E1048.24504
G1 X179 Y179 E1050.99898
G0 F6000 X178.6 Y178.6
G1 F1200 X178.6 Y41.4 E1053.73696
G1 X41.4 Y41.4 E1056.47493
G1 X41.4 Y178.6 E1059.2129
G1 X178.6 Y178.6 E1061.95088
G0 F6000 X178.2 Y178.2
G1 F1200 X178.2 Y41.8 E1064.67289
G1 X41.8 Y41.8 E1067.3949
G1 X41.8 Y178.2 E1070.11691
G1 X178.2 Y178.2 E1072.83892
G0 F6000 X177.8 Y177.8
G1 F1200 X177.8 Y42.2 E1075.54496
G1 X42.2 Y42.2 E1078.25101
G1 X42.2 Y177.8 E1080.95705
G1 X177.8 Y177.8 E1083.66309
G0 F6000 X177.4 Y177.4
G1 F1200 X177.4 Y42.6 E1086.35317
G1 X42.6 Y42.6 E1089.04325
G1 X42.6 Y177.4 E1091.73333
G1 X177.4 Y177.4 E1094.42341
G0 F6000 X177 Y177
G1 F1200 X177 Y43 E1097.09753
G1 X43 Y43 E1099.77164
G1 X43 Y177 E1102.44576
G1 X177 Y177 E1105.11987
G0 F6000 X176.6 Y176.6
G1 F1200 X176.6 Y43.4 E1107.77802
G1 X43.4 Y43.4 E1110.43617
G1 X43.4 Y176.6 E1113.09432
G1 X176.6 Y176.6 E1115.75247
G0 F6000 X176.2 Y176.2
G1 F1200 X176.2 Y43.8 E1118.39466
G1 X43.8 Y43.8 E1121.03684
G1 X43.8 Y176.2 E1123.67903
G1 X176.2 Y176.2 E1126.32121
G0 F6000 X175.8 Y175.8
G1 F1200 X175.8 Y44.2 E1128.94743
G1 X44.2 Y44.2 E1131.57365
G1 X44.2 Y175.8 E1134.19987
G1 X175.8 Y175.8 E1136.82609
G0 F6000 X175.4 Y175.4
G1 F1200 X175.4 Y44.6 E1139.43635
G1 X44.6 Y44.6 E1142.04661
G1 X44.6 Y175.4 E1144.65686
G1 X175.4 Y175.4 E1147.26712
G0 F6000 X175 Y175
G1 F1200 X175 Y45 E1149.86141
G1 X45 Y45 E1152.4557
G1 X45 Y175 E1155.04999
G1 X175 Y175 E1157.64428
G0 F6000 X174.6 Y174.6
G1 F1200 X174.6 Y45.4 E1160.2226
G1 X45.4 Y45.4 E1162.80093
G1 X45.4 Y174.6 E1165.37925
G1 X174.6 Y174.6 E1167.95758
G0 F6000 X174.2 Y174.2
G1 F1200 X174.2 Y45.8 E1170.51994
G1 X45.8 Y45.8 E1173.0823
G1 X45.8 Y174.2 E1175.64466
G1 X174.2 Y174.2 E1178.20702
G0 F6000 X173.8 Y173.8
G1 F1200 X173.8 Y46.2 E1180.75342
G1 X46.2 Y46.2 E1183.29982
G1 X46.2 Y173.8 E1185.84621
G1 X173.8 Y173.8 E1188.39261
G0 F6000 X173.4 Y173.4
G1 F1200 X173.4 Y46.6 E1190.92304
G1 X46.6 Y46.6 E1193.45347
G1 X46.6 Y173.4 E1195.9839
G1 X173.4 Y173.4 E1198.51433
G0 F6000 X173 Y173
G1 F1200 X173 Y47 E1201.0288
G1 X47 Y47 E1203.54326
G1 X47 Y173 E1206.05773
G1 X173 Y173 E1208.5722
G0 F6000 X172.6 Y172.6
G1 F1200 X172.6 Y47.4 E1211.0707
G1 X47.4 Y47.4 E1213.5692
G1 X47.4 Y172.6 E1216.0677
G1 X172.6 Y172.6 E1218.5662
G0 F6000 X172.2 Y172.2
G1 F1200 X172.2 Y47.8 E1221.04874
G1 X47.8 Y47.8 E1223.53128
G1 X47.8 Y172.2 E1226.01381
G1 X172.2 Y172.2 E1228.49635
G0 F6000 X171.8 Y171.8
G1 F1200 X171.8 Y48.2 E1230.96292
G1 X48.2 Y48.2 E1233.42949
G1 X48.2 Y171.8 E1235.89606
G1 X171.8 Y171.8 E1238.36263
G0 F6000 X171.4 Y171.4
G1 F1200 X171.4 Y48.6 E1240.81324
G1 X48.6 Y48.6 E1243.26385
G1 X48.6 Y171.4 E1245.71445
G1 X171.4 Y171.4 E1248.16506
G0 F6000 X171 Y171
G1 F1200 X171 Y49 E1250.5997
G1 X49 Y49 E1253.03435
G1 X49 Y171 E1255.46899
G1 X171 Y171 E1257.90363
G0 F6000 X170.6 Y170.6
G1 F1200 X170.6 Y49.4 E1260.32231
G1 X49.4 Y49.4 E1262.74098
G1 X49.4 Y170.6 E1265.15966
G1 X170.6 Y170.6 E1267.57834
G0 F6000 X170.2 Y170.2
G1 F1200 X170.2 Y49.8 E1269.98105
G1 X49.8 Y49.8 E1272.38376
G1 X49.8 Y170.2 E1274.78647
G1 X170.2 Y170.2 E1277.18919
G0 F6000 X169.8 Y169.8
G1 F1200 X169.8 Y50.2 E1279.57593
G1 X50.2 Y50.2 E1281.96268
G1 X50.2 Y169.8 E1284.34943
G1 X169.8 Y169.8 E1286.73617
G0 F6000 X169.4 Y169.4
G1 F1200 X169.4 Y50.6 E1289.10696
G1 X50.6 Y50.6 E1291.47774
G1 X50.6 Y169.4 E1293.84852
G1 X169.4 Y169.4 E1296.2193
G0 F6000 X169 Y169
G1 F1200 X169 Y51 E1298.57412
G1 X51 Y51 E1300.92894
G1 X51 Y169 E1303.28376
G1 X169 Y169 E1305.63857
G0 F6000 X168.6 Y168.6
G1 F1200 X168.6 Y51.4 E1307.97743
G1 X51.4 Y51.4 E1310.31628
G1 X51.4 Y168.6 E1312.65513
G1 X168.6 Y168.6 E1314.99399
G0 F6000 X168.2 Y168.2
G1 F1200 X168.2 Y51.8 E1317.31687
G1 X51.8 Y51.8 E1319.63976
G1 X51.8 Y168.2 E1321.96265
G1 X168.2 Y168.2 E1324.28554
G0 F6000 X167.8 Y167.8
G1 F1200 X167.8 Y52.2 E1326.59246
G1 X52.2 Y52.2 E1328.89938
G1 X52.2 Y167.8 E1331.20631
G1 X167.8 Y167.8 E1333.51323
G0 F6000 X167.4 Y167.4
G1 F1200 X167.4 Y52.6 E1335.80419
G1 X52.6 Y52.6 E1338.09515
G1 X52.6 Y167.4 E1340.3861
G1 X167.4 Y167.4 E1342.67706
G0 F6000 X167 Y167
G1 F1200 X167 Y53 E1344.95205
G1 X53 Y53 E1347.22705
G1 X53 Y167 E1349.50204
G1 X167 Y167 E1351.77703
G0 F6000 X166.6 Y166.6
G1 F1200 X166.6 Y53.4 E1354.03606
G1 X53.4 Y53.4 E1356.29509
G1 X53.4 Y166.6 E1358.55412
G1 X166.6 Y166.6 E1360.81315
G0 F6000 X166.2 Y166.2
G1 F1200 X166.2 Y53.8 E1363.05621
G1 X53.8 Y53.8 E1365.29927
G1 X53.8 Y166.2 E1367.54234
G1 X166.2 Y166.2 E1369.7854
G0 F6000 X165.8 Y165.8
G1 F1200 X165.8 Y54.2 E1372.0125
G1 X54.2 Y54.2 E1374.2396
G1 X54.2 Y165.8 E1376.4667
G1 X165.8 Y165.8 E1378.6938
G0 F6000 X165.4 Y165.4
