;FLAVOR:Marlin
;TIME:4953
;Filament used: 3.02788m
;Layer height: 0.2
;MINX:37.428
;MINY:55.95
;MINZ:0.2
;MAXX:182.562
;MAXY:164.05
;MAXZ:1.4
;Generated with Cura_SteamEngine 4.9.1
M140 S60
M105
M190 S60
M104 S200
M105
M109 S200
M82 ;absolute extrusion mode
; Ender 3 Custom Start G-code
G92 E0 ; Reset Extruder
G28 ; Home all axes
G1 Z2.0 F3000 ; Move Z Axis up little to prevent scratching of Heat Bed
G1 X0.1 Y20 Z0.3 F5000.0 ; Move to start position
G1 X0.1 Y200.0 Z0.3 F1500.0 E15 ; Draw the first line
G1 X0.4 Y200.0 Z0.3 F5000.0 ; Move to side a little
G1 X0.4 Y20 Z0.3 F1500.0 E30 ; Draw the second line
G92 E0 ; Reset Extruder
G1 Z2.0 F3000 ; Move Z Axis up little to prevent scratching of Heat Bed
G1 X5 Y20 Z0.3 F5000.0 ; Move over to prevent blob squish
G92 E0
G92 E0
G1 F1500 E-6.5
;LAYER_COUNT:7
;LAYER:0
M107
G0 F6000 X46.272 Y60.5 Z0.2
;TYPE:SKIRT
G1 F1500 E0
G1 F900 X47.298 Y59.746 E0.04235
G1 X48.37 Y59.057 E0.08473
G1 X49.483 Y58.436 E0.12712
G1 X50.833 Y57.801 E0.17674
G1 X51.189 Y57.649 E0.18962
G1 X52.376 Y57.185 E0.23201
G1 X53.589 Y56.797 E0.27437
G1 X54.825 Y56.486 E0.31676
G1 X56.155 Y56.242 E0.36173
G1 X56.489 Y56.192 E0.37296
G1 X57.225 Y56.095 E0.39766
G1 X58.956 Y55.969 E0.45538
G1 X59.257 Y55.96 E0.4654
G1 X59.864 Y55.951 E0.48559
G1 X159.498 Y55.95 E3.79943
G1 X159.789 Y55.952 E3.80911
G1 X160.487 Y55.962 E3.83232
G1 X161.962 Y56.037 E3.88145
G1 X162.088 Y56.048 E3.88565
G1 X163.297 Y56.19 E3.92614
G1 X163.54 Y56.226 E3.93431
G1 X164.794 Y56.452 E3.97669
G1 X166.031 Y56.757 E4.01907
G1 X167.247 Y57.138 E4.06145
G1 X167.999 Y57.417 E4.08813
G1 X168.37 Y57.563 E4.10139
G1 X169.54 Y58.067 E4.14376
G1 X170.677 Y58.643 E4.18615
G1 X171.775 Y59.289 E4.22852
G1 X172.941 Y60.083 E4.27544
G1 X173.151 Y60.237 E4.2841
G1 X173.619 Y60.591 E4.30362
G1 X174.604 Y61.399 E4.34599
G1 X175.536 Y62.268 E4.38838
G1 X176.411 Y63.194 E4.43075
G1 X176.996 Y63.883 E4.46081
G1 X177.194 Y64.127 E4.47126
G1 X177.662 Y64.726 E4.49655
G1 X178.399 Y65.765 E4.53892
G1 X179.07 Y66.849 E4.58132
G1 X179.671 Y67.972 E4.62368
G1 X180.013 Y68.699 E4.6504
G1 X180.127 Y68.954 E4.65969
G1 X180.347 Y69.463 E4.67814
G1 X180.803 Y70.653 E4.72052
G1 X181.183 Y71.869 E4.7629
G1 X181.487 Y73.107 E4.8053
G1 X181.658 Y74.012 E4.83593
G1 X181.713 Y74.345 E4.84715
G1 X181.811 Y75.008 E4.86945
G1 X181.974 Y76.817 E4.92986
G1 X181.991 Y77.196 E4.94248
G1 X182.008 Y77.745 E4.96074
G1 X182.559 Y108.739 E5.99177
G1 X182.562 Y109.1 E6.00378
G1 X182.562 Y110.9 E6.06365
G1 X182.559 Y111.261 E6.07565
G1 X182.014 Y141.919 E7.0955
G1 X181.983 Y142.926 E7.12901
G1 X181.865 Y144.561 E7.18353
G1 X181.849 Y144.702 E7.18825
G1 X181.73 Y145.574 E7.21753
G1 X181.695 Y145.796 E7.225
G1 X181.457 Y147.048 E7.26739
G1 X181.142 Y148.283 E7.30978
G1 X180.749 Y149.495 E7.35216
G1 X180.394 Y150.413 E7.38489
G1 X180.243 Y150.777 E7.398
G1 X179.718 Y151.938 E7.44038
G1 X179.121 Y153.064 E7.48277
G1 X178.455 Y154.15 E7.52514
G1 X177.669 Y155.263 E7.57046
G1 X177.506 Y155.478 E7.57943
G1 X177.058 Y156.048 E7.60355
G1 X176.227 Y157.014 E7.64593
G1 X175.337 Y157.926 E7.68831
G1 X174.391 Y158.78 E7.7307
G1 X173.79 Y159.27 E7.75649
G1 X173.535 Y159.47 E7.76727
G1 X172.952 Y159.911 E7.79158
G1 X171.901 Y160.632 E7.83398
G1 X170.807 Y161.285 E7.87635
G1 X169.675 Y161.869 E7.91872
G1 X168.903 Y162.217 E7.94688
G1 X168.68 Y162.312 E7.95494
G1 X168.062 Y162.564 E7.97714
G1 X166.863 Y162.994 E8.01951
G1 X165.639 Y163.349 E8.0619
G1 X164.395 Y163.626 E8.10428
G1 X163.61 Y163.759 E8.13077
G1 X163.296 Y163.806 E8.14133
G1 X162.352 Y163.925 E8.17297
G1 X162.254 Y163.935 E8.17625
G1 X160.808 Y164.031 E8.22445
G1 X160.511 Y164.04 E8.23433
G1 X159.896 Y164.049 E8.25479
G1 X60.269 Y164.05 E11.5684
G1 X59.978 Y164.048 E11.57807
G1 X59.28 Y164.038 E11.60129
G1 X57.718 Y163.955 E11.65332
G1 X57.598 Y163.944 E11.65733
G1 X56.546 Y163.82 E11.69256
G1 X56.297 Y163.784 E11.70093
G1 X55.043 Y163.562 E11.74328
G1 X53.804 Y163.262 E11.78568
G1 X52.587 Y162.885 E11.82806
G1 X51.817 Y162.602 E11.85534
G1 X51.456 Y162.461 E11.86823
G1 X50.284 Y161.96 E11.91063
G1 X49.146 Y161.387 E11.953
G1 X48.046 Y160.744 E11.99538
G1 X46.754 Y159.861 E12.04743
G1 X46.445 Y159.632 E12.06022
G1 X45.446 Y158.842 E12.10258
G1 X44.498 Y157.99 E12.14498
G1 X43.605 Y157.081 E12.18736
G1 X42.733 Y156.07 E12.23177
G1 X42.52 Y155.806 E12.24305
G1 X41.96 Y155.079 E12.27357
G1 X41.235 Y154.031 E12.31595
G1 X40.578 Y152.94 E12.35831
G1 X39.726 Y151.239 E12.42159
G1 X39.605 Y150.966 E12.43152
G1 X39.373 Y150.421 E12.45122
G1 X38.924 Y149.229 E12.49359
G1 X38.551 Y148.01 E12.53599
G1 X38.255 Y146.771 E12.57836
G1 X38.083 Y145.818 E12.61056
G1 X38.018 Y145.403 E12.62454
G1 X37.86 Y144.139 E12.6669
G1 X37.79 Y143.084 E12.70207
G1 X37.778 Y142.788 E12.71192
G1 X37.762 Y142.181 E12.73212
G1 X37.428 Y110.568 E13.78363
G1 X37.429 Y109.217 E13.82856
G1 X37.757 Y78.2 E14.86025
G1 X37.762 Y77.909 E14.86993
G1 X37.779 Y77.227 E14.89262
G1 X37.895 Y75.508 E14.94993
G1 X37.91 Y75.372 E14.95448
G1 X38.037 Y74.426 E14.98622
G1 X38.071 Y74.211 E14.99346
G1 X38.31 Y72.959 E15.03586
G1 X38.626 Y71.725 E15.07822
G1 X39.019 Y70.513 E15.1206
G1 X39.281 Y69.826 E15.14506
G1 X39.433 Y69.447 E15.15864
G1 X39.944 Y68.279 E15.20104
G1 X40.527 Y67.147 E15.24339
G1 X41.181 Y66.053 E15.28579
G1 X42.11 Y64.722 E15.33977
G1 X42.265 Y64.518 E15.34829
G1 X42.6 Y64.089 E15.3664
G1 X43.423 Y63.116 E15.40878
G1 X44.305 Y62.197 E15.45115
G1 X45.244 Y61.335 E15.49354
G1 X45.97 Y60.737 E15.52483
G1 X46.272 Y60.5 E15.5376
G0 F6000 X46.519 Y60.815
G1 F900 X47.535 Y60.068 E15.57954
G1 X48.597 Y59.387 E15.6215
G1 X49.7 Y58.775 E15.66345
G1 X50.99 Y58.168 E15.71087
G1 X51.346 Y58.016 E15.72375
G1 X52.521 Y57.558 E15.76569
G1 X53.723 Y57.175 E15.80765
G1 X54.947 Y56.869 E15.84961
G1 X56.214 Y56.637 E15.89245
G1 X56.548 Y56.587 E15.90369
G1 X57.271 Y56.492 E15.92794
G1 X58.968 Y56.369 E15.98453
G1 X59.269 Y56.36 E15.99455
G1 X59.864 Y56.351 E16.01434
G1 X159.498 Y56.35 E19.32818
G1 X159.783 Y56.352 E19.33766
G1 X160.481 Y56.362 E19.36088
G1 X161.927 Y56.435 E19.40903
G1 X162.053 Y56.446 E19.41324
G1 X163.238 Y56.586 E19.45293
G1 X163.481 Y56.622 E19.4611
G1 X164.723 Y56.846 E19.50307
G1 X165.948 Y57.149 E19.54504
G1 X167.151 Y57.528 E19.58699
G1 X167.852 Y57.789 E19.61187
G1 X168.223 Y57.935 E19.62513
G1 X169.382 Y58.434 E19.6671
G1 X170.507 Y59.006 E19.70908
G1 X171.593 Y59.647 E19.75102
G1 X172.704 Y60.406 E19.79578
G1 X172.914 Y60.56 E19.80444
G1 X173.375 Y60.908 E19.82365
G1 X174.35 Y61.709 E19.86562
G1 X175.272 Y62.57 E19.90757
G1 X176.137 Y63.488 E19.94953
G1 X176.685 Y64.135 E19.97773
G1 X176.883 Y64.379 E19.98818
G1 X177.343 Y64.967 E20.01301
G1 X178.073 Y65.996 E20.05497
G1 X178.736 Y67.07 E20.09695
G1 X179.329 Y68.183 E20.1389
G1 X179.648 Y68.862 E20.16385
G1 X179.762 Y69.117 E20.17314
G1 X179.978 Y69.618 E20.19128
G1 X180.429 Y70.796 E20.23324
G1 X180.805 Y72 E20.27519
G1 X181.103 Y73.226 E20.31715
G1 X181.263 Y74.077 E20.34596
G1 X181.318 Y74.41 E20.35718
G1 X181.415 Y75.062 E20.37911
G1 X181.574 Y76.835 E20.43831
G1 X181.591 Y77.214 E20.45093
G1 X181.608 Y77.752 E20.46883
G1 X182.159 Y108.746 E21.49986
G1 X182.162 Y109.1 E21.51164
G1 X182.162 Y110.9 E21.5715
G1 X182.159 Y111.254 E21.58328
G1 X181.614 Y141.912 E22.60313
G1 X181.607 Y142.199 E22.61268
G1 X181.584 Y142.913 E22.63644
G1 X181.467 Y144.516 E22.68989
G1 X181.451 Y144.657 E22.69461
G1 X181.335 Y145.512 E22.72331
G1 X181.3 Y145.734 E22.73079
G1 X181.064 Y146.973 E22.77274
G1 X180.75 Y148.195 E22.8147
G1 X180.36 Y149.395 E22.85667
G1 X180.024 Y150.26 E22.88753
G1 X179.873 Y150.624 E22.90064
G1 X179.353 Y151.774 E22.94262
G1 X178.761 Y152.888 E22.98458
G1 X178.1 Y153.962 E23.02652
G1 X177.35 Y155.021 E23.06968
G1 X177.187 Y155.236 E23.07866
G1 X176.814 Y155.714 E23.09882
G1 X176.747 Y155.797 E23.10237
G1 X175.923 Y156.753 E23.14435
G1 X175.041 Y157.655 E23.18631
G1 X174.104 Y158.499 E23.22825
G1 X173.543 Y158.955 E23.2523
G1 X173.288 Y159.155 E23.26307
G1 X172.715 Y159.588 E23.28696
G1 X171.675 Y160.302 E23.32892
G1 X170.591 Y160.948 E23.37089
G1 X169.469 Y161.524 E23.41284
G1 X168.746 Y161.849 E23.4392
G1 X168.523 Y161.944 E23.44727
G1 X168.034 Y162.145 E23.46485
G1 X167.915 Y162.192 E23.46911
G1 X166.728 Y162.618 E23.51105
G1 X165.516 Y162.968 E23.55301
G1 X164.284 Y163.24 E23.59497
G1 X163.551 Y163.364 E23.6197
G1 X163.237 Y163.411 E23.63026
G1 X162.311 Y163.527 E23.6613
G1 X162.213 Y163.537 E23.66458
G1 X160.796 Y163.631 E23.71181
G1 X160.499 Y163.64 E23.72169
G1 X159.896 Y163.649 E23.74175
G1 X60.269 Y163.65 E27.05536
G1 X59.984 Y163.648 E27.06484
G1 X59.286 Y163.638 E27.08805
G1 X57.754 Y163.557 E27.13908
G1 X57.634 Y163.546 E27.14309
G1 X56.603 Y163.424 E27.17762
G1 X56.354 Y163.388 E27.18599
G1 X55.112 Y163.168 E27.22794
G1 X53.886 Y162.87 E27.2699
G1 X52.682 Y162.495 E27.31185
G1 X51.962 Y162.229 E27.33737
G1 X51.601 Y162.088 E27.35026
G1 X50.441 Y161.592 E27.39223
G1 X49.315 Y161.024 E27.43417
G1 X48.227 Y160.385 E27.47614
G1 X46.992 Y159.54 E27.52591
G1 X46.683 Y159.311 E27.5387
G1 X45.694 Y158.528 E27.58066
G1 X44.756 Y157.684 E27.62262
G1 X43.874 Y156.782 E27.66458
G1 X43.044 Y155.819 E27.70687
G1 X42.831 Y155.555 E27.71815
G1 X42.282 Y154.841 E27.74811
G1 X41.565 Y153.804 E27.79004
G1 X40.914 Y152.722 E27.83204
G1 X40.092 Y151.077 E27.8932
G1 X39.971 Y150.804 E27.90313
G1 X39.743 Y150.269 E27.92248
G1 X39.299 Y149.088 E27.96444
G1 X38.931 Y147.881 E28.00641
G1 X38.639 Y146.654 E28.04836
G1 X38.478 Y145.756 E28.0787
G1 X38.413 Y145.341 E28.09268
G1 X38.257 Y144.089 E28.13464
G1 X38.189 Y143.068 E28.16867
G1 X38.177 Y142.772 E28.17853
G1 X38.162 Y142.177 E28.19832
G1 X37.828 Y110.568 E29.2497
G1 X37.829 Y109.222 E29.29447
G1 X38.157 Y78.205 E30.32616
G1 X38.162 Y77.919 E30.33567
G1 X38.179 Y77.237 E30.35836
G1 X38.293 Y75.551 E30.41456
G1 X38.308 Y75.415 E30.41912
G1 X38.432 Y74.489 E30.45019
G1 X38.466 Y74.274 E30.45743
G1 X38.703 Y73.034 E30.49942
G1 X39.017 Y71.813 E30.54135
G1 X39.409 Y70.613 E30.58334
G1 X39.652 Y69.975 E30.60604
G1 X39.804 Y69.596 E30.61963
G1 X40.311 Y68.44 E30.66161
G1 X40.889 Y67.319 E30.70356
G1 X41.538 Y66.237 E30.74552
G1 X42.429 Y64.964 E30.79721
G1 X42.584 Y64.76 E30.80573
G1 X42.913 Y64.338 E30.82352
G1 X43.728 Y63.375 E30.86548
G1 X44.603 Y62.465 E30.90747
G1 X45.533 Y61.613 E30.94942
G1 X46.217 Y61.052 E30.97885
G1 X46.519 Y60.815 E30.99161
G0 F6000 X46.765 Y61.13
G1 F900 X47.772 Y60.391 E31.03316
G1 X48.824 Y59.717 E31.07471
G1 X49.917 Y59.113 E31.11625
G1 X51.147 Y58.536 E31.16144
G1 X51.503 Y58.384 E31.17431
G1 X52.667 Y57.931 E31.21585
G1 X53.857 Y57.553 E31.25738
G1 X55.069 Y57.252 E31.29892
G1 X56.273 Y57.033 E31.33962
G1 X56.607 Y56.983 E31.35085
G1 X57.317 Y56.89 E31.37467
G1 X58.98 Y56.769 E31.43013
G1 X59.281 Y56.76 E31.44014
G1 X59.864 Y56.751 E31.45954
G1 X159.498 Y56.75 E34.77338
G1 X159.777 Y56.752 E34.78266
G1 X160.475 Y56.762 E34.80587
G1 X161.892 Y56.834 E34.85306
G1 X162.018 Y56.845 E34.85727
G1 X163.18 Y56.982 E34.89619
G1 X163.423 Y57.018 E34.90436
G1 X164.652 Y57.24 E34.9459
G1 X165.864 Y57.541 E34.98743
G1 X167.054 Y57.918 E35.02895
G1 X167.706 Y58.162 E35.0521
G1 X168.077 Y58.308 E35.06536
G1 X169.224 Y58.802 E35.1069
G1 X170.337 Y59.369 E35.14845
G1 X171.411 Y60.005 E35.18996
G1 X172.468 Y60.728 E35.23256
G1 X172.678 Y60.882 E35.24122
G1 X173.131 Y61.224 E35.2601
G1 X174.095 Y62.018 E35.30163
G1 X175.007 Y62.871 E35.34317
G1 X175.863 Y63.781 E35.38472
G1 X176.375 Y64.387 E35.41111
G1 X176.573 Y64.631 E35.42156
G1 X177.024 Y65.209 E35.44594
G1 X177.746 Y66.228 E35.48748
G1 X178.401 Y67.291 E35.52901
G1 X178.987 Y68.394 E35.57055
G1 X179.283 Y69.025 E35.59373
G1 X179.397 Y69.28 E35.60302
G1 X179.609 Y69.773 E35.62087
G1 X180.055 Y70.939 E35.66239
G1 X180.426 Y72.132 E35.70395
G1 X180.72 Y73.346 E35.74549
G1 X180.868 Y74.142 E35.77242
G1 X180.923 Y74.475 E35.78365
G1 X181.018 Y75.116 E35.8052
G1 X181.174 Y76.853 E35.8632
G1 X181.191 Y77.232 E35.87582
G1 X181.208 Y77.759 E35.89336
G1 X181.759 Y108.753 E36.92439
G1 X181.762 Y109.1 E36.93593
G1 X181.762 Y110.9 E36.9958
G1 X181.759 Y111.247 E37.00734
G1 X181.214 Y141.905 E38.02719
G1 X181.207 Y142.186 E38.03654
G1 X181.184 Y142.9 E38.0603
G1 X181.07 Y144.471 E38.11269
G1 X181.054 Y144.612 E38.11741
G1 X180.94 Y145.45 E38.14554
G1 X180.905 Y145.672 E38.15301
G1 X180.671 Y146.899 E38.19456
G1 X180.359 Y148.108 E38.23608
G1 X179.971 Y149.295 E38.27762
G1 X179.655 Y150.107 E38.3066
G1 X179.504 Y150.471 E38.31971
G1 X178.988 Y151.608 E38.36124
G1 X178.401 Y152.711 E38.40279
G1 X177.745 Y153.773 E38.44431
G1 X177.031 Y154.78 E38.48537
G1 X176.868 Y154.995 E38.49434
G1 X176.435 Y155.545 E38.51762
G1 X175.62 Y156.491 E38.55916
G1 X174.746 Y157.383 E38.60069
G1 X173.817 Y158.218 E38.64224
G1 X173.296 Y158.641 E38.66456
G1 X173.041 Y158.841 E38.67534
G1 X172.479 Y159.266 E38.69877
G1 X171.448 Y159.972 E38.74033
G1 X170.375 Y160.61 E38.78185
G1 X169.263 Y161.179 E38.8234
G1 X168.59 Y161.481 E38.84793
G1 X168.367 Y161.576 E38.85599
G1 X167.768 Y161.82 E38.87751
G1 X166.593 Y162.241 E38.91902
G1 X165.392 Y162.586 E38.96058
G1 X164.173 Y162.854 E39.00209
G1 X163.492 Y162.968 E39.02506
G1 X163.178 Y163.015 E39.03562
G1 X162.271 Y163.129 E39.06602
G1 X162.173 Y163.139 E39.0693
G1 X160.784 Y163.231 E39.1156
G1 X160.487 Y163.24 E39.12548
G1 X159.896 Y163.249 E39.14514
G1 X60.269 Y163.25 E42.45875
G1 X59.99 Y163.248 E42.46803
G1 X59.292 Y163.238 E42.49125
G1 X57.791 Y163.159 E42.54124
G1 X57.671 Y163.148 E42.54525
G1 X56.661 Y163.028 E42.57908
G1 X56.412 Y162.992 E42.58744
G1 X55.182 Y162.774 E42.62899
G1 X53.969 Y162.478 E42.67052
G1 X52.777 Y162.104 E42.71207
G1 X52.108 Y161.857 E42.73579
G1 X51.747 Y161.716 E42.74868
G1 X50.598 Y161.224 E42.79025
G1 X49.484 Y160.66 E42.83178
G1 X48.408 Y160.026 E42.87332
G1 X47.23 Y159.219 E42.92081
G1 X46.921 Y158.99 E42.93361
G1 X45.942 Y158.214 E42.97516
G1 X45.015 Y157.378 E43.01667
G1 X44.143 Y156.484 E43.05821
G1 X43.356 Y155.568 E43.09838
G1 X43.143 Y155.304 E43.10966
G1 X42.604 Y154.604 E43.13904
G1 X41.894 Y153.576 E43.1806
G1 X41.251 Y152.505 E43.22215
G1 X40.458 Y150.915 E43.28124
G1 X40.337 Y150.642 E43.29117
G1 X40.113 Y150.116 E43.31019
G1 X39.674 Y148.947 E43.35172
G1 X39.31 Y147.752 E43.39327
G1 X39.024 Y146.537 E43.43479
G1 X38.873 Y145.694 E43.46327
G1 X38.808 Y145.279 E43.47724
G1 X38.654 Y144.04 E43.51877
G1 X38.589 Y143.052 E43.5517
G1 X38.577 Y142.756 E43.56155
G1 X38.562 Y142.173 E43.58095
G1 X38.228 Y110.568 E44.6322
G1 X38.229 Y109.226 E44.67683
G1 X38.557 Y78.209 E45.70852
G1 X38.579 Y77.247 E45.74052
G1 X38.691 Y75.595 E45.79559
G1 X38.706 Y75.459 E45.80015
G1 X38.827 Y74.551 E45.83061
G1 X38.861 Y74.336 E45.83785
G1 X39.096 Y73.109 E45.8794
G1 X39.408 Y71.9 E45.92093
G1 X39.798 Y70.714 E45.96246
G1 X40.023 Y70.123 E45.98349
G1 X40.175 Y69.744 E45.99707
G1 X40.677 Y68.601 E46.03859
G1 X41.251 Y67.492 E46.08013
G1 X41.895 Y66.422 E46.12166
G1 X42.747 Y65.206 E46.17105
G1 X42.902 Y65.002 E46.17957
G1 X43.227 Y64.586 E46.19713
G1 X44.034 Y63.633 E46.23866
G1 X44.9 Y62.734 E46.28018
G1 X45.823 Y61.892 E46.32173
G1 X46.463 Y61.367 E46.34927
G1 X46.765 Y61.13 E46.36203
G0 F6000 X47.012 Y61.444
G1 F900 X48.009 Y60.713 E46.40315
G1 X49.051 Y60.048 E46.44427
G1 X50.133 Y59.452 E46.48535
G1 X51.304 Y58.904 E46.52835
G1 X51.66 Y58.752 E46.54123
G1 X52.812 Y58.304 E46.58234
G1 X53.99 Y57.931 E46.62344
G1 X55.19 Y57.635 E46.66454
G1 X56.332 Y57.428 E46.70315
G1 X56.666 Y57.378 E46.71438
G1 X57.363 Y57.287 E46.73776
G1 X58.992 Y57.169 E46.79208
G1 X59.293 Y57.16 E46.8021
G1 X59.864 Y57.151 E46.82109
