;FLAVOR:Marlin
;TIME:5095
;Filament used: 3.25769m
;Layer height: 0.2
;MINX:47.673
;MINY:65.95
;MINZ:0.2
;MAXX:172.326
;MAXY:154.05
;MAXZ:1.6
;Generated with Cura_SteamEngine 4.9.1
M140 S70
M105
M190 S70
M104 S200
M105
M109 S200
M82 ;absolute extrusion mode
; Ender 3 Custom Start G-code
G92 E0 ; Reset Extruder
G28 ; Home all axes
G1 Z2.0 F3000 ; Move Z Axis up little to prevent scratching of Heat Bed
G1 X0.1 Y20 Z0.3 F5000.0 ; Move to start position
G1 X0.1 Y200.0 Z0.3 F1500.0 E15 ; Draw the first line
G1 X0.4 Y200.0 Z0.3 F5000.0 ; Move to side a little
G1 X0.4 Y20 Z0.3 F1500.0 E30 ; Draw the second line
G92 E0 ; Reset Extruder
G1 Z2.0 F3000 ; Move Z Axis up little to prevent scratching of Heat Bed
G1 X5 Y20 Z0.3 F5000.0 ; Move over to prevent blob squish
G92 E0
G92 E0
G1 F1500 E-8
;LAYER_COUNT:8
;LAYER:0
M107
G0 F6000 X52.384 Y68.47 Z0.2
;TYPE:SKIRT
G1 F1500 E0
G1 F900 X52.745 Y68.194 E0.01814
G1 X53.472 Y67.688 E0.05349
G1 X54.241 Y67.251 E0.08879
G1 X54.949 Y66.924 E0.11992
G1 X55.367 Y66.751 E0.13797
G1 X56.2 Y66.45 E0.17332
G1 X57.056 Y66.225 E0.20865
G1 X57.875 Y66.085 E0.24181
G1 X58.314 Y66.029 E0.25948
G1 X59.554 Y65.95 E0.30907
G1 X160.21 Y65.95 E4.32647
G1 X161.489 Y66.034 E4.37762
G1 X161.922 Y66.091 E4.39505
G1 X162.794 Y66.246 E4.4304
G1 X163.648 Y66.479 E4.46573
G1 X164.342 Y66.732 E4.49522
G1 X164.764 Y66.904 E4.5134
G1 X165.568 Y67.275 E4.54874
G1 X166.335 Y67.716 E4.58406
G1 X166.969 Y68.157 E4.61488
G1 X167.328 Y68.428 E4.63283
G1 X168.01 Y68.993 E4.66818
G1 X168.638 Y69.617 E4.70352
G1 X169.143 Y70.213 E4.73469
G1 X169.423 Y70.571 E4.75283
G1 X169.937 Y71.292 E4.78817
G1 X170.383 Y72.056 E4.82348
G1 X170.709 Y72.742 E4.8538
G1 X170.885 Y73.152 E4.8716
G1 X171.197 Y73.981 E4.90696
G1 X171.433 Y74.834 E4.94228
G1 X171.568 Y75.538 E4.97089
G1 X171.634 Y75.97 E4.98833
G1 X171.744 Y77.276 E5.04064
G1 X172.326 Y110.076 E6.34997
G1 X172.326 Y110.424 E6.36386
G1 X171.752 Y142.719 E7.65303
G1 X171.65 Y143.971 E7.70316
G1 X171.586 Y144.406 E7.72071
G1 X171.417 Y145.276 E7.75608
G1 X171.171 Y146.126 E7.7914
G1 X170.894 Y146.848 E7.82226
G1 X170.717 Y147.26 E7.84016
G1 X170.331 Y148.057 E7.87551
G1 X169.875 Y148.816 E7.91085
G1 X169.432 Y149.429 E7.94103
G1 X169.152 Y149.787 E7.95917
G1 X168.576 Y150.459 E7.9945
G1 X167.942 Y151.077 E8.02983
G1 X167.337 Y151.572 E8.06103
G1 X166.978 Y151.843 E8.07899
G1 X166.248 Y152.344 E8.11432
G1 X165.476 Y152.777 E8.14965
G1 X164.773 Y153.096 E8.18046
G1 X164.351 Y153.268 E8.19865
G1 X163.517 Y153.565 E8.23399
G1 X162.66 Y153.785 E8.2693
G1 X161.931 Y153.909 E8.29881
G1 X161.498 Y153.966 E8.31624
G1 X160.219 Y154.05 E8.3674
G1 X59.548 Y154.05 E12.3854
G1 X58.283 Y153.968 E12.43599
G1 X57.845 Y153.911 E12.45362
G1 X56.974 Y153.757 E12.48893
G1 X56.119 Y153.525 E12.52428
G1 X55.373 Y153.253 E12.55598
G1 X54.956 Y153.081 E12.57398
G1 X54.154 Y152.706 E12.60932
G1 X53.389 Y152.261 E12.64464
G1 X52.772 Y151.83 E12.67468
G1 X52.408 Y151.554 E12.69291
G1 X51.727 Y150.988 E12.72825
G1 X51.101 Y150.363 E12.76356
G1 X50.573 Y149.735 E12.79631
G1 X50.295 Y149.375 E12.81446
G1 X49.786 Y148.65 E12.84981
G1 X49.344 Y147.883 E12.88515
G1 X49.029 Y147.211 E12.91477
G1 X48.853 Y146.796 E12.93276
G1 X48.544 Y145.967 E12.96807
G1 X48.312 Y145.112 E13.00343
G1 X48.174 Y144.359 E13.03398
G1 X48.112 Y143.926 E13.05144
G1 X48.014 Y142.64 E13.10292
G1 X47.673 Y110.352 E14.39167
G1 X47.673 Y110.146 E14.3999
G1 X48.019 Y77.364 E15.70837
G1 X48.115 Y76.09 E15.75936
G1 X48.177 Y75.653 E15.77698
G1 X48.341 Y74.783 E15.81231
G1 X48.583 Y73.932 E15.84762
G1 X48.858 Y73.204 E15.87868
G1 X49.034 Y72.789 E15.89668
G1 X49.416 Y71.99 E15.93202
G1 X49.868 Y71.229 E15.96735
G1 X50.32 Y70.598 E15.99833
G1 X50.6 Y70.238 E16.01653
G1 X51.175 Y69.565 E16.05186
G1 X51.808 Y68.946 E16.0872
G1 X52.384 Y68.47 E16.11702
G0 F6000 X52.627 Y68.787
G1 F900 X52.988 Y68.511 E16.13516
G1 X53.7 Y68.017 E16.16975
G1 X54.455 Y67.591 E16.20435
G1 X55.102 Y67.293 E16.23278
G1 X55.52 Y67.12 E16.25083
G1 X56.336 Y66.826 E16.28545
G1 X57.175 Y66.608 E16.32005
G1 X57.926 Y66.482 E16.35044
G1 X58.365 Y66.426 E16.3681
G1 X59.554 Y66.35 E16.41566
G1 X160.21 Y66.35 E20.43305
G1 X161.437 Y66.43 E20.48213
G1 X161.87 Y66.487 E20.49956
G1 X162.723 Y66.64 E20.53415
G1 X163.559 Y66.871 E20.56877
G1 X164.191 Y67.102 E20.59562
G1 X164.613 Y67.274 E20.61381
G1 X165.4 Y67.638 E20.64842
G1 X166.15 Y68.073 E20.68302
G1 X166.728 Y68.477 E20.71117
G1 X167.087 Y68.748 E20.72912
G1 X167.754 Y69.301 E20.7637
G1 X168.368 Y69.914 E20.79833
G1 X168.828 Y70.459 E20.8268
G1 X169.108 Y70.817 E20.84494
G1 X169.61 Y71.524 E20.87954
G1 X170.045 Y72.274 E20.91415
G1 X170.342 Y72.9 E20.9418
G1 X170.518 Y73.31 E20.95961
G1 X170.823 Y74.122 E20.99423
G1 X171.051 Y74.958 E21.02882
G1 X171.172 Y75.598 E21.05481
G1 X171.238 Y76.03 E21.07225
G1 X171.345 Y77.283 E21.12245
G1 X171.927 Y110.083 E22.43177
G1 X171.927 Y110.417 E22.4451
G1 X171.353 Y142.712 E23.73427
G1 X171.254 Y143.913 E23.78237
G1 X171.19 Y144.348 E23.79992
G1 X171.024 Y145.199 E23.83452
G1 X170.781 Y146.031 E23.86911
G1 X170.527 Y146.69 E23.8973
G1 X170.35 Y147.102 E23.9152
G1 X169.971 Y147.882 E23.94981
G1 X169.522 Y148.624 E23.98443
G1 X169.117 Y149.183 E24.01198
G1 X168.837 Y149.541 E24.03012
G1 X168.272 Y150.199 E24.06473
G1 X167.649 Y150.801 E24.09931
G1 X167.096 Y151.252 E24.12779
G1 X166.737 Y151.523 E24.14574
G1 X166.022 Y152.013 E24.18034
G1 X165.265 Y152.435 E24.21493
G1 X164.622 Y152.726 E24.2431
G1 X164.2 Y152.898 E24.26129
G1 X163.383 Y153.188 E24.29589
G1 X162.543 Y153.401 E24.33048
G1 X161.879 Y153.513 E24.35735
G1 X161.446 Y153.57 E24.37478
G1 X160.219 Y153.65 E24.42386
G1 X59.548 Y153.65 E28.44186
G1 X58.335 Y153.571 E28.49037
G1 X57.897 Y153.514 E28.508
G1 X57.043 Y153.363 E28.54262
G1 X56.207 Y153.134 E28.57721
G1 X55.526 Y152.883 E28.60618
G1 X55.109 Y152.711 E28.62418
G1 X54.323 Y152.344 E28.65881
G1 X53.575 Y151.906 E28.6934
G1 X53.014 Y151.511 E28.72079
G1 X52.65 Y151.235 E28.73902
G1 X51.984 Y150.68 E28.77362
G1 X51.372 Y150.066 E28.80822
G1 X50.889 Y149.49 E28.83822
G1 X50.611 Y149.13 E28.85638
G1 X50.113 Y148.42 E28.89099
G1 X49.683 Y147.668 E28.92556
G1 X49.397 Y147.055 E28.95256
G1 X49.221 Y146.64 E28.97055
G1 X48.92 Y145.827 E29.00515
G1 X48.695 Y144.99 E29.03975
G1 X48.57 Y144.302 E29.06766
G1 X48.508 Y143.869 E29.08511
G1 X48.414 Y142.636 E29.13447
G1 X48.073 Y110.348 E30.42322
G1 X48.073 Y110.15 E30.43113
G1 X48.419 Y77.368 E31.7396
G1 X48.511 Y76.147 E31.78847
G1 X48.573 Y75.71 E31.80609
G1 X48.734 Y74.858 E31.84069
G1 X48.973 Y74.024 E31.87532
G1 X49.226 Y73.36 E31.90368
G1 X49.402 Y72.945 E31.92167
G1 X49.777 Y72.163 E31.95629
G1 X50.222 Y71.419 E31.99089
G1 X50.636 Y70.844 E32.01917
G1 X50.916 Y70.484 E32.03737
G1 X51.479 Y69.825 E32.07196
G1 X52.101 Y69.221 E32.10657
G1 X52.627 Y68.787 E32.13378
G0 F6000 X52.87 Y69.105
G1 F900 X53.231 Y68.829 E32.15192
G1 X53.928 Y68.346 E32.18577
G1 X54.668 Y67.931 E32.21963
G1 X55.255 Y67.663 E32.24538
G1 X55.673 Y67.49 E32.26344
G1 X56.471 Y67.203 E32.29729
G1 X57.293 Y66.992 E32.33116
G1 X57.976 Y66.878 E32.3588
G1 X58.415 Y66.822 E32.37646
G1 X59.554 Y66.75 E32.42201
G1 X160.21 Y66.75 E36.43941
G1 X161.385 Y66.827 E36.48641
G1 X161.818 Y66.884 E36.50384
G1 X162.653 Y67.034 E36.5377
G1 X163.47 Y67.262 E36.57155
G1 X164.04 Y67.473 E36.59581
G1 X164.462 Y67.645 E36.614
G1 X165.232 Y68.002 E36.64787
G1 X165.964 Y68.429 E36.6817
G1 X166.487 Y68.796 E36.7072
G1 X166.846 Y69.067 E36.72515
G1 X167.499 Y69.609 E36.75902
G1 X168.097 Y70.211 E36.79289
G1 X168.513 Y70.705 E36.81866
G1 X168.793 Y71.063 E36.8368
G1 X169.284 Y71.755 E36.87067
G1 X169.707 Y72.491 E36.90455
G1 X169.974 Y73.058 E36.92956
G1 X170.15 Y73.468 E36.94737
G1 X170.448 Y74.262 E36.98122
G1 X170.669 Y75.081 E37.01508
G1 X170.777 Y75.659 E37.03855
G1 X170.843 Y76.091 E37.05599
G1 X170.945 Y77.29 E37.10401
G1 X171.527 Y110.09 E38.41334
G1 X171.527 Y110.41 E38.42611
G1 X170.953 Y142.705 E39.71528
G1 X170.858 Y143.855 E39.76133
G1 X170.794 Y144.29 E39.77888
G1 X170.631 Y145.123 E39.81276
G1 X170.391 Y145.936 E39.84659
G1 X170.159 Y146.533 E39.87216
G1 X169.982 Y146.945 E39.89005
G1 X169.611 Y147.707 E39.92388
G1 X169.17 Y148.432 E39.95775
G1 X168.802 Y148.937 E39.98269
G1 X168.522 Y149.295 E40.00083
G1 X167.969 Y149.937 E40.03465
G1 X167.357 Y150.525 E40.06852
G1 X166.855 Y150.933 E40.09434
G1 X166.496 Y151.204 E40.11229
G1 X165.796 Y151.683 E40.14615
G1 X165.054 Y152.093 E40.17998
G1 X164.471 Y152.355 E40.20549
G1 X164.049 Y152.527 E40.22368
G1 X163.249 Y152.81 E40.25755
G1 X162.426 Y153.016 E40.29141
G1 X161.827 Y153.116 E40.31565
G1 X161.394 Y153.173 E40.33308
G1 X160.219 Y153.25 E40.38008
G1 X59.548 Y153.25 E44.39807
G1 X58.387 Y153.175 E44.44451
G1 X57.949 Y153.118 E44.46214
G1 X57.113 Y152.969 E44.49603
G1 X56.296 Y152.742 E44.52987
G1 X55.678 Y152.513 E44.55618
G1 X55.261 Y152.341 E44.57418
G1 X54.493 Y151.981 E44.60803
G1 X53.762 Y151.55 E44.6419
G1 X53.255 Y151.193 E44.66665
G1 X52.891 Y150.917 E44.68488
G1 X52.24 Y150.373 E44.71874
G1 X51.643 Y149.77 E44.75261
G1 X51.206 Y149.246 E44.77984
G1 X50.928 Y148.886 E44.798
G1 X50.441 Y148.191 E44.83187
G1 X50.023 Y147.453 E44.86572
G1 X49.765 Y146.899 E44.89011
G1 X49.589 Y146.484 E44.9081
G1 X49.295 Y145.688 E44.94197
G1 X49.077 Y144.868 E44.97584
G1 X48.966 Y144.246 E45.00105
G1 X48.904 Y143.813 E45.01851
G1 X48.814 Y142.632 E45.06578
G1 X48.473 Y110.344 E46.35454
G1 X48.473 Y110.154 E46.36212
G1 X48.819 Y77.372 E47.6706
G1 X48.907 Y76.203 E47.71739
G1 X48.969 Y75.766 E47.735
G1 X49.128 Y74.932 E47.76889
G1 X49.364 Y74.118 E47.80272
G1 X49.594 Y73.516 E47.82844
G1 X49.77 Y73.101 E47.84643
G1 X50.138 Y72.337 E47.88027
G1 X50.576 Y71.61 E47.91415
G1 X50.952 Y71.09 E47.93976
G1 X51.232 Y70.73 E47.95796
G1 X51.784 Y70.085 E47.99185
G1 X52.394 Y69.496 E48.02569
G1 X52.87 Y69.105 E48.05028
G0 F6000 X53.113 Y69.423
G1 F900 X53.474 Y69.147 E48.06841
G1 X54.156 Y68.676 E48.10149
G1 X54.88 Y68.272 E48.13458
G1 X55.408 Y68.033 E48.15772
G1 X55.826 Y67.86 E48.17577
G1 X56.607 Y67.58 E48.20889
G1 X57.411 Y67.377 E48.24198
G1 X58.027 Y67.275 E48.2669
G1 X58.466 Y67.219 E48.28457
G1 X59.554 Y67.15 E48.32808
G1 X160.21 Y67.15 E52.34548
G1 X161.332 Y67.224 E52.39036
G1 X161.765 Y67.281 E52.40779
G1 X162.581 Y67.428 E52.44088
G1 X163.379 Y67.654 E52.47398
G1 X163.889 Y67.843 E52.49569
G1 X164.311 Y68.015 E52.51388
G1 X165.063 Y68.365 E52.54698
G1 X165.778 Y68.785 E52.58008
G1 X166.246 Y69.115 E52.60294
G1 X166.605 Y69.386 E52.62089
G1 X167.242 Y69.917 E52.65399
G1 X167.825 Y70.507 E52.68709
G1 X168.198 Y70.952 E52.71027
G1 X168.478 Y71.31 E52.72841
G1 X168.957 Y71.987 E52.76151
G1 X169.368 Y72.707 E52.7946
G1 X169.607 Y73.216 E52.81704
G1 X169.783 Y73.626 E52.83485
G1 X170.073 Y74.403 E52.86795
G1 X170.286 Y75.204 E52.90103
G1 X170.381 Y75.719 E52.92193
G1 X170.447 Y76.151 E52.93937
G1 X170.545 Y77.297 E52.98528
G1 X171.127 Y110.097 E54.2946
G1 X171.127 Y110.403 E54.30682
G1 X170.553 Y142.698 E55.59598
G1 X170.462 Y143.797 E55.64
G1 X170.398 Y144.232 E55.65755
G1 X170.238 Y145.045 E55.69062
G1 X170.001 Y145.84 E55.72373
G1 X169.792 Y146.375 E55.74665
G1 X169.615 Y146.787 E55.76455
G1 X169.251 Y147.532 E55.79764
G1 X168.817 Y148.239 E55.83075
G1 X168.487 Y148.69 E55.85306
G1 X168.207 Y149.048 E55.8712
G1 X167.665 Y149.676 E55.90431
G1 X167.066 Y150.249 E55.93739
G1 X166.614 Y150.614 E55.96058
G1 X166.255 Y150.885 E55.97853
G1 X165.57 Y151.352 E56.01162
G1 X164.843 Y151.751 E56.04472
G1 X164.32 Y151.985 E56.06759
G1 X163.898 Y152.157 E56.08578
G1 X163.116 Y152.432 E56.11886
G1 X162.311 Y152.631 E56.15196
G1 X161.774 Y152.719 E56.17368
G1 X161.341 Y152.776 E56.19111
G1 X160.219 Y152.85 E56.23599
G1 X59.548 Y152.85 E60.25398
G1 X58.438 Y152.778 E60.29838
G1 X58 Y152.721 E60.31601
G1 X57.184 Y152.575 E60.34909
G1 X56.386 Y152.35 E60.38219
G1 X55.831 Y152.143 E60.40583
G1 X55.414 Y151.971 E60.42383
G1 X54.663 Y151.618 E60.45695
G1 X53.95 Y151.195 E60.49004
G1 X53.497 Y150.874 E60.5122
G1 X53.133 Y150.598 E60.53043
G1 X52.497 Y150.066 E60.56352
G1 X51.915 Y149.474 E60.59666
G1 X51.522 Y149.001 E60.6212
G1 X51.244 Y148.641 E60.63936
G1 X50.77 Y147.961 E60.67244
G1 X50.363 Y147.239 E60.70552
G1 X50.134 Y146.743 E60.72732
G1 X49.958 Y146.328 E60.74532
G1 X49.671 Y145.55 E60.77841
G1 X49.461 Y144.748 E60.8115
G1 X49.362 Y144.189 E60.83416
G1 X49.3 Y143.756 E60.85162
G1 X49.213 Y142.628 E60.89677
G1 X48.872 Y110.34 E62.18553
G1 X48.872 Y110.158 E62.19279
G1 X49.218 Y77.376 E63.50127
G1 X49.303 Y76.259 E63.54598
G1 X49.365 Y75.822 E63.56359
G1 X49.521 Y75.008 E63.59667
G1 X49.755 Y74.212 E63.62979
G1 X49.963 Y73.672 E63.65288
G1 X50.139 Y73.257 E63.67088
G1 X50.499 Y72.51 E63.70397
G1 X50.929 Y71.802 E63.73703
G1 X51.268 Y71.335 E63.76006
G1 X51.548 Y70.975 E63.77827
G1 X52.088 Y70.346 E63.81135
G1 X52.686 Y69.772 E63.84444
G1 X53.113 Y69.423 E63.86645
G0 F6000 X53.356 Y69.741
G1 F900 X53.717 Y69.465 E63.88459
G1 X54.383 Y69.005 E63.91689
G1 X55.092 Y68.614 E63.94921
G1 X55.561 Y68.402 E63.96975
G1 X55.979 Y68.229 E63.9878
G1 X56.742 Y67.957 E64.02013
G1 X57.527 Y67.761 E64.05243
G1 X58.077 Y67.672 E64.07466
G1 X58.516 Y67.616 E64.09233
G1 X59.554 Y67.55 E64.13384
G1 X160.21 Y67.55 E68.15124
G1 X161.28 Y67.62 E68.19404
G1 X161.713 Y67.677 E68.21147
G1 X162.51 Y67.822 E68.2438
G1 X163.288 Y68.045 E68.2761
G1 X163.738 Y68.214 E68.29529
G1 X164.16 Y68.386 E68.31348
G1 X164.894 Y68.728 E68.34579
G1 X165.59 Y69.141 E68.3781
G1 X166.005 Y69.434 E68.39837
G1 X166.364 Y69.705 E68.41632
G1 X166.986 Y70.224 E68.44866
G1 X167.553 Y70.802 E68.48097
G1 X167.883 Y71.198 E68.50155
G1 X168.163 Y71.556 E68.51969
G1 X168.63 Y72.218 E68.55202
G1 X169.029 Y72.922 E68.58432
G1 X169.239 Y73.373 E68.60417
G1 X169.415 Y73.783 E68.62198
G1 X169.697 Y74.542 E68.6543
G1 X169.903 Y75.325 E68.68661
G1 X169.986 Y75.78 E68.70507
G1 X170.052 Y76.212 E68.72252
G1 X170.145 Y77.305 E68.7663
G1 X170.727 Y110.105 E70.07562
G1 X170.727 Y110.396 E70.08724
G1 X170.153 Y142.691 E71.3764
G1 X170.067 Y143.739 E71.41837
G1 X170.003 Y144.174 E71.43592
G1 X169.845 Y144.968 E71.46823
G1 X169.611 Y145.743 E71.50054
G1 X169.424 Y146.217 E71.52088
G1 X169.247 Y146.629 E71.53878
G1 X168.891 Y147.356 E71.57109
G1 X168.465 Y148.045 E71.60342
G1 X168.172 Y148.444 E71.62317
G1 X167.892 Y148.802 E71.64131
G1 X167.362 Y149.414 E71.67363
G1 X166.775 Y149.971 E71.70592
G1 X166.373 Y150.295 E71.72653
G1 X166.014 Y150.566 E71.74448
G1 X165.345 Y151.021 E71.77678
G1 X164.634 Y151.408 E71.80908
G1 X164.169 Y151.614 E71.82938
G1 X163.747 Y151.786 E71.84757
G1 X162.983 Y152.055 E71.8799
G1 X162.196 Y152.246 E71.91222
G1 X161.722 Y152.323 E71.93139
G1 X161.289 Y152.38 E71.94882
G1 X160.219 Y152.45 E71.99162
G1 X59.548 Y152.45 E76.00961
G1 X58.49 Y152.381 E76.05193
G1 X58.052 Y152.324 E76.06956
G1 X57.255 Y152.18 E76.10189
G1 X56.476 Y151.959 E76.1342
G1 X55.983 Y151.773 E76.15523
G1 X55.566 Y151.601 E76.17324
G1 X54.834 Y151.256 E76.20554
G1 X54.139 Y150.84 E76.23786
G1 X53.739 Y150.555 E76.25747
G1 X53.375 Y150.279 E76.2757
G1 X52.754 Y149.759 E76.30803
G1 X52.188 Y149.179 E76.34037
G1 X51.839 Y148.757 E76.36223
G1 X51.561 Y148.397 E76.38038
G1 X51.098 Y147.732 E76.41272
G1 X50.703 Y147.025 E76.44505
G1 X50.502 Y146.587 E76.46428
G1 X50.326 Y146.172 E76.48227
G1 X50.047 Y145.411 E76.51462
G1 X49.844 Y144.628 E76.54691
G1 X49.758 Y144.132 E76.567
G1 X49.696 Y143.699 E76.58446
G1 X49.613 Y142.624 E76.62749
G1 X49.272 Y110.336 E77.91625
G1 X49.272 Y110.162 E77.92319
G1 X49.618 Y77.38 E79.23166
G1 X49.699 Y76.315 E79.27429
G1 X49.761 Y75.878 E79.29191
