;FLAVOR:Marlin
;TIME:7077
;Filament used: 4.96174m
;Layer height: 0.2
;MINX:42.473
;MINY:60.75
;MINZ:0.2
;MAXX:177.526
;MAXY:159.25
;MAXZ:1.6
;Generated with Cura_SteamEngine 4.9.1
M140 S70
M105
M190 S70
M104 S200
M105
M109 S200
M82 ;absolute extrusion mode
; Ender 3 Custom Start G-code
G92 E0 ; Reset Extruder
G28 ; Home all axes
G1 Z2.0 F3000 ; Move Z Axis up little to prevent scratching of Heat Bed
G1 X0.1 Y20 Z0.3 F5000.0 ; Move to start position
G1 X0.1 Y200.0 Z0.3 F1500.0 E15 ; Draw the first line
G1 X0.4 Y200.0 Z0.3 F5000.0 ; Move to side a little
G1 X0.4 Y20 Z0.3 F1500.0 E30 ; Draw the second line
G92 E0 ; Reset Extruder
G1 Z2.0 F3000 ; Move Z Axis up little to prevent scratching of Heat Bed
G1 X5 Y20 Z0.3 F5000.0 ; Move over to prevent blob squish
G92 E0
G92 E0
G1 F1500 E-8
;LAYER_COUNT:8
;LAYER:0
M107
G0 F6000 X49.266 Y64.302 Z0.2
;TYPE:SKIRT
G1 F1500 E0
G1 F900 X49.63 Y64.026 E0.01823
G1 X50.526 Y63.397 E0.06193
G1 X51.466 Y62.835 E0.10564
G1 X52.445 Y62.342 E0.14939
G1 X52.973 Y62.112 E0.17237
G1 X53.39 Y61.94 E0.19038
G1 X54.417 Y61.56 E0.23408
G1 X55.47 Y61.255 E0.27784
G1 X56.541 Y61.029 E0.32152
G1 X57.174 Y60.932 E0.34708
G1 X57.612 Y60.875 E0.36471
G1 X58.703 Y60.774 E0.40844
G1 X59.548 Y60.75 E0.44218
G1 X160.219 Y60.75 E4.46018
G1 X161.314 Y60.79 E4.50391
G1 X162.177 Y60.878 E4.53853
G1 X162.61 Y60.935 E4.55597
G1 X163.69 Y61.118 E4.59969
G1 X164.753 Y61.379 E4.64337
G1 X165.795 Y61.716 E4.68708
G1 X166.314 Y61.916 E4.70928
G1 X166.736 Y62.088 E4.72747
G1 X167.734 Y62.539 E4.77118
G1 X168.697 Y63.06 E4.81488
G1 X169.619 Y63.651 E4.85859
G1 X170.111 Y64.007 E4.88283
G1 X170.47 Y64.278 E4.90078
G1 X171.32 Y64.969 E4.9445
G1 X172.117 Y65.721 E4.98824
G1 X172.856 Y66.529 E5.03194
G1 X173.248 Y67.009 E5.05667
G1 X173.528 Y67.367 E5.07481
G1 X174.171 Y68.254 E5.11854
G1 X174.748 Y69.185 E5.16226
G1 X175.254 Y70.156 E5.20596
G1 X175.49 Y70.675 E5.22871
G1 X175.667 Y71.086 E5.24657
G1 X176.063 Y72.107 E5.29028
G1 X176.384 Y73.154 E5.33399
G1 X176.627 Y74.222 E5.3777
G1 X176.728 Y74.821 E5.40195
G1 X176.792 Y75.253 E5.41938
G1 X176.913 Y76.341 E5.46307
G1 X176.952 Y77.184 E5.49675
G1 X177.526 Y109.483 E6.78608
G1 X177.526 Y110.016 E6.80735
G1 X176.944 Y142.812 E8.11652
G1 X176.884 Y143.906 E8.16025
G1 X176.776 Y144.796 E8.19603
G1 X176.71 Y145.231 E8.21359
G1 X176.507 Y146.307 E8.25729
G1 X176.225 Y147.366 E8.30103
G1 X175.669 Y148.886 E8.36563
G1 X175.493 Y149.297 E8.38348
G1 X175.025 Y150.287 E8.42718
G1 X174.487 Y151.241 E8.47089
G1 X173.88 Y152.153 E8.51462
G1 X173.519 Y152.633 E8.53859
G1 X173.239 Y152.991 E8.55673
G1 X172.534 Y153.829 E8.60044
G1 X171.769 Y154.612 E8.64413
G1 X170.948 Y155.338 E8.68787
G1 X170.461 Y155.722 E8.71262
G1 X170.102 Y155.993 E8.73058
G1 X169.205 Y156.62 E8.77426
G1 X168.264 Y157.181 E8.81798
G1 X167.284 Y157.671 E8.86171
G1 X166.727 Y157.912 E8.88594
G1 X166.305 Y158.084 E8.90412
G1 X165.276 Y158.46 E8.94785
G1 X164.223 Y158.76 E8.99155
G1 X163.15 Y158.982 E9.03528
G1 X162.601 Y159.065 E9.05744
G1 X162.168 Y159.122 E9.07487
G1 X161.077 Y159.225 E9.11861
G1 X160.21 Y159.25 E9.15323
G1 X59.554 Y159.25 E13.17063
G1 X58.459 Y159.21 E13.21436
G1 X57.656 Y159.129 E13.24657
G1 X57.217 Y159.073 E13.26424
G1 X56.136 Y158.895 E13.30796
G1 X55.071 Y158.639 E13.35168
G1 X54.028 Y158.305 E13.39539
G1 X53.379 Y158.054 E13.42316
G1 X52.961 Y157.881 E13.44122
G1 X51.965 Y157.425 E13.48494
G1 X51.005 Y156.898 E13.52865
G1 X50.085 Y156.303 E13.57238
G1 X49.586 Y155.937 E13.59708
G1 X49.225 Y155.661 E13.61522
G1 X48.38 Y154.965 E13.65891
G1 X47.588 Y154.208 E13.70264
G1 X46.853 Y153.396 E13.74635
G1 X46.496 Y152.954 E13.76903
G1 X46.216 Y152.594 E13.78723
G1 X45.575 Y151.706 E13.83094
G1 X45.001 Y150.773 E13.87466
G1 X44.497 Y149.8 E13.9184
G1 X44.247 Y149.242 E13.9428
G1 X44.071 Y148.827 E13.96079
G1 X43.68 Y147.803 E14.00454
G1 X43.365 Y146.754 E14.04826
G1 X43.128 Y145.685 E14.09196
G1 X43.031 Y145.096 E14.11578
G1 X42.969 Y144.663 E14.13324
G1 X42.854 Y143.574 E14.17695
G1 X42.819 Y142.695 E14.21206
G1 X42.473 Y109.908 E15.52073
G1 X42.473 Y109.592 E15.53334
G1 X42.814 Y77.309 E16.8219
G1 X42.865 Y76.215 E16.86561
G1 X42.962 Y75.36 E16.89995
G1 X43.024 Y74.923 E16.91757
G1 X43.217 Y73.845 E16.96128
G1 X43.489 Y72.784 E17.005
G1 X43.837 Y71.745 E17.04873
G1 X44.066 Y71.173 E17.07332
G1 X44.242 Y70.758 E17.09131
G1 X44.706 Y69.766 E17.13502
G1 X45.241 Y68.811 E17.17871
G1 X45.845 Y67.897 E17.22244
G1 X46.179 Y67.447 E17.2448
G1 X46.457 Y67.087 E17.26296
G1 X47.157 Y66.245 E17.30666
G1 X47.918 Y65.457 E17.35038
G1 X48.733 Y64.726 E17.39408
G1 X49.266 Y64.302 E17.42126
G0 F6000 X49.508 Y64.621
G1 F900 X49.872 Y64.345 E17.43949
G1 X50.756 Y63.725 E17.48259
G1 X51.684 Y63.171 E17.52573
G1 X53.126 Y62.482 E17.58951
G1 X53.543 Y62.31 E17.60751
G1 X54.556 Y61.935 E17.65063
G1 X55.595 Y61.636 E17.69378
G1 X56.652 Y61.415 E17.73688
G1 X57.226 Y61.329 E17.76004
G1 X57.664 Y61.272 E17.77767
G1 X58.74 Y61.172 E17.8208
G1 X59.548 Y61.15 E17.85306
G1 X160.219 Y61.15 E21.87106
G1 X161.299 Y61.19 E21.9142
G1 X162.125 Y61.275 E21.94734
G1 X162.558 Y61.332 E21.96477
G1 X163.623 Y61.512 E22.00788
G1 X164.672 Y61.771 E22.051
G1 X166.163 Y62.287 E22.11397
G1 X166.585 Y62.459 E22.13216
G1 X167.569 Y62.903 E22.17525
G1 X168.519 Y63.42 E22.21842
G1 X169.427 Y64.005 E22.26153
G1 X169.87 Y64.326 E22.28336
G1 X170.229 Y64.597 E22.30132
G1 X171.067 Y65.28 E22.34446
G1 X171.852 Y66.022 E22.38758
G1 X172.58 Y66.821 E22.43072
G1 X172.933 Y67.255 E22.45305
G1 X173.213 Y67.613 E22.47119
G1 X173.847 Y68.489 E22.51434
G1 X174.414 Y69.408 E22.55744
G1 X175.122 Y70.833 E22.62095
G1 X175.299 Y71.244 E22.63881
G1 X175.69 Y72.252 E22.68196
G1 X176.005 Y73.285 E22.72507
G1 X176.242 Y74.34 E22.76822
G1 X176.332 Y74.879 E22.79003
G1 X176.396 Y75.311 E22.80746
G1 X176.515 Y76.385 E22.85059
G1 X176.552 Y77.192 E22.88284
G1 X177.126 Y109.491 E24.17216
G1 X177.126 Y110.009 E24.19284
G1 X176.544 Y142.805 E25.502
G1 X176.485 Y143.884 E25.54513
G1 X176.381 Y144.736 E25.57939
G1 X176.315 Y145.171 E25.59695
G1 X176.113 Y146.233 E25.6401
G1 X175.834 Y147.276 E25.68319
G1 X175.301 Y148.728 E25.74492
G1 X175.125 Y149.139 E25.76277
G1 X174.663 Y150.116 E25.8059
G1 X174.131 Y151.056 E25.84901
G1 X173.53 Y151.954 E25.89214
G1 X173.204 Y152.387 E25.91377
G1 X172.924 Y152.745 E25.93191
G1 X172.228 Y153.571 E25.97502
G1 X171.472 Y154.343 E26.01815
G1 X170.661 Y155.057 E26.06127
G1 X170.22 Y155.403 E26.08364
G1 X169.861 Y155.674 E26.1016
G1 X168.975 Y156.292 E26.14471
G1 X168.046 Y156.844 E26.18784
G1 X167.079 Y157.325 E26.23095
G1 X166.576 Y157.541 E26.2528
G1 X166.154 Y157.713 E26.27098
G1 X165.139 Y158.084 E26.31412
G1 X164.099 Y158.378 E26.35725
G1 X162.549 Y158.668 E26.42019
G1 X162.116 Y158.725 E26.43762
G1 X161.04 Y158.826 E26.48075
G1 X160.21 Y158.85 E26.5139
G1 X59.554 Y158.85 E30.53129
G1 X58.474 Y158.81 E30.57443
G1 X57.707 Y158.733 E30.6052
G1 X57.268 Y158.677 E30.62286
G1 X56.201 Y158.5 E30.66603
G1 X55.151 Y158.246 E30.70914
G1 X54.123 Y157.914 E30.75226
G1 X53.532 Y157.684 E30.77757
G1 X53.114 Y157.511 E30.79563
G1 X52.131 Y157.061 E30.83878
G1 X51.185 Y156.54 E30.88188
G1 X50.279 Y155.95 E30.92503
G1 X49.829 Y155.62 E30.9473
G1 X49.468 Y155.344 E30.96544
G1 X48.635 Y154.656 E31.00856
G1 X47.854 Y153.909 E31.0517
G1 X46.811 Y152.709 E31.11515
G1 X46.531 Y152.349 E31.13336
G1 X45.9 Y151.472 E31.17648
G1 X45.335 Y150.55 E31.21964
G1 X44.84 Y149.59 E31.26275
G1 X44.615 Y149.085 E31.28481
G1 X44.439 Y148.67 E31.3028
G1 X44.054 Y147.661 E31.34591
G1 X43.745 Y146.625 E31.38906
G1 X43.427 Y145.039 E31.45362
G1 X43.365 Y144.606 E31.47107
G1 X43.252 Y143.532 E31.51418
G1 X43.219 Y142.691 E31.54777
G1 X42.873 Y109.904 E32.85644
G1 X42.873 Y109.596 E32.86873
G1 X43.214 Y77.313 E34.15729
G1 X43.265 Y76.233 E34.20044
G1 X43.358 Y75.416 E34.23326
G1 X43.42 Y74.979 E34.25088
G1 X43.611 Y73.916 E34.29398
G1 X43.88 Y72.869 E34.33713
G1 X44.226 Y71.846 E34.38023
G1 X44.434 Y71.33 E34.40244
G1 X44.61 Y70.915 E34.42043
G1 X45.068 Y69.936 E34.46357
G1 X45.598 Y68.994 E34.50671
G1 X46.495 Y67.692 E34.56981
G1 X46.773 Y67.332 E34.58796
G1 X47.465 Y66.501 E34.63113
G1 X48.216 Y65.725 E34.67423
G1 X49.023 Y65.005 E34.71739
G1 X49.508 Y64.621 E34.74208
G0 F6000 X49.749 Y64.94
G1 F900 X50.113 Y64.664 E34.76031
G1 X50.986 Y64.052 E34.80287
G1 X51.902 Y63.508 E34.84539
G1 X53.278 Y62.852 E34.90623
G1 X53.695 Y62.68 E34.92423
G1 X54.695 Y62.311 E34.96677
G1 X55.72 Y62.018 E35.00932
G1 X57.278 Y61.726 E35.07259
G1 X57.716 Y61.669 E35.09022
G1 X58.777 Y61.571 E35.13275
G1 X59.548 Y61.55 E35.16353
G1 X160.219 Y61.55 E39.18153
G1 X161.284 Y61.59 E39.22406
G1 X162.072 Y61.671 E39.25568
G1 X162.505 Y61.728 E39.27311
G1 X163.556 Y61.907 E39.31566
G1 X164.59 Y62.164 E39.35819
G1 X166.012 Y62.657 E39.41826
G1 X166.434 Y62.829 E39.43644
G1 X167.405 Y63.268 E39.47898
G1 X168.34 Y63.779 E39.5215
G1 X169.629 Y64.646 E39.5835
G1 X169.988 Y64.917 E39.60146
G1 X170.814 Y65.59 E39.64398
G1 X171.587 Y66.324 E39.68653
G1 X172.618 Y67.502 E39.74901
G1 X172.898 Y67.86 E39.76715
G1 X173.523 Y68.723 E39.80968
G1 X174.081 Y69.631 E39.85221
G1 X174.755 Y70.991 E39.91279
G1 X174.932 Y71.402 E39.93065
G1 X175.316 Y72.396 E39.97318
G1 X175.625 Y73.416 E40.01572
G1 X175.937 Y74.938 E40.07773
G1 X176.001 Y75.37 E40.09516
G1 X176.117 Y76.429 E40.13768
G1 X176.152 Y77.199 E40.16844
G1 X176.726 Y109.498 E41.45777
G1 X176.726 Y110.002 E41.47789
G1 X176.144 Y142.798 E42.78705
G1 X176.085 Y143.862 E42.82958
G1 X175.985 Y144.676 E42.86232
G1 X175.919 Y145.111 E42.87988
G1 X175.72 Y146.158 E42.92241
G1 X175.443 Y147.187 E42.96495
G1 X174.934 Y148.571 E43.0238
G1 X174.758 Y148.982 E43.04165
G1 X174.302 Y149.945 E43.08417
G1 X173.775 Y150.871 E43.1267
G1 X172.889 Y152.14 E43.18847
G1 X172.609 Y152.498 E43.20661
G1 X171.922 Y153.312 E43.24912
G1 X171.175 Y154.073 E43.29168
G1 X169.979 Y155.083 E43.35416
G1 X169.62 Y155.354 E43.37211
G1 X168.746 Y155.964 E43.41465
G1 X167.829 Y156.507 E43.45719
G1 X166.425 Y157.171 E43.51918
G1 X166.003 Y157.343 E43.53736
G1 X165.001 Y157.708 E43.57993
G1 X163.976 Y157.996 E43.62242
G1 X162.496 Y158.272 E43.68251
G1 X162.063 Y158.329 E43.69994
G1 X161.002 Y158.428 E43.74247
G1 X160.21 Y158.45 E43.77409
G1 X59.554 Y158.45 E47.79149
G1 X58.489 Y158.41 E47.83403
G1 X57.757 Y158.336 E47.86339
G1 X57.318 Y158.28 E47.88106
G1 X56.267 Y158.105 E47.92358
G1 X55.232 Y157.853 E47.9661
G1 X54.218 Y157.523 E48.00866
G1 X53.685 Y157.315 E48.03149
G1 X53.267 Y157.142 E48.04955
G1 X52.298 Y156.697 E48.09211
G1 X51.365 Y156.182 E48.13464
G1 X50.072 Y155.302 E48.19707
G1 X49.711 Y155.026 E48.2152
G1 X48.89 Y154.347 E48.25773
G1 X48.121 Y153.609 E48.30027
G1 X47.127 Y152.463 E48.36081
G1 X46.847 Y152.103 E48.37902
G1 X46.225 Y151.238 E48.42154
G1 X45.669 Y150.328 E48.4641
G1 X44.983 Y148.929 E48.52629
G1 X44.807 Y148.514 E48.54428
G1 X44.428 Y147.518 E48.58682
G1 X44.125 Y146.497 E48.62932
G1 X43.823 Y144.983 E48.69094
G1 X43.761 Y144.55 E48.7084
G1 X43.65 Y143.49 E48.75094
G1 X43.619 Y142.687 E48.78301
G1 X43.273 Y109.9 E50.09168
G1 X43.273 Y109.6 E50.10366
G1 X43.614 Y77.317 E51.39221
G1 X43.665 Y76.253 E51.43473
G1 X43.754 Y75.472 E51.4661
G1 X43.816 Y75.035 E51.48372
G1 X44.005 Y73.987 E51.52622
G1 X44.272 Y72.955 E51.56876
G1 X44.802 Y71.486 E51.6311
G1 X44.978 Y71.071 E51.64909
G1 X45.431 Y70.106 E51.69163
G1 X45.954 Y69.178 E51.73415
G1 X46.812 Y67.936 E51.7944
G1 X47.09 Y67.576 E51.81255
G1 X47.773 Y66.758 E51.85509
G1 X48.514 Y65.993 E51.89759
G1 X49.312 Y65.286 E51.94015
G1 X49.749 Y64.94 E51.96239
G0 F6000 X49.991 Y65.259
G1 F900 X50.355 Y64.983 E51.98062
G1 X51.216 Y64.38 E52.02258
G1 X52.12 Y63.845 E52.0645
G1 X53.431 Y63.222 E52.12244
G1 X53.848 Y63.05 E52.14044
G1 X54.834 Y62.686 E52.18239
G1 X55.844 Y62.399 E52.2243
G1 X57.329 Y62.122 E52.28459
G1 X57.767 Y62.065 E52.30222
G1 X58.813 Y61.97 E52.34414
G1 X59.548 Y61.95 E52.37348
G1 X160.219 Y61.95 E56.39148
G1 X161.269 Y61.99 E56.43342
G1 X162.02 Y62.068 E56.46355
G1 X162.453 Y62.125 E56.48099
G1 X163.489 Y62.302 E56.52293
G1 X164.508 Y62.557 E56.56486
G1 X165.861 Y63.028 E56.62204
G1 X166.283 Y63.2 E56.64023
G1 X167.24 Y63.633 E56.68215
G1 X168.161 Y64.138 E56.72407
G1 X169.388 Y64.965 E56.78313
G1 X169.747 Y65.236 E56.80108
G1 X170.561 Y65.9 E56.84301
G1 X171.322 Y66.625 E56.88496
G1 X172.303 Y67.748 E56.94447
G1 X172.583 Y68.106 E56.96261
G1 X173.198 Y68.958 E57.00455
G1 X173.747 Y69.854 E57.04649
G1 X174.388 Y71.15 E57.1042
G1 X174.565 Y71.561 E57.12206
G1 X174.943 Y72.541 E57.16398
G1 X175.246 Y73.546 E57.20588
G1 X175.541 Y74.997 E57.26498
G1 X175.605 Y75.429 E57.28241
G1 X175.719 Y76.473 E57.32432
G1 X175.752 Y77.206 E57.35361
G1 X176.326 Y109.505 E58.64293
G1 X176.326 Y109.995 E58.66249
G1 X175.744 Y142.791 E59.97166
G1 X175.685 Y143.84 E60.01359
G1 X175.59 Y144.616 E60.04479
G1 X175.524 Y145.051 E60.06235
G1 X175.327 Y146.083 E60.10429
G1 X175.052 Y147.097 E60.14622
G1 X174.566 Y148.413 E60.20221
G1 X174.39 Y148.824 E60.22006
G1 X173.94 Y149.774 E60.26201
G1 X173.419 Y150.686 E60.30393
G1 X172.574 Y151.894 E60.36277
G1 X172.294 Y152.252 E60.38091
G1 X171.616 Y153.054 E60.42283
G1 X170.879 Y153.802 E60.46474
G1 X169.738 Y154.764 E60.5243
G1 X169.379 Y155.035 E60.54225
G1 X168.517 Y155.636 E60.5842
G1 X167.612 Y156.169 E60.62611
G1 X166.274 Y156.8 E60.68516
G1 X165.852 Y156.972 E60.70335
G1 X164.864 Y157.331 E60.7453
G1 X163.853 Y157.615 E60.78721
G1 X162.444 Y157.875 E60.8444
G1 X162.011 Y157.932 E60.86183
G1 X160.965 Y158.029 E60.90376
G1 X160.21 Y158.05 E60.9339
G1 X59.554 Y158.05 E64.9513
G1 X58.504 Y158.01 E64.99324
G1 X57.808 Y157.939 E65.02116
G1 X57.369 Y157.883 E65.03883
G1 X56.333 Y157.711 E65.08074
G1 X55.312 Y157.46 E65.12271
G1 X53.838 Y156.945 E65.18502
G1 X53.42 Y156.772 E65.20308
G1 X52.465 Y156.334 E65.24501
G1 X51.546 Y155.824 E65.28696
G1 X50.315 Y154.984 E65.34644
G1 X49.954 Y154.708 E65.36458
G1 X49.145 Y154.039 E65.40648
G1 X48.388 Y153.31 E65.44842
G1 X47.443 Y152.217 E65.50609
G1 X47.163 Y151.857 E65.5243
G1 X46.55 Y151.004 E65.56622
G1 X46.004 Y150.107 E65.60813
G1 X45.351 Y148.773 E65.66741
G1 X45.175 Y148.358 E65.6854
G1 X44.802 Y147.376 E65.72733
G1 X44.505 Y146.368 E65.76927
G1 X44.219 Y144.926 E65.82794
G1 X44.157 Y144.493 E65.8454
G1 X44.048 Y143.448 E65.88734
G1 X44.019 Y142.683 E65.91789
G1 X43.673 Y109.896 E67.22657
G1 X43.673 Y109.604 E67.23822
G1 X44.014 Y77.321 E68.52678
G1 X44.065 Y76.272 E68.56869
G1 X44.15 Y75.529 E68.59854
G1 X44.212 Y75.092 E68.61616
G1 X44.399 Y74.058 E68.6581
G1 X44.664 Y73.041 E68.70004
G1 X45.17 Y71.642 E68.75942
G1 X45.346 Y71.227 E68.77741
G1 X45.793 Y70.276 E68.81935
G1 X46.311 Y69.362 E68.86128
G1 X47.129 Y68.18 E68.91865
G1 X47.407 Y67.82 E68.93681
G1 X48.08 Y67.014 E68.97872
G1 X48.813 Y66.261 E69.02066
G1 X49.991 Y65.259 E69.08238
G0 F6000 X50.233 Y65.577
G1 F900 X50.597 Y65.301 E69.10061
G1 X51.445 Y64.708 E69.14191
G1 X52.337 Y64.182 E69.18325
G1 X53.583 Y63.591 E69.23829
G1 X54 Y63.419 E69.25629
G1 X54.972 Y63.062 E69.29762
G1 X55.968 Y62.781 E69.33892
G1 X57.381 Y62.519 E69.39628
G1 X57.819 Y62.462 E69.41391
G1 X58.85 Y62.368 E69.45523
G1 X59.548 Y62.35 E69.4831
G1 X160.219 Y62.35 E73.50109
G1 X161.253 Y62.39 E73.54239
G1 X161.968 Y62.465 E73.57109
G1 X162.401 Y62.522 E73.58852
G1 X163.421 Y62.696 E73.62982
G1 X164.425 Y62.949 E73.67114
G1 X165.71 Y63.398 E73.72547
G1 X166.132 Y63.57 E73.74366
G1 X167.074 Y63.998 E73.78495
G1 X167.981 Y64.497 E73.82627
G1 X169.147 Y65.284 E73.88242
G1 X169.506 Y65.555 E73.90037
G1 X170.308 Y66.21 E73.9417
G1 X171.056 Y66.925 E73.983
G1 X171.988 Y67.995 E74.03963
