;FLAVOR:Marlin
;TIME:7048
;Filament used: 4.93607m
;Layer height: 0.2
;MINX:42.423
;MINY:60.7
;MINZ:0.2
;MAXX:177.576
;MAXY:159.3
;MAXZ:1.6
;Generated with Cura_SteamEngine 4.9.1
M140 S70
M105
M190 S70
M104 S200
M105
M109 S200
M82 ;absolute extrusion mode
; Ender 3 Custom Start G-code
G92 E0 ; Reset Extruder
G28 ; Home all axes
G1 Z2.0 F3000 ; Move Z Axis up little to prevent scratching of Heat Bed
G1 X0.1 Y20 Z0.3 F5000.0 ; Move to start position
G1 X0.1 Y200.0 Z0.3 F1500.0 E15 ; Draw the first line
G1 X0.4 Y200.0 Z0.3 F5000.0 ; Move to side a little
G1 X0.4 Y20 Z0.3 F1500.0 E30 ; Draw the second line
G92 E0 ; Reset Extruder
G1 Z2.0 F3000 ; Move Z Axis up little to prevent scratching of Heat Bed
G1 X5 Y20 Z0.3 F5000.0 ; Move over to prevent blob squish
G92 E0
G92 E0
G1 F1500 E-8
;LAYER_COUNT:8
;LAYER:0
M107
G0 F6000 X49.197 Y64.293 Z0.2
;TYPE:SKIRT
G1 F1500 E0
G1 F900 X49.568 Y64.01 E0.01862
G1 X50.462 Y63.378 E0.06232
G1 X51.4 Y62.813 E0.10603
G1 X52.377 Y62.317 E0.14976
G1 X53.023 Y62.038 E0.17784
G1 X53.459 Y61.861 E0.19662
G1 X54.488 Y61.486 E0.24033
G1 X55.542 Y61.187 E0.28406
G1 X57.125 Y60.89 E0.34835
G1 X57.569 Y60.831 E0.36622
G1 X58.659 Y60.726 E0.40993
G1 X59.545 Y60.7 E0.44531
G1 X160.222 Y60.7 E4.46354
G1 X161.317 Y60.74 E4.50728
G1 X162.202 Y60.831 E4.54278
G1 X162.645 Y60.89 E4.56062
G1 X163.725 Y61.074 E4.60435
G1 X164.788 Y61.337 E4.64805
G1 X166.302 Y61.859 E4.71197
G1 X166.736 Y62.035 E4.73066
G1 X167.735 Y62.483 E4.77436
G1 X168.699 Y63.003 E4.81808
G1 X169.623 Y63.592 E4.86181
G1 X170.146 Y63.97 E4.88757
G1 X170.515 Y64.249 E4.90603
G1 X171.364 Y64.941 E4.94975
G1 X172.16 Y65.693 E4.99345
G1 X172.899 Y66.501 E5.03715
G1 X173.293 Y66.985 E5.06206
G1 X173.581 Y67.354 E5.08075
G1 X174.223 Y68.241 E5.12445
G1 X174.798 Y69.173 E5.16816
G1 X175.53 Y70.643 E5.2337
G1 X175.712 Y71.065 E5.25204
G1 X176.108 Y72.086 E5.29575
G1 X176.43 Y73.133 E5.33947
G1 X176.673 Y74.2 E5.38314
G1 X176.774 Y74.79 E5.40704
G1 X176.84 Y75.232 E5.42487
G1 X176.962 Y76.32 E5.46857
G1 X177.002 Y77.181 E5.50297
G1 X177.576 Y109.484 E6.79246
G1 X177.576 Y110.016 E6.81369
G1 X176.994 Y142.816 E8.12301
G1 X176.934 Y143.91 E8.16674
G1 X176.829 Y144.783 E8.20184
G1 X176.762 Y145.228 E8.2198
G1 X176.559 Y146.305 E8.26354
G1 X176.279 Y147.363 E8.30722
G1 X175.922 Y148.399 E8.35096
G1 X175.703 Y148.935 E8.37407
G1 X175.521 Y149.357 E8.39241
G1 X175.05 Y150.346 E8.43613
G1 X174.509 Y151.299 E8.47987
G1 X173.572 Y152.646 E8.54536
G1 X173.284 Y153.015 E8.56404
G1 X172.579 Y153.853 E8.60775
G1 X171.815 Y154.638 E8.65147
G1 X170.995 Y155.365 E8.69521
G1 X170.506 Y155.751 E8.72007
G1 X170.137 Y156.03 E8.73854
G1 X169.239 Y156.658 E8.78227
G1 X168.299 Y157.219 E8.82596
G1 X167.32 Y157.71 E8.86968
G1 X166.727 Y157.965 E8.89544
G1 X166.293 Y158.141 E8.91413
G1 X165.264 Y158.516 E8.95784
G1 X164.21 Y158.814 E9.00156
G1 X162.636 Y159.11 E9.06548
G1 X162.193 Y159.169 E9.08332
G1 X161.103 Y159.274 E9.12703
G1 X160.213 Y159.3 E9.16256
G1 X59.551 Y159.3 E13.1802
G1 X58.456 Y159.26 E13.22393
G1 X57.597 Y159.172 E13.2584
G1 X57.148 Y159.113 E13.27647
G1 X56.068 Y158.931 E13.32019
G1 X55.004 Y158.67 E13.36391
G1 X53.962 Y158.333 E13.40762
G1 X53.392 Y158.112 E13.43202
G1 X52.962 Y157.935 E13.45058
G1 X51.965 Y157.481 E13.4943
G1 X51.004 Y156.956 E13.53801
G1 X50.084 Y156.362 E13.58172
G1 X49.59 Y156.002 E13.60611
G1 X49.218 Y155.719 E13.62477
G1 X48.371 Y155.025 E13.66847
G1 X47.577 Y154.27 E13.7122
G1 X46.84 Y153.46 E13.75591
G1 X46.451 Y152.979 E13.7806
G1 X46.163 Y152.608 E13.79935
G1 X45.524 Y151.719 E13.84304
G1 X44.951 Y150.786 E13.88674
G1 X44.447 Y149.813 E13.93048
G1 X44.206 Y149.276 E13.95397
G1 X44.025 Y148.85 E13.97245
G1 X43.634 Y147.827 E14.01616
G1 X43.319 Y146.778 E14.05987
G1 X43.081 Y145.709 E14.10358
G1 X42.98 Y145.091 E14.12857
G1 X42.917 Y144.647 E14.14647
G1 X42.803 Y143.558 E14.19017
G1 X42.769 Y142.698 E14.22453
G1 X42.423 Y109.908 E15.53332
G1 X42.423 Y109.592 E15.54593
G1 X42.764 Y77.305 E16.83465
G1 X42.815 Y76.211 E16.87836
G1 X42.91 Y75.37 E16.91214
G1 X42.973 Y74.923 E16.93015
G1 X43.165 Y73.844 E16.9739
G1 X43.436 Y72.783 E17.0176
G1 X43.783 Y71.744 E17.06132
G1 X44.02 Y71.15 E17.08685
G1 X44.201 Y70.724 E17.10532
G1 X44.666 Y69.733 E17.14901
G1 X45.202 Y68.777 E17.19276
G1 X45.806 Y67.864 E17.23645
G1 X46.143 Y67.412 E17.25895
G1 X46.43 Y67.041 E17.27767
G1 X47.131 Y66.2 E17.32137
G1 X47.892 Y65.412 E17.36509
G1 X48.708 Y64.682 E17.40879
G1 X49.197 Y64.293 E17.43373
G0 F6000 X49.439 Y64.611
G1 F900 X49.81 Y64.328 E17.45235
G1 X50.693 Y63.705 E17.49549
G1 X51.619 Y63.149 E17.53859
G1 X52.584 Y62.662 E17.58174
G1 X53.173 Y62.408 E17.60734
G1 X53.609 Y62.231 E17.62612
G1 X54.625 Y61.862 E17.66926
G1 X55.665 Y61.569 E17.71239
G1 X57.178 Y61.286 E17.77382
G1 X57.622 Y61.227 E17.7917
G1 X58.697 Y61.125 E17.8348
G1 X59.545 Y61.1 E17.86866
G1 X160.222 Y61.1 E21.88689
G1 X161.302 Y61.14 E21.93003
G1 X162.149 Y61.228 E21.96401
G1 X162.592 Y61.287 E21.98185
G1 X163.658 Y61.469 E22.02501
G1 X164.706 Y61.729 E22.06811
G1 X166.152 Y62.229 E22.12918
G1 X166.586 Y62.405 E22.14787
G1 X167.571 Y62.848 E22.19097
G1 X168.522 Y63.363 E22.23414
G1 X169.431 Y63.946 E22.27724
G1 X169.904 Y64.289 E22.30056
G1 X170.273 Y64.568 E22.31902
G1 X171.111 Y65.251 E22.36217
G1 X171.895 Y65.995 E22.40531
G1 X172.622 Y66.794 E22.44842
G1 X172.977 Y67.231 E22.4709
G1 X173.265 Y67.6 E22.48958
G1 X173.898 Y68.476 E22.53271
G1 X174.465 Y69.396 E22.57585
G1 X175.162 Y70.801 E22.63844
G1 X175.344 Y71.223 E22.65679
G1 X175.735 Y72.23 E22.6999
G1 X176.051 Y73.264 E22.74305
G1 X176.378 Y74.849 E22.80765
G1 X176.444 Y75.291 E22.82548
G1 X176.564 Y76.365 E22.86862
G1 X176.602 Y77.188 E22.9015
G1 X177.176 Y109.491 E24.19099
G1 X177.176 Y110.009 E24.21166
G1 X176.594 Y142.809 E25.52099
G1 X176.535 Y143.888 E25.56411
G1 X176.433 Y144.724 E25.59773
G1 X176.366 Y145.169 E25.61569
G1 X176.166 Y146.231 E25.65882
G1 X175.888 Y147.275 E25.70194
G1 X175.335 Y148.777 E25.76582
G1 X175.153 Y149.199 E25.78417
G1 X174.689 Y150.175 E25.8273
G1 X174.154 Y151.113 E25.8704
G1 X173.256 Y152.4 E25.93303
G1 X172.968 Y152.769 E25.95172
G1 X172.273 Y153.596 E25.99483
G1 X171.517 Y154.368 E26.03796
G1 X170.707 Y155.083 E26.08108
G1 X170.264 Y155.432 E26.10359
G1 X169.895 Y155.711 E26.12205
G1 X169.01 Y156.33 E26.16516
G1 X168.081 Y156.882 E26.20829
G1 X167.114 Y157.364 E26.25141
G1 X166.577 Y157.595 E26.27474
G1 X166.143 Y157.771 E26.29343
G1 X165.127 Y158.14 E26.33658
G1 X164.087 Y158.432 E26.37969
G1 X162.583 Y158.713 E26.44076
G1 X162.14 Y158.772 E26.45859
G1 X161.065 Y158.875 E26.5017
G1 X160.213 Y158.9 E26.53572
G1 X59.551 Y158.9 E30.55335
G1 X58.471 Y158.86 E30.59649
G1 X57.649 Y158.776 E30.62947
G1 X57.2 Y158.717 E30.64754
G1 X56.134 Y158.536 E30.6907
G1 X55.085 Y158.278 E30.73381
G1 X54.058 Y157.942 E30.77694
G1 X53.545 Y157.742 E30.79892
G1 X53.115 Y157.565 E30.81748
G1 X52.131 Y157.117 E30.86063
G1 X51.184 Y156.597 E30.90375
G1 X50.277 Y156.009 E30.94689
G1 X49.832 Y155.684 E30.96888
G1 X49.46 Y155.401 E30.98754
G1 X48.625 Y154.715 E31.03067
G1 X47.843 Y153.97 E31.07378
G1 X47.118 Y153.168 E31.11693
G1 X46.767 Y152.734 E31.13921
G1 X46.479 Y152.363 E31.15795
G1 X45.849 Y151.485 E31.20108
G1 X45.285 Y150.564 E31.24419
G1 X44.575 Y149.119 E31.30844
G1 X44.394 Y148.693 E31.32692
G1 X44.008 Y147.684 E31.37004
G1 X43.698 Y146.649 E31.41316
G1 X43.466 Y145.593 E31.45631
G1 X43.376 Y145.035 E31.47887
G1 X43.313 Y144.591 E31.49677
G1 X43.201 Y143.516 E31.53991
G1 X43.169 Y142.694 E31.57274
G1 X42.823 Y109.904 E32.88153
G1 X42.823 Y109.596 E32.89382
G1 X43.164 Y77.309 E34.18254
G1 X43.215 Y76.229 E34.22569
G1 X43.306 Y75.425 E34.25799
G1 X43.369 Y74.978 E34.276
G1 X43.559 Y73.915 E34.3191
G1 X43.828 Y72.868 E34.36225
G1 X44.173 Y71.844 E34.40538
G1 X44.389 Y71.307 E34.42848
G1 X44.57 Y70.881 E34.44695
G1 X45.029 Y69.902 E34.49011
G1 X45.559 Y68.961 E34.53321
G1 X46.459 Y67.657 E34.59645
G1 X46.746 Y67.286 E34.61517
G1 X47.438 Y66.456 E34.6583
G1 X48.19 Y65.68 E34.70143
G1 X48.997 Y64.961 E34.74457
G1 X49.439 Y64.611 E34.76707
G0 F6000 X49.682 Y64.929
G1 F900 X50.053 Y64.646 E34.78569
G1 X50.924 Y64.032 E34.82823
G1 X51.838 Y63.485 E34.87074
G1 X52.791 Y63.008 E34.91328
G1 X53.324 Y62.779 E34.93643
G1 X53.76 Y62.602 E34.95521
G1 X54.761 Y62.238 E34.99772
G1 X55.788 Y61.951 E35.04028
G1 X57.231 Y61.683 E35.09886
G1 X57.675 Y61.624 E35.11674
G1 X58.735 Y61.523 E35.15923
G1 X59.545 Y61.5 E35.19158
G1 X160.222 Y61.5 E39.20981
G1 X161.287 Y61.54 E39.25235
G1 X162.097 Y61.624 E39.28485
G1 X162.54 Y61.683 E39.30269
G1 X163.59 Y61.864 E39.34522
G1 X164.624 Y62.122 E39.38775
G1 X166.001 Y62.6 E39.44593
G1 X166.435 Y62.776 E39.46462
G1 X167.407 Y63.213 E39.50715
G1 X168.344 Y63.722 E39.54971
G1 X169.663 Y64.608 E39.61313
G1 X170.032 Y64.887 E39.63159
G1 X170.857 Y65.561 E39.67411
G1 X171.63 Y66.296 E39.71669
G1 X172.662 Y67.477 E39.77928
G1 X172.95 Y67.846 E39.79797
G1 X173.574 Y68.71 E39.8405
G1 X174.131 Y69.619 E39.88305
G1 X174.795 Y70.96 E39.94278
G1 X174.977 Y71.382 E39.96112
G1 X175.362 Y72.375 E40.00363
G1 X175.671 Y73.395 E40.04616
G1 X175.982 Y74.908 E40.10781
G1 X176.048 Y75.35 E40.12565
G1 X176.166 Y76.409 E40.16818
G1 X176.202 Y77.195 E40.19958
G1 X176.776 Y109.498 E41.48907
G1 X176.776 Y110.002 E41.50918
G1 X176.194 Y142.802 E42.81851
G1 X176.135 Y143.866 E42.86104
G1 X176.038 Y144.664 E42.89313
G1 X175.971 Y145.109 E42.91109
G1 X175.773 Y146.156 E42.95362
G1 X175.497 Y147.185 E42.99614
G1 X174.968 Y148.618 E43.0571
G1 X174.786 Y149.04 E43.07545
G1 X174.328 Y150.002 E43.11797
G1 X173.798 Y150.927 E43.16052
G1 X172.941 Y152.154 E43.22025
G1 X172.653 Y152.523 E43.23894
G1 X171.966 Y153.338 E43.28148
G1 X171.22 Y154.099 E43.32401
G1 X170.023 Y155.113 E43.38663
G1 X169.654 Y155.392 E43.40509
G1 X168.781 Y156.002 E43.4476
G1 X167.864 Y156.545 E43.49013
G1 X166.426 Y157.224 E43.5536
G1 X165.992 Y157.4 E43.57229
G1 X164.991 Y157.763 E43.61479
G1 X163.964 Y158.05 E43.65735
G1 X162.531 Y158.317 E43.71553
G1 X162.088 Y158.376 E43.73337
G1 X161.027 Y158.477 E43.77591
G1 X160.213 Y158.5 E43.80841
G1 X59.551 Y158.5 E47.82604
G1 X58.486 Y158.46 E47.86858
G1 X57.701 Y158.379 E47.90008
G1 X57.252 Y158.32 E47.91815
G1 X56.201 Y158.142 E47.9607
G1 X55.167 Y157.885 E48.00322
G1 X53.697 Y157.372 E48.06536
G1 X53.267 Y157.195 E48.08392
G1 X52.297 Y156.753 E48.12647
G1 X51.364 Y156.239 E48.16898
G1 X50.074 Y155.365 E48.23117
G1 X49.702 Y155.082 E48.24983
G1 X48.879 Y154.406 E48.29234
G1 X48.109 Y153.669 E48.33488
G1 X47.083 Y152.488 E48.39732
G1 X46.795 Y152.117 E48.41606
G1 X46.174 Y151.252 E48.45856
G1 X45.619 Y150.342 E48.50111
G1 X44.943 Y148.963 E48.5624
G1 X44.762 Y148.537 E48.58088
G1 X44.382 Y147.541 E48.62342
G1 X44.078 Y146.52 E48.66594
G1 X43.772 Y144.979 E48.72865
G1 X43.709 Y144.535 E48.74654
G1 X43.599 Y143.475 E48.78908
G1 X43.569 Y142.69 E48.82043
G1 X43.223 Y109.9 E50.12923
G1 X43.223 Y109.6 E50.1412
G1 X43.564 Y77.313 E51.42991
G1 X43.615 Y76.249 E51.47243
G1 X43.702 Y75.481 E51.50328
G1 X43.765 Y75.034 E51.5213
G1 X43.953 Y73.985 E51.56383
G1 X44.22 Y72.954 E51.60634
G1 X44.757 Y71.463 E51.66959
G1 X44.938 Y71.037 E51.68806
G1 X45.391 Y70.073 E51.73057
G1 X45.915 Y69.145 E51.77311
G1 X46.775 Y67.901 E51.83347
G1 X47.062 Y67.53 E51.85219
G1 X47.746 Y66.713 E51.89472
G1 X48.488 Y65.948 E51.93725
G1 X49.682 Y64.929 E51.9999
G0 F6000 X49.924 Y65.247
G1 F900 X50.295 Y64.964 E52.01853
G1 X51.154 Y64.359 E52.06046
G1 X52.057 Y63.821 E52.10241
G1 X53.474 Y63.149 E52.16501
G1 X53.91 Y62.972 E52.18379
G1 X54.898 Y62.615 E52.22572
G1 X55.91 Y62.333 E52.26765
G1 X57.283 Y62.079 E52.32338
G1 X57.727 Y62.02 E52.34125
G1 X58.773 Y61.922 E52.38318
G1 X59.545 Y61.9 E52.41401
G1 X160.222 Y61.9 E56.43225
G1 X161.272 Y61.94 E56.47418
G1 X162.044 Y62.021 E56.50517
G1 X162.487 Y62.08 E56.523
G1 X163.522 Y62.258 E56.56492
G1 X164.541 Y62.514 E56.60685
G1 X165.851 Y62.971 E56.66223
G1 X166.285 Y63.147 E56.68092
G1 X167.243 Y63.578 E56.72285
G1 X168.165 Y64.081 E56.76477
G1 X169.422 Y64.927 E56.82524
G1 X169.791 Y65.206 E56.8437
G1 X170.604 Y65.871 E56.88562
G1 X171.364 Y66.596 E56.92755
G1 X172.347 Y67.723 E56.98723
G1 X172.635 Y68.092 E57.00592
G1 X173.249 Y68.944 E57.04783
G1 X173.797 Y69.841 E57.08978
G1 X174.428 Y71.118 E57.14664
G1 X174.61 Y71.54 E57.16498
G1 X174.989 Y72.52 E57.20691
G1 X175.292 Y73.525 E57.24881
G1 X175.587 Y74.967 E57.30756
G1 X175.653 Y75.409 E57.32539
G1 X175.768 Y76.453 E57.36731
G1 X175.802 Y77.202 E57.39724
G1 X176.376 Y109.505 E58.68672
G1 X176.376 Y109.995 E58.70628
G1 X175.794 Y142.795 E60.01561
G1 X175.735 Y143.844 E60.05754
G1 X175.642 Y144.605 E60.08814
G1 X175.575 Y145.05 E60.1061
G1 X175.379 Y146.082 E60.14803
G1 X175.106 Y147.096 E60.18994
G1 X174.601 Y148.46 E60.24799
G1 X174.419 Y148.882 E60.26633
G1 X173.966 Y149.83 E60.30827
G1 X173.443 Y150.741 E60.35019
G1 X172.626 Y151.908 E60.40705
G1 X172.338 Y152.277 E60.42573
G1 X171.66 Y153.08 E60.46768
G1 X170.924 Y153.829 E60.50959
G1 X169.782 Y154.794 E60.56926
G1 X169.413 Y155.073 E60.58773
G1 X168.551 Y155.674 E60.62967
G1 X167.647 Y156.208 E60.67157
G1 X166.276 Y156.853 E60.73204
G1 X165.842 Y157.029 E60.75074
G1 X164.854 Y157.387 E60.79268
G1 X163.842 Y157.668 E60.8346
G1 X162.478 Y157.92 E60.88996
G1 X162.035 Y157.979 E60.9078
G1 X160.989 Y158.078 E60.94973
G1 X160.213 Y158.1 E60.98072
G1 X59.551 Y158.1 E64.99835
G1 X58.501 Y158.06 E65.04029
G1 X57.753 Y157.982 E65.07031
G1 X57.304 Y157.923 E65.08838
G1 X56.268 Y157.747 E65.13032
G1 X55.249 Y157.492 E65.17225
G1 X53.849 Y157.002 E65.23145
G1 X53.419 Y156.825 E65.25001
G1 X52.464 Y156.389 E65.29191
G1 X51.544 Y155.881 E65.33385
G1 X50.317 Y155.047 E65.39307
G1 X49.945 Y154.764 E65.41172
G1 X49.133 Y154.097 E65.45366
G1 X48.375 Y153.369 E65.49561
G1 X47.399 Y152.243 E65.55508
G1 X47.111 Y151.872 E65.57383
G1 X46.499 Y151.018 E65.61576
G1 X45.953 Y150.121 E65.65768
G1 X45.311 Y148.806 E65.71608
G1 X45.13 Y148.38 E65.73455
G1 X44.756 Y147.399 E65.77646
G1 X44.458 Y146.391 E65.81841
G1 X44.168 Y144.923 E65.87813
G1 X44.105 Y144.479 E65.89603
G1 X43.997 Y143.434 E65.93796
G1 X43.969 Y142.686 E65.96784
G1 X43.623 Y109.896 E67.27663
G1 X43.623 Y109.604 E67.28828
G1 X43.964 Y77.317 E68.577
G1 X44.015 Y76.268 E68.61892
G1 X44.098 Y75.537 E68.64828
G1 X44.161 Y75.09 E68.6663
G1 X44.347 Y74.056 E68.70823
G1 X44.611 Y73.039 E68.75017
G1 X45.125 Y71.62 E68.8104
G1 X45.306 Y71.194 E68.82888
G1 X45.753 Y70.243 E68.87082
G1 X46.272 Y69.329 E68.91277
G1 X47.092 Y68.146 E68.97022
G1 X47.379 Y67.775 E68.98894
G1 X48.053 Y66.969 E69.03087
G1 X48.786 Y66.217 E69.07279
G1 X49.924 Y65.247 E69.13247
G0 F6000 X50.167 Y65.565
G1 F900 X50.538 Y65.282 E69.15109
G1 X51.385 Y64.686 E69.19243
G1 X52.275 Y64.158 E69.23373
G1 X53.625 Y63.52 E69.29332
G1 X54.061 Y63.343 E69.31211
G1 X55.034 Y62.991 E69.3534
G1 X56.032 Y62.715 E69.39473
G1 X57.336 Y62.476 E69.44764
G1 X57.78 Y62.417 E69.46552
G1 X58.811 Y62.32 E69.50685
G1 X59.545 Y62.3 E69.53616
G1 X160.222 Y62.3 E73.55439
G1 X161.256 Y62.34 E73.59569
G1 X161.991 Y62.417 E73.62519
G1 X162.434 Y62.476 E73.64303
G1 X163.454 Y62.652 E73.68434
G1 X164.458 Y62.907 E73.72568
G1 X165.701 Y63.341 E73.77823
G1 X166.135 Y63.517 E73.79692
G1 X167.078 Y63.943 E73.83822
G1 X167.986 Y64.44 E73.87954
G1 X169.181 Y65.246 E73.93707
G1 X169.55 Y65.525 E73.95553
G1 X170.351 Y66.181 E73.99685
G1 X171.099 Y66.897 E74.03818
G1 X172.031 Y67.969 E74.09487
G1 X172.319 Y68.338 E74.11356
G1 X172.924 Y69.178 E74.15487
G1 X173.463 Y70.063 E74.19623
G1 X174.06 Y71.276 E74.25019
G1 X174.242 Y71.698 E74.26853
G1 X174.615 Y72.664 E74.30986
