;FLAVOR:Marlin
;TIME:3310
;Filament used: 1.77238m
;Layer height: 0.1
;MINX:84.75
;MINY:84.75
;MINZ:0.1
;MAXX:135.25
;MAXY:135.25
;MAXZ:20
;TARGET_MACHINE.NAME:Creality Ender-3 Pro
;Generated with Cura_SteamEngine 5.7.0
M82 ;absolute extrusion mode
; Ender 3 Custom Start G-code
G92 E0 ; Reset Extruder
G28 ; Home all axes
G1 Z5.0 F3000 ; Move Z Axis up a bit during heating to not damage bed
M104 S175.0 ; Start heating up the nozzle most of the way
M190 S80.0 ; Start heating the bed, wait until target temperature reached
M109 S210.0 ; Finish heating the nozzle
G1 Z2.0 F3000 ; Move Z Axis up little to prevent scratching of Heat Bed
G1 X0.1 Y20 Z0.3 F5000.0 ; Move to start position
G1 X0.1 Y200.0 Z0.3 F1500.0 E15 ; Draw the first line
G1 X0.4 Y200.0 Z0.3 F5000.0 ; Move to side a little
G1 X0.4 Y20 Z0.3 F1500.0 E30 ; Draw the second line
G92 E0 ; Reset Extruder
G1 Z2.0 F3000 ; Move Z Axis up little to prevent scratching of Heat Bed
G1 X5 Y20 Z0.3 F5000.0 ; Move over to prevent blob squish
G92 E0
G92 E0
G1 F1500 E-6.5
;LAYER_COUNT:200
;LAYER:0
M107
G0 F6000 X89.479 Y88.773 Z0.1
;TYPE:SKIRT
G1 F1500 E0
G1 F1200 X92.852 Y86.447 E0.10221
G1 X95.12 Y85.458 E0.16393
G1 X98.453 Y84.75 E0.24892
G1 X121.553 Y84.84 E0.82516
G1 X124.37 Y85.205 E0.89602
G1 X127.621 Y86.817 E0.98654
G1 X128.905 Y87.652 E1.02474
G1 X131.349 Y89.604 E1.10277
G1 X133.399 Y92.679 E1.19496
G1 X134.435 Y94.639 E1.25026
G1 X135.25 Y98.431 E1.34701
G1 X135.096 Y121.93 E1.93321
G1 X134.636 Y124.434 E1.99672
G1 X134.062 Y126.212 E2.04332
G1 X132.316 Y128.942 E2.12416
G1 X130.521 Y131.227 E2.19664
G1 X127.138 Y133.558 E2.29913
G1 X124.899 Y134.537 E2.36008
G1 X121.52 Y135.25 E2.44623
G1 X98.07 Y135.096 E3.0312
G1 X95.566 Y134.636 E3.09471
G1 X93.788 Y134.062 E3.14132
G1 X91.058 Y132.316 E3.22216
G1 X88.773 Y130.521 E3.29464
G1 X86.442 Y127.138 E3.39712
G1 X85.463 Y124.899 E3.45808
G1 X84.75 Y121.52 E3.54422
G1 X84.904 Y98.07 E4.1292
G1 X85.364 Y95.566 E4.19271
G1 X85.938 Y93.788 E4.23931
G1 X87.684 Y91.058 E4.32015
G1 X89.479 Y88.773 E4.39263
G0 F6000 X89.755 Y89.068
G1 F1200 X93.044 Y86.8 E4.49229
G1 X95.246 Y85.84 E4.55222
G1 X98.493 Y85.15 E4.63502
G1 X121.502 Y85.237 E5.20899
G1 X124.255 Y85.594 E5.27824
G1 X127.403 Y87.152 E5.36585
G1 X128.655 Y87.965 E5.40309
G1 X131.051 Y89.879 E5.47959
G1 X133.045 Y92.866 E5.56918
G1 X134.056 Y94.779 E5.62315
G1 X134.85 Y98.472 E5.71738
G1 X134.702 Y121.858 E6.30076
G1 X134.255 Y124.311 E6.36296
G1 X133.696 Y126.042 E6.40833
G1 X131.979 Y128.727 E6.48783
G1 X130.245 Y130.932 E6.55781
G1 X126.946 Y133.205 E6.65774
G1 X124.773 Y134.155 E6.7169
G1 X121.481 Y134.85 E6.80083
G1 X98.142 Y134.702 E7.38304
G1 X95.689 Y134.255 E7.44524
G1 X93.958 Y133.696 E7.49061
G1 X91.273 Y131.979 E7.57011
G1 X89.068 Y130.245 E7.64009
G1 X86.795 Y126.946 E7.74002
G1 X85.845 Y124.773 E7.79918
G1 X85.15 Y121.481 E7.88311
G1 X85.298 Y98.142 E8.46532
G1 X85.745 Y95.689 E8.52752
G1 X86.304 Y93.958 E8.57289
G1 X88.021 Y91.273 E8.65239
G1 X89.755 Y89.068 E8.72237
G0 F6000 X90.031 Y89.363
G1 F1200 X93.236 Y87.153 E8.81948
G1 X95.372 Y86.222 E8.8776
G1 X98.533 Y85.55 E8.95822
G1 X121.45 Y85.634 E9.52989
G1 X124.138 Y85.983 E9.5975
G1 X127.226 Y87.511 E9.68345
G1 X128.405 Y88.278 E9.71853
G1 X130.753 Y90.154 E9.7935
G1 X132.691 Y93.053 E9.88049
G1 X133.677 Y94.919 E9.93314
G1 X134.45 Y98.513 E10.02484
G1 X134.308 Y121.786 E10.6054
G1 X133.861 Y124.239 E10.6676
G1 X133.333 Y125.867 E10.71029
G1 X131.642 Y128.511 E10.78858
G1 X129.969 Y130.637 E10.85607
G1 X126.754 Y132.852 E10.95345
G1 X124.647 Y133.773 E11.01082
G1 X121.442 Y134.45 E11.09253
G1 X98.214 Y134.308 E11.67196
G1 X95.761 Y133.861 E11.73416
G1 X94.133 Y133.333 E11.77686
G1 X91.489 Y131.642 E11.85515
G1 X89.363 Y129.969 E11.92263
G1 X87.148 Y126.754 E12.02002
G1 X86.227 Y124.647 E12.07738
G1 X85.55 Y121.442 E12.15909
G1 X85.692 Y98.214 E12.73853
G1 X86.139 Y95.761 E12.80073
G1 X86.667 Y94.133 E12.84342
G1 X88.358 Y91.489 E12.92171
G1 X90.031 Y89.363 E12.9892
G0 F6000 X90.309 Y89.657
G1 F1200 X93.428 Y87.506 E13.08371
G1 X95.498 Y86.604 E13.14003
G1 X98.573 Y85.95 E13.21846
G1 X121.399 Y86.031 E13.78786
G1 X124.02 Y86.371 E13.85379
G1 X127.008 Y87.847 E13.93692
G1 X128.155 Y88.591 E13.97102
G1 X130.458 Y90.431 E14.04456
G1 X132.337 Y93.24 E14.12886
G1 X133.298 Y95.059 E14.18018
G1 X134.05 Y98.554 E14.26936
G1 X133.914 Y121.714 E14.84709
G1 X133.467 Y124.167 E14.90929
G1 X132.969 Y125.693 E14.94933
G1 X131.305 Y128.295 E15.02638
G1 X129.691 Y130.343 E15.09142
G1 X126.562 Y132.499 E15.18621
G1 X124.521 Y133.391 E15.24178
G1 X121.403 Y134.05 E15.32127
G1 X98.286 Y133.914 E15.89794
G1 X95.833 Y133.467 E15.96014
G1 X94.307 Y132.969 E16.00018
G1 X91.705 Y131.305 E16.07722
G1 X89.657 Y129.691 E16.14227
G1 X87.501 Y126.562 E16.23706
G1 X86.609 Y124.521 E16.29262
G1 X85.95 Y121.403 E16.37212
G1 X86.086 Y98.286 E16.94878
G1 X86.533 Y95.833 E17.01098
G1 X87.031 Y94.307 E17.05102
G1 X88.695 Y91.705 E17.12807
G1 X90.309 Y89.657 E17.19311
G0 F6000 X90.587 Y89.951
G1 F1200 X93.62 Y87.859 E17.28502
G1 X95.624 Y86.986 E17.33955
G1 X98.613 Y86.35 E17.41578
G1 X121.348 Y86.428 E17.98291
G1 X123.902 Y86.759 E18.04715
G1 X126.79 Y88.183 E18.12748
G1 X127.937 Y88.927 E18.16158
G1 X130.16 Y90.704 E18.23257
G1 X131.983 Y93.427 E18.31432
G1 X132.919 Y95.199 E18.36431
G1 X133.65 Y98.595 E18.45096
G1 X133.52 Y121.642 E19.02588
G1 X133.073 Y124.095 E19.08808
G1 X132.604 Y125.522 E19.12555
G1 X130.991 Y128.047 E19.20029
G1 X129.413 Y130.049 E19.26388
G1 X126.37 Y132.146 E19.35606
G1 X124.395 Y133.009 E19.40983
G1 X121.364 Y133.65 E19.48711
G1 X98.358 Y133.52 E20.061
G1 X95.905 Y133.073 E20.1232
G1 X94.478 Y132.604 E20.16067
G1 X91.953 Y130.991 E20.23541
G1 X89.951 Y129.413 E20.299
G1 X87.854 Y126.37 E20.39119
G1 X86.991 Y124.395 E20.44495
G1 X86.35 Y121.364 E20.52223
G1 X86.48 Y98.358 E21.09613
G1 X86.927 Y95.905 E21.15833
G1 X87.396 Y94.478 E21.1958
G1 X89.009 Y91.953 E21.27054
G1 X90.587 Y89.951 E21.33413
G0 F6000 X90.865 Y90.245
G1 F1200 X93.812 Y88.212 E21.42344
G1 X95.75 Y87.368 E21.47617
G1 X98.653 Y86.75 E21.5502
G1 X121.297 Y86.825 E22.11506
G1 X123.785 Y87.147 E22.17764
G1 X126.572 Y88.519 E22.25513
G1 X127.719 Y89.263 E22.28924
G1 X129.862 Y90.977 E22.35769
G1 X131.629 Y93.614 E22.43687
G1 X132.54 Y95.339 E22.48554
G1 X133.25 Y98.636 E22.56967
G1 X133.126 Y121.57 E23.14176
G1 X132.679 Y124.023 E23.20396
G1 X132.239 Y125.351 E23.23886
G1 X130.677 Y127.799 E23.3113
G1 X129.135 Y129.755 E23.37343
G1 X126.178 Y131.793 E23.46301
G1 X124.269 Y132.627 E23.51498
G1 X121.325 Y133.25 E23.59005
G1 X98.43 Y133.126 E24.16117
G1 X95.977 Y132.679 E24.22337
G1 X94.649 Y132.239 E24.25827
G1 X92.201 Y130.677 E24.33071
G1 X90.245 Y129.135 E24.39284
G1 X88.207 Y126.178 E24.48242
G1 X87.373 Y124.269 E24.53439
G1 X86.75 Y121.325 E24.60945
G1 X86.874 Y98.43 E25.18058
G1 X87.321 Y95.977 E25.24278
G1 X87.761 Y94.649 E25.27768
G1 X89.323 Y92.201 E25.35011
G1 X90.865 Y90.245 E25.41224
G0 F6000 X91.143 Y90.539
G1 F1200 X94.004 Y88.565 E25.49895
G1 X95.876 Y87.75 E25.54988
G1 X98.693 Y87.15 E25.62173
G1 X121.246 Y87.222 E26.18432
G1 X123.669 Y87.536 E26.24527
G1 X126.354 Y88.855 E26.31989
G1 X127.501 Y89.599 E26.35399
G1 X129.564 Y91.25 E26.41991
G1 X131.275 Y93.801 E26.49653
G1 X132.161 Y95.479 E26.54386
G1 X132.85 Y98.677 E26.62547
G1 X132.726 Y121.568 E27.19649
G1 X132.299 Y123.897 E27.25556
G1 X131.874 Y125.18 E27.28928
G1 X130.363 Y127.551 E27.35941
G1 X128.857 Y129.461 E27.42008
G1 X125.986 Y131.44 E27.50707
G1 X124.143 Y132.245 E27.55723
G1 X121.286 Y132.85 E27.63008
G1 X98.432 Y132.726 E28.20019
G1 X96.103 Y132.299 E28.25925
G1 X94.82 Y131.874 E28.29297
G1 X92.449 Y130.363 E28.3631
G1 X90.539 Y128.857 E28.42378
G1 X88.56 Y125.986 E28.51076
G1 X87.755 Y124.143 E28.56093
G1 X87.15 Y121.286 E28.63378
G1 X87.274 Y98.432 E29.20388
G1 X87.701 Y96.103 E29.26295
G1 X88.126 Y94.82 E29.29666
G1 X89.637 Y92.449 E29.36679
G1 X91.143 Y90.539 E29.42747
G0 F6000 X91.421 Y90.833
G1 F1200 X94.196 Y88.918 E29.51157
G1 X96.002 Y88.132 E29.56071
G1 X98.733 Y87.55 E29.63036
G1 X121.195 Y87.619 E30.19068
G1 X123.553 Y87.925 E30.24999
G1 X126.136 Y89.191 E30.32175
G1 X127.283 Y89.935 E30.35585
G1 X129.266 Y91.523 E30.41923
G1 X130.921 Y93.988 E30.49329
G1 X131.782 Y95.619 E30.5393
G1 X132.45 Y98.718 E30.61838
G1 X132.332 Y121.497 E31.18661
G1 X131.919 Y123.771 E31.24426
G1 X131.509 Y125.009 E31.27679
G1 X130.049 Y127.303 E31.34462
G1 X128.579 Y129.167 E31.40384
G1 X125.794 Y131.087 E31.48822
G1 X124.017 Y131.863 E31.53659
G1 X121.247 Y132.45 E31.60723
G1 X98.503 Y132.332 E32.17458
G1 X96.229 Y131.919 E32.23224
G1 X94.991 Y131.509 E32.26477
G1 X92.697 Y130.049 E32.3326
G1 X90.833 Y128.579 E32.39182
G1 X88.913 Y125.794 E32.4762
G1 X88.137 Y124.017 E32.52457
G1 X87.55 Y121.247 E32.5952
G1 X87.668 Y98.503 E33.16256
G1 X88.081 Y96.229 E33.22021
G1 X88.491 Y94.991 E33.25274
G1 X89.951 Y92.697 E33.32058
G1 X91.421 Y90.833 E33.37979
G0 F6000 X91.699 Y91.127
G1 F1200 X94.388 Y89.271 E33.4613
G1 X96.128 Y88.514 E33.50863
G1 X98.773 Y87.95 E33.57609
G1 X121.143 Y88.016 E34.13412
G1 X123.438 Y88.314 E34.19185
G1 X125.918 Y89.527 E34.26072
G1 X127.065 Y90.271 E34.29482
G1 X128.968 Y91.796 E34.35565
G1 X130.567 Y94.175 E34.42716
G1 X131.403 Y95.759 E34.47183
G1 X132.05 Y98.759 E34.54839
G1 X131.932 Y121.495 E35.11555
G1 X131.539 Y123.645 E35.17007
G1 X131.144 Y124.837 E35.20139
G1 X129.735 Y127.055 E35.26694
G1 X128.301 Y128.873 E35.3247
G1 X125.602 Y130.734 E35.40648
G1 X123.891 Y131.481 E35.45305
G1 X121.207 Y132.05 E35.52149
G1 X98.505 Y131.932 E36.08781
G1 X96.355 Y131.539 E36.14233
G1 X95.163 Y131.144 E36.17365
G1 X92.945 Y129.735 E36.2392
G1 X91.127 Y128.301 E36.29696
G1 X89.266 Y125.602 E36.37874
G1 X88.519 Y123.891 E36.42531
G1 X87.95 Y121.207 E36.49375
G1 X88.068 Y98.505 E37.06006
G1 X88.461 Y96.355 E37.11458
G1 X88.856 Y95.163 E37.14591
G1 X90.265 Y92.945 E37.21146
G1 X91.699 Y91.127 E37.26922
G0 F6000 X91.977 Y91.421
G1 F1200 X94.58 Y89.624 E37.34812
G1 X96.254 Y88.896 E37.39366
G1 X98.813 Y88.35 E37.45893
G1 X121.091 Y88.413 E38.01466
G1 X123.322 Y88.703 E38.07078
G1 X125.7 Y89.863 E38.13678
G1 X126.847 Y90.607 E38.17088
G1 X128.67 Y92.069 E38.22917
G1 X130.213 Y94.362 E38.29812
G1 X131.024 Y95.899 E38.34147
G1 X131.65 Y98.8 E38.4155
G1 X131.532 Y121.493 E38.98159
G1 X131.159 Y123.519 E39.03297
G1 X130.779 Y124.665 E39.06309
G1 X129.421 Y126.807 E39.12636
G1 X128.023 Y128.579 E39.18266
G1 X125.41 Y130.381 E39.26184
G1 X123.765 Y131.099 E39.30661
G1 X121.167 Y131.65 E39.37286
G1 X98.507 Y131.532 E39.93813
G1 X96.481 Y131.159 E39.98951
G1 X95.335 Y130.779 E40.01963
G1 X93.193 Y129.421 E40.0829
G1 X91.421 Y128.023 E40.1392
G1 X89.619 Y125.41 E40.21838
G1 X88.901 Y123.765 E40.26315
G1 X88.35 Y121.167 E40.3294
G1 X88.468 Y98.507 E40.89466
G1 X88.841 Y96.481 E40.94605
G1 X89.221 Y95.335 E40.97617
G1 X90.579 Y93.193 E41.03944
G1 X91.977 Y91.421 E41.09574
G0 F6000 X92.255 Y91.715
G1 F1200 X94.774 Y89.976 E41.17209
G1 X96.377 Y89.279 E41.2157
G1 X98.854 Y88.75 E41.27888
G1 X121.039 Y88.81 E41.83229
G1 X123.206 Y89.092 E41.8868
G1 X125.482 Y90.199 E41.94994
G1 X126.629 Y90.943 E41.98404
G1 X128.371 Y92.341 E42.03976
G1 X129.859 Y94.549 E42.10618
G1 X130.645 Y96.039 E42.1482
G1 X131.25 Y98.841 E42.21971
G1 X131.138 Y121.421 E42.78297
G1 X130.779 Y123.393 E42.83297
G1 X130.414 Y124.493 E42.86188
G1 X129.107 Y126.559 E42.92287
G1 X127.745 Y128.285 E42.97771
G1 X125.218 Y130.028 E43.05429
G1 X123.639 Y130.717 E43.09726
G1 X121.127 Y131.25 E43.16132
G1 X98.579 Y131.138 E43.72379
G1 X96.607 Y130.779 E43.77379
G1 X95.507 Y130.414 E43.8027
G1 X93.441 Y129.107 E43.86369
G1 X91.715 Y127.745 E43.91853
G1 X89.972 Y125.218 E43.99511
G1 X89.283 Y123.639 E44.03808
G1 X88.75 Y121.127 E44.10214
G1 X88.862 Y98.579 E44.66461
G1 X89.221 Y96.607 E44.71461
G1 X89.586 Y95.507 E44.74352
G1 X90.893 Y93.441 E44.8045
G1 X92.255 Y91.715 E44.85935
G0 F6000 X92.533 Y92.009
G1 F1200 X94.966 Y90.329 E44.9331
G1 X96.502 Y89.661 E44.97489
G1 X98.895 Y89.15 E45.03593
G1 X120.987 Y89.207 E45.58702
G1 X123.09 Y89.481 E45.63992
G1 X125.264 Y90.535 E45.70019
G1 X126.411 Y91.279 E45.73429
G1 X128.072 Y92.613 E45.78743
G1 X129.505 Y94.736 E45.85133
G1 X130.266 Y96.179 E45.89202
G1 X130.85 Y98.882 E45.961
G1 X130.738 Y121.419 E46.5232
G1 X130.399 Y123.267 E46.57007
G1 X130.049 Y124.322 E46.59779
G1 X128.793 Y126.311 E46.65647
G1 X127.467 Y127.991 E46.70986
G1 X125.026 Y129.675 E46.78384
G1 X123.513 Y130.335 E46.82501
G1 X121.087 Y130.85 E46.88688
G1 X98.581 Y130.738 E47.4483
G1 X96.733 Y130.399 E47.49517
G1 X95.678 Y130.049 E47.5229
G1 X93.689 Y128.793 E47.58158
G1 X92.009 Y127.467 E47.63497
G1 X90.325 Y125.026 E47.70894
G1 X89.665 Y123.513 E47.75012
G1 X89.15 Y121.087 E47.81198
G1 X89.262 Y98.581 E48.3734
G1 X89.601 Y96.733 E48.42027
G1 X89.951 Y95.678 E48.448
G1 X91.207 Y93.689 E48.50668
G1 X92.533 Y92.009 E48.56007
G0 F6000 X92.811 Y92.303
G1 F1200 X95.16 Y90.681 E48.63128
G1 X96.625 Y90.044 E48.67113
G1 X98.936 Y89.55 E48.73008
G1 X120.935 Y89.604 E49.27885
G1 X122.976 Y89.87 E49.33019
G1 X125.046 Y90.871 E49.38755
G1 X126.193 Y91.615 E49.42165
G1 X127.774 Y92.887 E49.47227
G1 X129.173 Y94.96 E49.53465
G1 X129.887 Y96.317 E49.5729
G1 X130.45 Y98.923 E49.63941
G1 X130.344 Y121.348 E50.19881
G1 X130.019 Y123.141 E50.24427
G1 X129.684 Y124.149 E50.27076
G1 X128.479 Y126.063 E50.32718
G1 X127.189 Y127.697 E50.37911
G1 X124.834 Y129.322 E50.45049
G1 X123.387 Y129.953 E50.48987
G1 X121.047 Y130.45 E50.54954
G1 X98.652 Y130.344 E51.10819
G1 X96.859 Y130.019 E51.15365
G1 X95.851 Y129.684 E51.18014
G1 X93.937 Y128.479 E51.23656
G1 X92.303 Y127.189 E51.28849
G1 X90.678 Y124.834 E51.35987
G1 X90.047 Y123.387 E51.39925
G1 X89.55 Y121.047 E51.45892
G1 X89.656 Y98.652 E52.01757
G1 X89.981 Y96.859 E52.06303
G1 X90.316 Y95.851 E52.08952
G1 X91.521 Y93.937 E52.14594
G1 X92.811 Y92.303 E52.19787
G0 F6000 X93.089 Y92.597
G1 F1200 X95.354 Y91.033 E52.26654
G1 X96.748 Y90.427 E52.30445
G1 X98.977 Y89.95 E52.36131
G1 X120.883 Y90.001 E52.90776
G1 X122.862 Y90.259 E52.95755
G1 X124.828 Y91.207 E53.01199
G1 X125.975 Y91.951 E53.0461
G1 X127.474 Y93.159 E53.09412
G1 X128.841 Y95.184 E53.15507
G1 X129.508 Y96.455 E53.19087
G1 X130.05 Y98.964 E53.2549
G1 X129.944 Y121.346 E53.81323
G1 X129.639 Y123.015 E53.85555
G1 X129.319 Y123.977 E53.88084
G1 X128.165 Y125.815 E53.93498
G1 X126.911 Y127.403 E53.98546
G1 X124.642 Y128.969 E54.05423
G1 X123.261 Y129.571 E54.09181
G1 X121.007 Y130.05 E54.14929
G1 X98.654 Y129.944 E54.70689
G1 X96.985 Y129.639 E54.74922
G1 X96.023 Y129.319 E54.77451
G1 X94.185 Y128.165 E54.82864
G1 X92.597 Y126.911 E54.87912
G1 X91.031 Y124.642 E54.94789
G1 X90.429 Y123.261 E54.98547
G1 X89.95 Y121.007 E55.04295
G1 X90.056 Y98.654 E55.60056
G1 X90.361 Y96.985 E55.64288
G1 X90.681 Y96.023 E55.66817
G1 X91.835 Y94.185 E55.72231
G1 X93.089 Y92.597 E55.77278
G0 F6000 X93.367 Y92.891
G1 F1200 X95.546 Y91.386 E55.83884
G1 X96.873 Y90.809 E55.87494
G1 X99.018 Y90.35 E55.92966
G1 X120.831 Y90.398 E56.47378
G1 X122.746 Y90.648 E56.52196
G1 X124.61 Y91.543 E56.57354
G1 X125.757 Y92.287 E56.60764
G1 X127.176 Y93.432 E56.65313
G1 X128.487 Y95.37 E56.71149
G1 X129.129 Y96.593 E56.74595
G1 X129.65 Y99.005 E56.8075
G1 X129.544 Y121.344 E57.36476
G1 X129.259 Y122.889 E57.40395
G1 X128.954 Y123.807 E57.42808
G1 X127.851 Y125.567 E57.47989
G1 X126.633 Y127.109 E57.52891
G1 X124.45 Y128.616 E57.59508
G1 X123.135 Y129.189 E57.63086
G1 X120.967 Y129.65 E57.68615
G1 X98.656 Y129.544 E58.24271
G1 X97.111 Y129.259 E58.2819
G1 X96.193 Y128.954 E58.30603
G1 X94.433 Y127.851 E58.35784
G1 X92.891 Y126.633 E58.40686
G1 X91.384 Y124.45 E58.47303
G1 X90.811 Y123.135 E58.50881
G1 X90.35 Y120.967 E58.5641
G1 X90.456 Y98.656 E59.12066
G1 X90.741 Y97.111 E59.15985
G1 X91.046 Y96.193 E59.18398
G1 X92.149 Y94.433 E59.23579
G1 X93.367 Y92.891 E59.28481
G0 F6000 X93.645 Y93.185
G1 F1200 X95.74 Y91.738 E59.34832
G1 X96.996 Y91.192 E59.38249
G1 X99.06 Y90.75 E59.43514
G1 X120.779 Y90.795 E59.97692
G1 X122.631 Y91.037 E60.02352
G1 X124.392 Y91.879 E60.07221
G1 X125.539 Y92.623 E60.10631
G1 X126.878 Y93.706 E60.14927
